P3
160 90
255
154 143 163 154 143 163 154 143 163 154 143 163 154 143 163 255 255 255 255 255 255 255 255 255 255 255 255 255 255 255 255 255 255 255 255 255 255 255 255 255 255 255 255 255 255 255 255 255 255 255 255 255 255 255 255 255 255 255 255 255 255 255 255 255 255 255 255 255 255 255 255 255 255 255 255 255 255 255 255 255 255 255 255 255 255 255 255 255 255 255 255 255 255 255 255 255 255 255 255 255 255 255 255 255 255 255 255 255 255 255 255 255 255 255 255 255 255 255 255 255 255 255 255 255 255 255 153 143 164 153 143 164 153 143 164 153 143 164 153 143 164 153 143 164 153 143 164 153 143 164 153 143 164 153 143 164 153 143 164 153 143 164 153 143 164 153 143 164 153 143 164 153 143 164 153 143 164 153 143 164 153 143 164 153 143 164 153 143 164 153 143 164 153 143 164 153 143 164 153 143 164 153 143 164 153 143 164 153 143 164 153 143 164 153 143 164 153 143 164 153 143 164 153 143 164 153 143 164 153 143 164 153 143 164 153 143 164 153 143 164 153 143 164 153 143 164 153 143 164 153 143 164 153 143 164 153 143 164 153 143 164 153 143 164 153 143 164 153 143 164 153 143 164 153 143 164 153 143 164 153 143 164 153 143 164 153 143 164 153 143 164 153 143 164 153 143 164 153 143 164 153 143 164 153 143 164 153 143 164 153 143 164 153 143 164 153 143 164 153 143 164 153 143 164 153 143 164 153 143 164 153 143 164 153 143 164 153 143 164 153 143 164 153 143 164 153 143 164 153 143 164 153 143 164 153 143 164 153 143 164 153 143 164 153 143 164 153 143 164 153 143 164 153 143 164 153 143 164 153 143 164 153 143 164 153 143 164 153 143 164 153 143 164 153 143 164 153 143 164 153 143 164 153 143 164 153 143 164 153 143 164 153 143 164 153 143 164 153 143 164 153 143 164 153 143 164 153 143 164 153 143 164 153 143 164 154 143 164 153 143 164 154 143 164 153 143 164 154 143 163 154 143 164 154 143 164 154 143 163 154 143 164 154 143 163 154 143 163 154 143 163 154 143 163 154 143 163 154 143 163
154 143 163 154 143 163 154 143 163 154 143 163 154 143 163 255 255 255 255 255 255 255 255 255 255 255 255 255 255 255 255 255 255 255 255 255 255 255 255 255 255 255 255 255 255 255 255 255 255 255 255 255 255 255 255 255 255 255 255 255 255 255 255 255 255 255 255 255 255 255 255 255 255 255 255 255 255 255 255 255 255 255 255 255 255 255 255 255 255 255 255 255 255 255 255 255 255 255 255 255 255 255 255 255 255 255 255 255 255 255 255 255 255 255 255 255 255 255 255 255 255 255 255 255 255 255 153 143 164 153 143 164 153 143 164 154 143 164 153 143 164 153 143 164 153 143 164 153 143 164 153 143 164 153 143 164 153 143 164 153 143 164 153 143 164 153 143 164 153 143 164 153 143 164 153 143 164 153 143 164 153 143 164 153 143 164 153 143 164 153 143 164 153 143 164 153 143 164 153 143 164 153 143 164 153 143 164 153 143 164 153 143 164 153 143 164 153 143 164 153 143 164 153 143 164 153 143 164 153 143 164 153 143 164 153 143 164 153 143 164 153 143 164 153 143 164 153 143 164 153 143 164 153 143 164 153 143 164 153 143 164 153 143 164 153 143 164 153 143 164 153 143 164 153 143 164 153 143 164 153 143 164 153 143 164 153 143 164 153 143 164 153 143 164 153 143 164 153 143 164 153 143 164 153 143 164 153 143 164 153 143 164 153 143 164 153 143 164 153 143 164 153 143 164 153 143 164 153 143 164 153 143 164 153 143 164 153 143 164 153 143 164 153 143 164 153 143 164 153 143 164 154 143 163 153 143 164 154 143 164 154 143 163 153 143 164 153 143 164 153 143 164 154 143 164 153 143 164 154 143 163 154 143 164 154 143 163 154 143 163 154 143 163 154 143 163 154 143 163 154 143 164 154 143 163 154 143 163 154 143 163 154 143 163 154 143 163 154 143 163 154 143 163 154 143 163 154 143 163 154 143 163 154 143 163 154 143 163 154 143 163 154 143 163 154 143 163 154 143 163 154 143 163 154 143 163 154 143 163 154 143 163 154 143 163 154 143 163 154 143 163 154 143 163 154 143 163 154 143 163
154 143 163 154 143 163 154 143 163 154 143 163 154 143 163 154 143 163 255 255 255 255 255 255 255 255 255 255 255 255 255 255 255 255 255 255 255 255 255 255 255 255 255 255 255 255 255 255 255 255 255 255 255 255 255 255 255 255 255 255 255 255 255 255 255 255 255 255 255 255 255 255 255 255 255 255 255 255 255 255 255 255 255 255 255 255 255 255 255 255 255 255 255 255 255 255 255 255 255 255 255 255 255 255 255 255 255 255 255 255 255 255 255 255 255 255 255 255 255 255 255 255 255 255 255 255 154 143 163 154 143 163 154 143 163 154 143 163 154 143 163 154 143 163 154 143 163 154 143 163 154 143 163 154 143 163 154 143 163 154 143 163 154 143 163 154 143 163 154 143 163 154 143 163 154 143 163 154 143 163 154 143 163 154 143 163 154 143 164 154 143 163 154 143 163 154 143 164 154 143 163 154 143 164 154 143 164 154 143 163 154 143 163 154 143 164 154 143 163 154 143 164 154 143 164 153 143 164 154 143 164 154 143 164 154 143 163 153 143 164 154 143 163 154 143 163 154 143 163 154 143 163 154 143 163 153 143 164 154 143 163 154 143 163 154 143 164 154 143 163 154 143 163 154 143 163 154 143 163 154 143 163 154 143 163 154 143 164 154 143 163 154 143 164 154 143 164 154 143 163 154 143 163 154 143 164 154 143 163 154 143 163 154 143 163 154 143 163 154 143 163 154 143 163 154 143 163 154 143 163 154 143 163 154 143 163 154 143 163 154 143 163 154 143 163 154 143 163 154 143 163 154 143 163 154 143 163 154 143 163 154 143 163 154 143 163 154 143 163 154 143 163 154 143 163 154 143 163 154 143 163 154 143 163 154 143 163 154 143 163 154 143 163 154 143 163 154 143 163 154 143 163 154 143 163 154 143 163 154 143 163 154 143 163 154 143 163 154 143 163 154 143 163 154 143 163 154 143 163 154 143 163 154 143 163 154 143 163 154 143 163 154 143 163 154 143 163 154 143 163 154 143 163 154 143 163 154 143 163 154 143 163 154 143 163 154 143 163 154 143 163 154 143 163 154 143 163 154 143 163
155 143 163 155 143 163 155 143 163 154 143 163 155 143 163 255 252 235 255 255 255 255 255 255 255 255 255 255 255 255 255 255 255 255 255 255 255 255 255 255 255 255 255 255 255 255 255 255 255 255 255 255 255 255 255 255 255 255 255 255 255 255 255 255 255 255 255 255 255 255 255 255 255 255 255 255 255 255 255 255 255 255 255 255 255 255 255 255 255 255 255 255 255 255 255 255 255 255 255 255 255 255 255 255 255 255 255 255 255 255 255 255 255 255 255 255 255 255 255 255 255 255 255 255 255 255 154 143 163 154 143 163 154 143 163 154 143 163 154 143 163 154 143 163 154 143 163 154 143 163 154 143 163 154 143 163 154 143 163 154 143 163 154 143 163 154 143 163 154 143 163 154 143 163 154 143 163 154 143 163 154 143 163 154 143 163 154 143 163 154 143 163 154 143 163 154 143 163 154 143 163 154 143 163 154 143 163 154 143 163 154 143 163 154 143 163 154 143 163 154 143 163 154 143 163 154 143 163 154 143 163 154 143 163 154 143 163 154 143 163 154 143 163 154 143 163 154 143 163 154 143 163 154 143 163 154 143 163 154 143 163 154 143 163 154 143 163 154 143 163 154 143 163 154 143 163 154 143 163 154 143 163 154 143 163 154 143 163 154 143 163 154 143 163 154 143 163 154 143 163 154 143 163 154 143 163 154 143 163 154 143 163 154 143 163 154 143 163 154 143 163 154 143 163 154 143 163 154 143 163 154 143 163 154 143 163 154 143 163 154 143 163 154 143 163 154 143 163 154 143 163 154 143 163 154 143 163 154 143 163 154 143 163 154 143 163 154 143 163 154 143 163 154 143 163 154 143 163 154 143 163 154 143 163 154 143 163 154 143 163 154 143 163 154 143 163 154 143 163 154 143 163 154 143 163 154 143 163 154 143 163 154 143 163 154 143 163 154 143 163 154 143 163 154 143 163 154 143 163 154 143 163 154 143 163 154 143 163 154 143 163 154 143 163 154 143 163 154 143 163 154 143 163 155 143 163 155 143 163 154 143 163 154 143 163 155 143 163 155 143 163 155 143 163 154 143 163 155 143 163
155 144 163 155 143 163 155 144 163 155 143 163 155 143 163 155 143 163 255 255 255 255 255 255 255 255 255 255 255 255 255 255 255 255 255 255 255 255 255 255 255 255 255 255 255 255 255 255 255 255 255 255 255 255 255 255 255 255 255 255 255 255 255 255 255 255 255 255 255 255 255 255 255 255 255 255 255 255 255 255 255 255 255 255 255 255 255 255 255 255 255 255 255 255 255 255 255 255 255 255 255 255 255 255 255 255 255 255 255 255 255 255 255 255 255 255 255 255 255 255 255 255 255 255 255 255 154 143 163 154 143 163 154 143 163 154 143 163 154 143 163 154 143 163 154 143 163 154 143 163 154 143 163 154 143 163 154 143 163 154 143 163 154 143 163 154 143 163 154 143 163 154 143 163 154 143 163 154 143 163 154 143 163 154 143 163 154 143 163 154 143 163 154 143 163 154 143 163 154 143 163 154 143 163 154 143 163 154 143 163 154 143 163 154 143 163 154 143 163 154 143 163 154 143 163 154 143 163 154 143 163 154 143 163 154 143 163 154 143 163 154 143 163 154 143 163 154 143 163 154 143 163 154 143 163 154 143 163 154 143 163 154 143 163 154 143 163 154 143 163 154 143 163 154 143 163 154 143 163 154 143 163 154 143 163 154 143 163 154 143 163 154 143 163 154 143 163 154 143 163 154 143 163 154 143 163 154 143 163 154 143 163 154 143 163 154 143 163 154 143 163 154 143 163 154 143 163 154 143 163 154 143 163 154 143 163 154 143 163 154 143 163 154 143 163 154 143 163 154 143 163 154 143 163 154 143 163 154 143 163 154 143 163 154 143 163 154 143 163 154 143 163 154 143 163 155 143 163 154 143 163 154 143 163 155 143 163 154 143 163 154 143 163 155 143 163 154 143 163 155 143 163 155 143 163 155 143 163 155 143 163 155 143 163 155 143 163 155 143 163 155 143 163 155 143 163 154 143 163 155 143 163 155 143 163 155 143 163 155 143 163 155 143 163 155 143 163 155 143 163 155 143 163 155 143 163 155 143 163 155 143 163 155 143 163 155 143 163 155 144 163 155 144 163 155 143 163 155 144 163
155 144 163 155 144 163 155 144 163 155 144 163 155 144 163 155 144 163 255 255 255 255 255 255 255 255 255 255 255 255 255 255 255 255 255 255 255 255 255 255 255 255 255 255 255 255 255 255 255 255 255 255 255 255 255 255 255 255 255 255 255 255 255 255 255 255 255 255 255 255 255 255 255 255 255 255 255 255 255 255 255 255 255 255 255 255 255 255 255 255 255 255 255 255 255 255 255 255 255 255 255 255 255 255 255 255 255 255 255 255 255 255 255 255 255 255 255 255 255 255 255 255 255 255 255 255 155 143 163 155 143 163 155 143 163 155 143 163 155 143 163 155 143 163 155 143 163 155 143 163 155 143 163 155 143 163 155 143 163 155 143 163 155 143 163 155 143 163 155 143 163 155 143 163 155 143 163 155 143 163 155 143 163 154 143 163 155 143 163 155 143 163 154 143 163 155 143 163 155 143 163 155 143 163 155 143 163 155 143 163 155 143 163 155 143 163 155 143 163 155 143 163 155 143 163 155 143 163 155 143 163 154 143 163 155 143 163 155 143 163 155 143 163 155 143 163 155 143 163 155 143 163 155 143 163 155 143 163 155 143 163 154 143 163 155 143 163 155 143 163 155 143 163 155 143 163 155 143 163 155 143 163 155 143 163 155 143 163 155 143 163 155 143 163 155 143 163 155 143 163 154 143 163 155 143 163 155 143 163 155 143 163 155 143 163 155 143 163 155 143 163 155 143 163 155 143 163 155 143 163 155 143 163 155 143 163 155 143 163 155 143 163 155 143 163 155 143 163 155 143 163 155 143 163 155 143 163 155 143 163 155 143 163 155 143 163 155 143 163 155 144 163 155 143 163 155 143 163 155 143 163 155 144 163 155 143 163 155 143 163 155 144 163 155 144 163 155 144 163 155 144 163 155 144 163 155 144 163 155 144 163 155 143 163 155 144 163 155 144 163 155 144 163 155 144 163 155 144 163 155 144 163 155 144 163 155 144 163 155 144 163 155 144 163 155 144 163 155 144 163 155 144 163 155 144 163 155 144 163 155 144 163 155 144 163 155 144 163 155 144 163 155 144 163 155 144 163 155 144 163
155 144 163 156 144 163 155 144 163 155 144 163 155 144 163 155 144 163 255 255 255 255 255 255 255 255 255 255 255 255 255 255 255 255 255 255 255 255 255 255 255 255 255 255 255 255 255 255 255 255 255 255 255 255 255 255 255 255 255 255 255 255 255 255 255 255 255 255 255 255 255 255 255 255 255 255 255 255 255 255 255 255 255 255 255 255 255 255 255 255 255 255 255 255 255 255 255 255 255 255 255 255 255 255 255 255 255 255 255 255 255 255 255 255 255 255 255 255 255 255 255 255 255 255 255 255 155 144 163 155 144 163 155 144 163 155 144 163 155 144 163 155 144 163 155 144 163 155 144 163 155 144 163 155 144 163 155 144 163 155 144 163 155 143 163 155 144 163 155 144 163 155 144 163 155 144 163 155 144 163 155 144 163 155 144 163 155 144 163 155 144 163 155 144 163 155 144 163 155 144 163 155 143 163 155 143 163 155 144 163 155 144 163 155 143 163 155 144 163 155 143 163 155 144 163 155 144 163 155 144 163 155 143 163 155 144 163 155 143 163 155 144 163 155 144 163 155 144 163 155 144 163 155 144 163 155 144 163 155 144 163 155 143 163 155 144 163 155 144 163 155 144 163 155 144 163 155 144 163 155 144 163 155 143 163 155 143 163 155 144 163 155 143 163 155 143 163 155 144 163 155 143 163 155 144 163 155 144 163 155 144 163 155 144 163 155 144 163 155 143 163 155 144 163 155 144 163 155 144 163 155 144 163 155 144 163 155 144 163 155 144 163 155 144 163 155 144 163 155 144 163 155 144 163 155 144 163 155 144 163 155 144 163 155 144 163 155 144 163 155 144 163 155 144 163 155 144 163 155 144 163 155 144 163 155 144 163 155 144 163 155 144 163 155 144 163 155 144 163 155 144 163 155 144 163 155 144 163 155 144 163 155 144 163 155 144 163 155 144 163 155 144 163 155 144 163 155 144 163 155 144 163 155 144 163 155 144 163 155 144 163 155 144 163 155 144 163 155 144 163 155 144 163 155 144 163 155 144 163 155 144 163 155 144 163 155 144 163 155 144 163 155 144 163 156 144 163 155 144 163
156 144 163 156 144 163 156 144 163 156 144 163 156 144 163 156 144 163 156 144 163 255 255 255 255 255 255 255 255 255 255 255 255 255 255 255 255 255 255 255 255 255 255 255 255 255 255 255 255 255 255 255 255 255 255 255 255 255 255 255 255 255 255 255 255 255 255 255 255 255 255 255 255 255 255 255 255 255 255 255 255 255 255 255 255 255 255 255 255 255 255 255 255 255 255 255 255 255 255 255 255 255 255 255 255 255 255 255 255 255 255 255 255 255 255 255 255 255 255 255 255 255 255 255 253 235 155 144 163 155 144 163 155 144 163 155 144 163 155 144 163 155 144 163 155 144 163 155 144 163 155 144 163 155 144 163 155 144 163 155 144 163 155 144 163 155 144 163 155 144 163 155 144 163 155 144 163 155 144 163 155 144 163 155 144 163 155 144 163 155 144 163 155 144 163 155 144 163 155 144 163 155 144 163 155 144 163 155 144 163 155 144 163 155 144 163 155 144 163 155 144 163 155 144 163 155 144 163 155 144 163 155 144 163 155 144 163 155 144 163 155 144 163 155 144 163 155 144 163 155 144 163 155 144 163 155 144 163 155 144 163 155 144 163 155 144 163 155 144 163 155 144 163 155 144 163 155 144 163 155 144 163 155 144 163 155 144 163 155 144 163 155 144 163 155 144 163 155 144 163 155 144 163 155 144 163 155 144 163 155 144 163 155 144 163 155 144 163 155 144 163 155 144 163 155 144 163 155 144 163 155 144 163 155 144 163 155 144 163 155 144 163 155 144 163 155 144 163 155 144 163 155 144 163 155 144 163 155 144 163 155 144 163 155 144 163 155 144 163 155 144 163 155 144 163 155 144 163 155 144 163 155 144 163 155 144 163 155 144 163 156 144 163 155 144 163 155 144 163 156 144 163 155 144 163 156 144 163 155 144 163 156 144 163 155 144 163 156 144 163 156 144 163 156 144 163 156 144 163 156 144 163 156 144 163 156 144 163 156 144 163 156 144 163 156 144 163 156 144 163 156 144 163 156 144 163 156 144 163 156 144 163 156 144 163 156 144 163 156 144 163 156 144 163 156 144 163 156 144 163
156 144 163 156 144 163 156 144 163 156 144 163 156 144 163 156 144 163 156 144 163 255 255 255 255 255 255 255 255 255 255 255 255 255 255 255 255 255 255 255 255 255 255 255 255 255 255 255 255 255 255 255 255 255 255 255 255 255 255 255 255 255 255 255 255 255 255 255 255 255 255 255 255 255 255 255 255 255 255 255 255 255 255 255 255 255 255 255 255 255 255 255 255 255 255 255 255 255 255 255 255 255 255 255 255 255 255 255 255 255 255 255 255 255 255 255 255 255 255 255 255 255 255 156 144 163 156 144 163 156 144 163 156 144 163 156 144 163 156 144 163 156 144 163 156 144 163 156 144 163 156 144 163 156 144 163 156 144 163 156 144 163 156 144 163 156 144 163 156 144 163 156 144 163 156 144 163 156 144 163 156 144 163 156 144 163 156 144 163 156 144 163 156 144 163 156 144 163 156 144 163 156 144 163 156 144 163 156 144 163 156 144 163 156 144 163 156 144 163 156 144 163 156 144 163 156 144 163 155 144 163 156 144 163 156 144 163 156 144 163 156 144 163 156 144 163 156 144 163 156 144 163 156 144 163 156 144 163 156 144 163 156 144 163 156 144 163 156 144 163 155 144 163 156 144 163 155 144 163 156 144 163 156 144 163 156 144 163 156 144 163 156 144 163 156 144 163 156 144 163 156 144 163 156 144 163 156 144 163 156 144 163 156 144 163 156 144 163 156 144 163 156 144 163 156 144 163 156 144 163 156 144 163 156 144 163 156 144 163 156 144 163 156 144 163 156 144 163 156 144 163 156 144 163 156 144 163 156 144 163 156 144 163 156 144 163 156 144 163 156 144 163 156 144 163 156 144 163 156 144 163 156 144 163 156 144 163 156 144 163 156 144 163 156 144 163 156 144 163 156 144 163 156 144 163 156 144 163 156 144 163 156 144 163 156 144 163 156 144 163 156 144 163 156 144 163 156 144 163 156 144 163 156 144 163 156 144 163 156 144 163 156 144 163 156 144 163 156 144 163 156 144 163 156 144 163 156 144 163 156 144 163 156 144 163 156 144 163 156 144 163 156 144 163 156 144 163 156 144 163
156 144 162 156 144 162 156 144 162 156 144 163 156 144 163 156 144 162 156 144 162 156 144 162 255 255 255 255 255 255 255 255 255 255 255 255 255 255 255 255 255 255 255 255 255 255 255 255 255 255 255 255 255 255 255 255 255 255 255 255 255 255 255 255 255 255 255 255 255 255 255 255 255 255 255 255 255 255 255 255 255 255 255 255 255 255 255 255 255 255 255 255 255 255 255 255 255 255 255 255 255 255 255 255 255 255 255 255 255 255 255 255 255 255 255 255 255 255 255 255 255 255 255 156 144 163 156 144 163 156 144 163 156 144 163 156 144 163 156 144 163 156 144 163 156 144 163 156 144 163 156 144 163 156 144 163 156 144 163 156 144 163 156 144 163 156 144 163 156 144 163 156 144 163 156 144 163 156 144 163 156 144 163 156 144 163 156 144 163 156 144 163 156 144 163 156 144 163 156 144 163 156 144 163 156 144 163 156 144 163 156 144 163 156 144 163 156 144 163 156 144 163 156 144 163 156 144 163 156 144 163 156 144 163 156 144 163 156 144 163 156 144 163 156 144 163 156 144 163 156 144 163 156 144 163 156 144 163 156 144 163 156 144 163 156 144 163 156 144 163 156 144 163 156 144 163 156 144 163 156 144 163 156 144 163 156 144 163 156 144 163 156 144 163 156 144 163 156 144 163 156 144 163 156 144 163 156 144 163 156 144 163 156 144 163 156 144 163 156 144 163 156 144 163 156 144 163 156 144 163 156 144 163 156 144 163 156 144 163 156 144 163 156 144 163 156 144 163 156 144 163 156 144 163 156 144 163 156 144 163 156 144 163 156 144 163 156 144 163 156 144 163 156 144 163 156 144 163 156 144 163 156 144 163 156 144 163 156 144 163 156 144 163 156 144 163 156 144 163 156 144 163 156 144 163 156 144 163 156 144 163 156 144 163 156 144 163 156 144 163 156 144 163 156 144 163 156 144 163 156 144 163 156 144 163 156 144 163 156 144 162 156 144 162 156 144 163 156 144 163 156 144 163 156 144 162 156 144 163 156 144 162 156 144 162 156 144 163 156 144 163 156 144 162 156 144 162 156 144 162
157 144 162 157 144 162 157 144 162 157 144 162 157 144 162 157 144 162 157 144 162 157 144 162 255 253 234 255 255 255 255 255 255 255 255 255 255 255 255 255 255 255 255 255 255 255 255 255 255 255 255 255 255 255 255 255 255 255 255 255 255 255 255 255 255 255 255 255 255 255 255 255 255 255 255 255 255 255 255 255 255 255 255 255 255 255 255 255 255 255 255 255 255 255 255 255 255 255 255 255 255 255 255 255 255 255 255 255 255 255 255 255 255 255 255 255 255 255 255 255 255 255 255 156 144 162 156 144 162 156 144 162 156 144 162 156 144 162 156 144 162 156 144 162 156 144 162 156 144 162 156 144 162 156 144 162 156 144 163 156 144 162 156 144 162 156 144 163 156 144 162 156 144 163 156 144 162 156 144 162 156 144 162 156 144 163 156 144 163 156 144 162 156 144 163 156 144 163 156 144 163 156 144 163 156 144 162 156 144 162 156 144 162 156 144 163 156 144 163 156 144 163 156 144 163 156 144 162 156 144 163 156 144 162 156 144 163 156 144 163 156 144 163 156 144 163 156 144 162 156 144 163 156 144 163 156 144 162 156 144 162 156 144 163 156 144 163 156 144 163 156 144 163 156 144 163 156 144 162 156 144 163 156 144 162 156 144 163 156 144 162 156 144 163 156 144 162 156 144 162 156 144 163 156 144 162 156 144 162 156 144 163 156 144 162 156 144 163 156 144 162 156 144 163 156 144 162 156 144 163 156 144 162 156 144 163 156 144 163 156 144 162 156 144 162 156 144 162 156 144 162 156 144 162 156 144 162 156 144 162 156 144 162 156 144 162 156 144 162 156 144 162 156 144 162 156 144 162 156 144 162 156 144 162 156 144 162 156 144 162 156 144 162 156 144 162 156 144 162 156 144 162 156 144 162 156 144 162 156 144 162 156 144 162 156 144 162 157 144 162 156 144 162 157 144 162 157 144 162 157 144 162 157 144 162 156 144 162 157 144 162 157 144 162 157 144 162 157 144 162 156 144 162 157 144 162 157 144 162 157 144 162 157 144 162 156 144 162 157 144 162 157 144 162 157 144 162 157 144 162
157 144 162 157 144 162 157 144 162 157 144 162 157 144 162 157 144 162 157 144 162 157 144 162 157 144 162 255 255 255 255 255 255 255 255 255 255 255 255 255 255 255 255 255 255 255 255 255 255 255 255 255 255 255 255 255 255 255 255 255 255 255 255 255 255 255 255 255 255 255 255 255 255 255 255 255 255 255 255 255 255 255 255 255 255 255 255 255 255 255 255 255 255 255 255 255 255 255 255 255 255 255 255 255 255 255 255 255 255 255 255 255 255 255 255 255 255 255 255 255 157 144 162 157 144 162 157 144 162 157 144 162 157 144 162 157 144 162 157 144 162 157 144 162 157 144 162 157 144 162 157 144 162 157 144 162 157 144 162 157 144 162 157 144 162 157 144 162 157 144 162 157 144 162 157 144 162 157 144 162 157 144 162 157 144 162 157 144 162 157 144 162 157 144 162 157 144 162 157 144 162 157 144 162 157 144 162 157 144 162 157 144 162 157 144 162 157 144 162 157 144 162 157 144 162 157 144 162 157 144 162 157 144 162 157 144 162 156 144 162 157 144 162 156 144 162 157 144 162 157 144 162 157 144 162 156 144 162 157 144 162 157 144 162 157 144 162 157 144 162 157 144 162 157 144 162 156 144 162 157 144 162 157 144 162 157 144 162 157 144 162 157 144 162 156 144 162 157 144 162 157 144 162 157 144 162 157 144 162 157 144 162 157 144 162 157 144 162 157 144 162 157 144 162 157 144 162 157 144 162 157 144 162 157 144 162 157 144 162 157 144 162 157 144 162 157 144 162 157 144 162 157 144 162 157 144 162 157 144 162 157 144 162 157 144 162 157 144 162 157 144 162 157 144 162 157 144 162 157 144 162 157 144 162 157 144 162 157 144 162 157 144 162 157 144 162 157 144 162 157 144 162 157 144 162 157 144 162 157 144 162 157 144 162 157 144 162 157 144 162 157 144 162 157 144 162 157 144 162 157 144 162 157 144 162 157 144 162 157 144 162 157 144 162 157 144 162 157 144 162 157 144 162 157 144 162 157 144 162 157 144 162 157 144 162 157 144 162 157 144 162 157 144 162 157 144 162 157 144 162
157 144 162 157 144 162 157 144 162 157 144 162 157 144 162 157 144 162 157 144 162 157 144 162 157 144 162 157 144 162 255 255 255 255 255 255 255 255 255 255 255 255 255 255 255 255 255 255 255 255 255 255 255 255 255 255 255 255 255 255 255 255 255 255 255 255 255 255 255 255 255 255 255 255 255 255 255 255 255 255 255 255 255 255 255 255 255 255 255 255 255 255 255 255 255 255 255 255 255 255 255 255 255 255 255 255 255 255 255 255 255 255 255 255 255 255 255 255 255 255 157 144 162 157 144 162 157 144 162 157 144 162 157 144 162 157 144 162 157 144 162 157 144 162 157 144 162 157 144 162 157 144 162 157 144 162 157 144 162 157 144 162 157 144 162 157 144 162 157 144 162 157 144 162 157 144 162 157 144 162 157 144 162 157 144 162 157 144 162 157 144 162 157 144 162 157 144 162 157 144 162 157 144 162 157 144 162 157 144 162 157 144 162 157 144 162 157 144 162 157 144 162 157 144 162 157 144 162 157 144 162 157 144 162 157 144 162 157 144 162 157 144 162 157 144 162 157 144 162 157 144 162 157 144 162 157 144 162 157 144 162 157 144 162 157 144 162 157 144 162 157 144 162 157 144 162 157 144 162 157 144 162 157 144 162 157 144 162 157 144 162 157 144 162 157 144 162 157 144 162 157 144 162 157 144 162 157 144 162 157 144 162 157 144 162 157 144 162 157 144 162 157 144 162 157 144 162 157 144 162 157 144 162 157 144 162 157 144 162 157 144 162 157 144 162 157 144 162 157 144 162 157 144 162 157 144 162 157 144 162 157 144 162 157 144 162 157 144 162 157 144 162 157 144 162 157 144 162 157 144 162 157 144 162 157 144 162 157 144 162 157 144 162 157 144 162 157 144 162 157 144 162 157 144 162 157 144 162 157 144 162 157 144 162 157 144 162 157 144 162 157 144 162 157 144 162 157 144 162 157 144 162 157 144 162 157 144 162 157 144 162 157 144 162 157 144 162 157 144 162 157 144 162 157 144 162 157 144 162 157 144 162 157 144 162 157 144 162 157 144 162 157 144 162 157 144 162 157 144 162
158 145 162 158 145 162 158 145 162 158 145 162 158 145 162 158 145 162 158 145 162 157 145 162 158 145 162 158 145 162 158 145 162 255 255 255 255 255 255 255 255 255 255 255 255 255 255 255 255 255 255 255 255 255 255 255 255 255 255 255 255 255 255 255 255 255 255 255 255 255 255 255 255 255 255 255 255 255 255 255 255 255 255 255 255 255 255 255 255 255 255 255 255 255 255 255 255 255 255 255 255 255 255 255 255 255 255 255 255 255 255 255 255 255 255 255 255 157 145 162 157 144 162 157 144 162 157 144 162 157 144 162 157 144 162 157 144 162 157 144 162 157 144 162 157 144 162 157 144 162 157 144 162 157 144 162 157 144 162 157 144 162 157 144 162 157 144 162 157 144 162 157 144 162 157 144 162 157 144 162 157 144 162 157 144 162 157 144 162 157 144 162 157 144 162 157 144 162 157 144 162 157 144 162 157 144 162 157 144 162 157 144 162 157 144 162 157 144 162 157 144 162 157 144 162 157 144 162 157 144 162 157 144 162 157 144 162 157 144 162 157 144 162 157 144 162 157 144 162 157 144 162 157 144 162 157 144 162 157 144 162 157 144 162 157 144 162 157 144 162 157 144 162 157 144 162 157 144 162 157 144 162 157 144 162 157 144 162 157 144 162 157 144 162 157 144 162 157 144 162 157 144 162 157 144 162 157 144 162 157 144 162 157 144 162 157 144 162 157 144 162 157 144 162 157 144 162 157 144 162 157 144 162 157 144 162 157 144 162 157 144 162 157 144 162 157 144 162 157 144 162 157 144 162 157 144 162 157 144 162 157 144 162 157 144 162 157 144 162 157 144 162 157 144 162 157 144 162 157 144 162 157 144 162 157 144 162 157 144 162 157 144 162 157 145 162 157 145 162 157 144 162 157 144 162 157 144 162 157 144 162 157 144 162 157 144 162 157 145 162 157 145 162 158 145 162 157 144 162 158 145 162 158 145 162 157 145 162 158 145 162 157 145 162 157 145 162 157 145 162 158 145 162 158 145 162 157 145 162 158 145 162 157 145 162 158 145 162 157 145 162 158 145 162 158 145 162 158 145 162
158 145 162 158 145 162 158 145 162 158 145 162 158 145 162 158 145 162 158 145 162 158 145 162 158 145 162 158 145 162 158 145 162 255 255 255 255 255 255 255 255 255 255 255 255 255 255 255 255 255 255 255 255 255 255 255 255 255 255 255 255 255 255 255 255 255 255 255 255 255 255 255 255 255 255 255 255 255 255 255 255 255 255 255 255 255 255 255 255 255 255 255 255 255 255 255 255 255 255 255 255 255 255 255 255 255 255 255 255 255 255 255 255 255 158 145 162 158 145 162 158 145 162 158 145 162 158 145 162 158 145 162 158 145 162 158 145 162 158 145 162 158 145 162 158 145 162 158 145 162 158 145 162 158 145 162 158 145 162 158 145 162 158 145 162 158 145 162 158 145 162 158 145 162 158 145 162 158 145 162 158 145 162 158 145 162 158 145 162 158 145 162 157 145 162 158 145 162 158 145 162 158 145 162 158 145 162 157 145 162 158 145 162 158 145 162 158 145 162 158 145 162 158 145 162 158 145 162 158 145 162 158 145 162 158 145 162 158 145 162 157 145 162 158 145 162 157 144 162 158 145 162 158 145 162 158 145 162 157 145 162 158 145 162 158 145 162 157 145 162 158 145 162 158 145 162 158 145 162 158 145 162 158 145 162 158 145 162 158 145 162 158 145 162 157 145 162 158 145 162 157 145 162 158 145 162 158 145 162 158 145 162 158 145 162 158 145 162 158 145 162 157 145 162 158 145 162 157 145 162 158 145 162 158 145 162 158 145 162 158 145 162 158 145 162 158 145 162 158 145 162 157 145 162 158 145 162 157 145 162 158 145 162 158 145 162 158 145 162 158 145 162 158 145 162 158 145 162 158 145 162 158 145 162 158 145 162 158 145 162 158 145 162 158 145 162 158 145 162 158 145 162 158 145 162 158 145 162 158 145 162 158 145 162 158 145 162 158 145 162 158 145 162 158 145 162 158 145 162 158 145 162 158 145 162 158 145 162 158 145 162 158 145 162 158 145 162 158 145 162 158 145 162 158 145 162 158 145 162 158 145 162 158 145 162 158 145 162 158 145 162 158 145 162 158 145 162 158 145 162
158 145 162 158 145 162 158 145 162 158 145 162 158 145 162 158 145 162 158 145 162 158 145 162 158 145 162 158 145 162 158 145 162 158 145 162 158 145 162 255 255 255 255 255 255 255 255 255 255 255 255 255 255 255 255 255 255 255 255 255 255 255 255 255 255 255 255 255 255 255 255 255 255 255 255 255 255 255 255 255 255 255 255 255 255 255 255 255 255 255 255 255 255 255 255 255 255 255 255 255 255 255 255 255 255 255 255 255 255 255 255 255 253 234 158 145 162 158 145 162 158 145 162 158 145 162 158 145 162 158 145 162 158 145 162 158 145 162 158 145 162 158 145 162 158 145 162 158 145 162 158 145 162 158 145 162 158 145 162 158 145 162 158 145 162 158 145 162 158 145 162 158 145 162 158 145 162 158 145 162 158 145 162 158 145 162 158 145 162 158 145 162 158 145 162 158 145 162 158 145 162 158 145 162 158 145 162 158 145 162 158 145 162 158 145 162 158 145 162 158 145 162 158 145 162 158 145 162 158 145 162 158 145 162 158 145 162 158 145 162 158 145 162 158 145 162 158 145 162 158 145 162 158 145 162 158 145 162 158 145 162 158 145 162 158 145 162 158 145 162 158 145 162 158 145 162 158 145 162 158 145 162 158 145 162 158 145 162 158 145 162 158 145 162 158 145 162 158 145 162 158 145 162 158 145 162 158 145 162 158 145 162 158 145 162 158 145 162 158 145 162 158 145 162 158 145 162 158 145 162 158 145 162 158 145 162 158 145 162 158 145 162 158 145 162 158 145 162 158 145 162 158 145 162 158 145 162 158 145 162 158 145 162 158 145 162 158 145 162 158 145 162 158 145 162 158 145 162 158 145 162 158 145 162 158 145 162 158 145 162 158 145 162 158 145 162 158 145 162 158 145 162 158 145 162 158 145 162 158 145 162 158 145 162 158 145 162 158 145 162 158 145 162 158 145 162 158 145 162 158 145 162 158 145 162 158 145 162 158 145 162 158 145 162 158 145 162 158 145 162 158 145 162 158 145 162 158 145 162 158 145 162 158 145 162 158 145 162 158 145 162 158 145 162 158 145 162 158 145 162
158 145 162 158 145 162 159 145 162 158 145 162 158 145 162 158 145 162 158 145 162 158 145 162 158 145 162 158 145 162 158 145 162 159 145 162 159 145 162 158 145 162 255 255 255 255 255 255 255 255 255 255 255 255 255 255 255 255 255 255 255 255 255 255 255 255 255 255 255 255 255 255 255 255 255 255 255 255 255 255 255 255 255 255 255 255 255 255 255 255 255 255 255 255 255 255 255 255 255 255 255 255 255 255 255 255 255 255 158 145 162 158 145 162 158 145 162 158 145 162 158 145 162 158 145 162 158 145 162 158 145 162 158 145 162 158 145 162 158 145 162 158 145 162 158 145 162 158 145 162 158 145 162 158 145 162 158 145 162 158 145 162 158 145 162 158 145 162 158 145 162 158 145 162 158 145 162 158 145 162 158 145 162 158 145 162 158 145 162 158 145 162 158 145 162 158 145 162 158 145 162 158 145 162 158 145 162 158 145 162 158 145 162 158 145 162 158 145 162 158 145 162 158 145 162 158 145 162 158 145 162 158 145 162 158 145 162 158 145 162 158 145 162 158 145 162 158 145 162 158 145 162 158 145 162 158 145 162 158 145 162 158 145 162 158 145 162 158 145 162 158 145 162 158 145 162 158 145 162 158 145 162 158 145 162 158 145 162 158 145 162 158 145 162 158 145 162 158 145 162 158 145 162 158 145 162 158 145 162 158 145 162 158 145 162 158 145 162 158 145 162 158 145 162 158 145 162 158 145 162 158 145 162 158 145 162 158 145 162 158 145 162 158 145 162 158 145 162 158 145 162 158 145 162 158 145 162 158 145 162 158 145 162 158 145 162 158 145 162 158 145 162 158 145 162 158 145 162 158 145 162 158 145 162 158 145 162 158 145 162 158 145 162 158 145 162 158 145 162 158 145 162 158 145 162 158 145 162 158 145 162 158 145 162 158 145 162 158 145 162 158 145 162 158 145 162 158 145 162 158 145 162 158 145 162 158 145 162 158 145 162 158 145 162 158 145 162 158 145 162 159 145 162 158 145 162 158 145 162 158 145 162 158 145 162 158 145 162 158 145 162 158 145 162 158 145 162 159 145 162
159 145 162 159 145 162 159 145 162 159 145 162 159 145 162 159 145 162 159 145 162 159 145 162 159 145 162 159 145 162 159 145 162 159 145 162 159 145 162 159 145 162 159 145 162 255 253 234 255 255 255 255 255 255 255 255 255 255 255 255 255 255 255 255 255 255 255 255 255 255 255 255 255 255 255 255 255 255 255 255 255 255 255 255 255 255 255 255 255 255 255 255 255 255 255 255 255 255 255 255 255 255 255 253 234 159 145 162 159 145 162 159 145 162 159 145 162 158 145 162 159 145 162 159 145 162 159 145 162 159 145 162 158 145 162 159 145 162 159 145 162 158 145 162 159 145 162 159 145 162 158 145 162 159 145 162 159 145 162 159 145 162 159 145 162 159 145 162 159 145 162 159 145 162 159 145 162 159 145 162 159 145 162 159 145 162 159 145 162 158 145 162 159 145 162 159 145 162 159 145 162 159 145 162 158 145 162 158 145 162 159 145 162 158 145 162 159 145 162 159 145 162 159 145 162 159 145 162 159 145 162 158 145 162 158 145 162 159 145 162 159 145 162 159 145 162 159 145 162 159 145 162 159 145 162 159 145 162 158 145 162 158 145 162 159 145 162 159 145 162 159 145 162 159 145 162 159 145 162 159 145 162 159 145 162 159 145 162 158 145 162 159 145 162 159 145 162 159 145 162 159 145 162 159 145 162 159 145 162 159 145 162 159 145 162 159 145 162 159 145 162 159 145 162 159 145 162 159 145 162 159 145 162 159 145 162 159 145 162 159 145 162 159 145 162 159 145 162 159 145 162 159 145 162 159 145 162 159 145 162 159 145 162 159 145 162 159 145 162 159 145 162 159 145 162 158 145 162 159 145 162 159 145 162 159 145 162 159 145 162 159 145 162 159 145 162 159 145 162 159 145 162 159 145 162 159 145 162 159 145 162 159 145 162 159 145 162 159 145 162 159 145 162 159 145 162 159 145 162 159 145 162 159 145 162 159 145 162 159 145 162 159 145 162 159 145 162 159 145 162 159 145 162 159 145 162 159 145 162 159 145 162 159 145 162 159 145 162 159 145 162 159 145 162 159 145 162 159 145 162
159 145 161 159 145 161 159 145 161 159 145 161 159 145 161 159 145 161 159 145 161 159 145 161 159 145 161 159 145 161 159 145 161 159 145 161 159 145 161 159 145 161 159 145 161 159 145 161 159 145 161 159 145 161 255 255 255 255 255 255 255 255 255 255 255 255 255 255 255 255 255 255 255 255 255 255 255 255 255 255 255 255 255 255 255 255 255 255 255 255 255 255 255 255 255 255 255 255 255 159 145 161 159 145 161 159 145 162 159 145 161 159 145 161 159 145 161 159 145 161 159 145 162 159 145 161 159 145 161 159 145 161 159 145 162 159 145 161 159 145 161 159 145 162 159 145 162 159 145 162 159 145 162 159 145 161 159 145 162 159 145 162 159 145 161 159 145 161 159 145 162 159 145 161 159 145 161 159 145 162 159 145 161 159 145 161 159 145 161 159 145 161 159 145 161 159 145 161 159 145 161 159 145 161 159 145 161 159 145 161 159 145 161 159 145 161 159 145 162 159 145 162 159 145 162 159 145 161 159 145 161 159 145 161 159 145 161 159 145 161 159 145 161 159 145 162 159 145 162 159 145 162 159 145 161 159 145 161 159 145 162 159 145 162 159 145 161 159 145 161 159 145 161 159 145 162 159 145 161 159 145 161 159 145 161 159 145 162 159 145 162 159 145 162 159 145 162 159 145 161 159 145 162 159 145 161 159 145 161 159 145 161 159 145 162 159 145 162 159 145 162 159 145 161 159 145 162 159 145 162 159 145 161 159 145 162 159 145 162 159 145 161 159 145 161 159 145 161 159 145 162 159 145 161 159 145 161 159 145 161 159 145 161 159 145 162 159 145 161 159 145 161 159 145 161 159 145 161 159 145 161 159 145 162 159 145 162 159 145 161 159 145 161 159 145 161 159 145 162 159 145 161 159 145 161 159 145 161 159 145 161 159 145 161 159 145 161 159 145 161 159 145 161 159 145 161 159 145 161 159 145 161 159 145 161 159 145 161 159 145 161 159 145 161 159 145 161 159 145 161 159 145 161 159 145 161 159 145 161 159 145 161 159 145 161 159 145 161 159 145 161 159 145 161 159 145 161 159 145 161
159 145 161 159 145 161 159 145 161 159 145 161 159 145 161 159 145 161 159 145 161 159 145 161 159 145 161 159 145 161 159 145 161 159 145 161 159 145 161 159 145 161 159 145 161 159 145 161 159 145 161 159 145 161 159 145 161 255 253 234 255 255 255 255 255 255 255 255 255 255 255 255 255 255 255 255 255 255 255 255 255 255 255 255 255 255 255 159 145 161 255 253 234 159 145 161 159 145 161 159 145 161 159 145 161 159 145 161 159 145 161 159 145 161 159 145 161 159 145 161 159 145 161 159 145 161 159 145 161 159 145 161 159 145 161 159 145 161 159 145 161 159 145 161 159 145 161 159 145 161 159 145 161 159 145 161 159 145 161 159 145 161 159 145 161 159 145 161 159 145 161 159 145 161 159 145 161 159 145 161 159 145 161 159 145 161 159 145 161 159 145 161 159 145 161 159 145 161 159 145 161 159 145 161 159 145 161 159 145 161 159 145 161 159 145 161 159 145 161 159 145 161 159 145 161 159 145 161 159 145 161 159 145 161 159 145 161 159 145 161 159 145 161 159 145 161 159 145 161 159 145 161 159 145 161 159 145 161 159 145 161 159 145 161 159 145 161 159 145 161 159 145 161 159 145 161 159 145 161 159 145 161 159 145 161 159 145 161 159 145 161 159 145 161 159 145 161 159 145 161 159 145 161 159 145 161 159 145 161 159 145 161 159 145 161 159 145 161 159 145 161 159 145 161 159 145 161 159 145 161 159 145 161 159 145 161 159 145 161 159 145 161 159 145 161 159 145 161 159 145 161 159 145 161 159 145 161 159 145 161 159 145 161 159 145 161 159 145 161 159 145 161 159 145 161 159 145 161 159 145 161 159 145 161 159 145 161 159 145 161 159 145 161 159 145 161 159 145 161 159 145 161 159 145 161 159 145 161 159 145 161 159 145 161 159 145 161 159 145 161 159 145 161 159 145 161 159 145 161 159 145 161 159 145 161 159 145 161 159 145 161 159 145 161 159 145 161 159 145 161 159 145 161 159 145 161 159 145 161 159 145 161 159 145 161 159 145 161 159 145 161 159 145 161 159 145 161 159 145 161
160 145 161 160 145 161 160 145 161 160 145 161 160 145 161 160 145 161 160 145 161 160 145 161 160 145 161 160 145 161 160 145 161 160 145 161 160 145 161 160 145 161 160 145 161 160 145 161 160 145 161 160 145 161 160 145 161 160 145 161 160 145 161 160 145 161 159 145 161 160 145 161 160 145 161 160 145 161 160 145 161 160 145 161 160 145 161 160 145 161 159 145 161 160 145 161 160 145 161 160 145 161 160 145 161 160 145 161 160 145 161 160 145 161 160 145 161 159 145 161 159 145 161 160 145 161 159 145 161 160 145 161 159 145 161 159 145 161 159 145 161 160 145 161 160 145 161 159 145 161 160 145 161 160 145 161 160 145 161 160 145 161 160 145 161 160 145 161 160 145 161 160 145 161 160 145 161 160 145 161 159 145 161 159 145 161 159 145 161 160 145 161 160 145 161 160 145 161 160 145 161 160 145 161 160 145 161 160 145 161 160 145 161 159 145 161 160 145 161 160 145 161 160 145 161 160 145 161 160 145 161 160 145 161 159 145 161 160 145 161 160 145 161 160 145 161 160 145 161 160 145 161 160 145 161 160 145 161 160 145 161 160 145 161 159 145 161 159 145 161 160 145 161 160 145 161 160 145 161 160 145 161 160 145 161 160 145 161 160 145 161 159 145 161 160 145 161 160 145 161 160 145 161 160 145 161 160 145 161 160 145 161 160 145 161 159 145 161 160 145 161 160 145 161 160 145 161 160 145 161 160 145 161 160 145 161 160 145 161 160 145 161 160 145 161 160 145 161 160 145 161 159 145 161 160 145 161 160 145 161 160 145 161 160 145 161 160 145 161 160 145 161 160 145 161 160 145 161 160 145 161 160 145 161 160 145 161 160 145 161 160 145 161 160 145 161 160 145 161 160 145 161 160 145 161 160 145 161 160 145 161 160 145 161 160 145 161 160 145 161 160 145 161 159 145 161 160 145 161 160 145 161 160 145 161 160 145 161 160 145 161 160 145 161 160 145 161 160 145 161 160 145 161 160 145 161 160 145 161 160 145 161 160 145 161 160 145 161 160 145 161 160 145 161 160 145 161 160 145 161
160 145 161 160 146 161 160 146 161 160 145 161 153 140 156 160 146 161 153 140 156 160 146 161 160 146 161 155 143 161 154 140 156 160 146 161 160 146 161 160 145 161 160 145 161 160 146 161 160 146 161 160 145 161 160 145 161 160 146 161 158 144 160 160 145 161 160 146 161 160 145 161 160 146 161 153 140 156 160 145 161 160 146 161 160 146 161 160 146 161 160 145 161 160 145 161 160 146 161 155 143 161 160 145 161 160 145 161 160 145 161 160 145 161 160 146 161 160 145 161 160 145 161 153 140 156 160 145 161 156 143 160 160 145 161 160 146 161 160 145 161 160 145 161 153 140 156 160 145 161 160 145 161 160 146 161 160 145 161 160 145 161 160 145 161 160 145 161 160 146 161 153 140 156 160 145 161 160 145 161 160 145 161 160 145 161 153 140 156 160 145 161 160 145 161 160 145 161 160 145 161 146 134 150 160 145 161 160 145 161 160 146 161 160 146 161 151 138 154 160 146 161 160 145 161 153 140 156 160 145 161 160 145 161 160 145 161 160 146 161 160 145 161 160 145 161 160 145 161 160 145 161 160 146 161 153 140 156 160 145 161 160 146 161 160 145 161 160 145 161 160 146 161 160 145 161 160 145 161 160 145 161 160 145 161 160 145 161 160 145 161 160 146 161 160 145 161 157 144 160 160 146 161 149 137 155 160 146 161 160 145 161 160 146 161 160 146 161 160 146 161 160 146 161 160 146 161 160 146 161 160 145 161 160 146 161 160 146 161 152 141 160 160 145 161 160 145 161 160 145 161 160 146 161 160 146 161 160 145 161 146 134 150 158 144 160 154 143 161 160 146 161 160 146 161 160 145 161 155 143 161 156 143 160 160 145 161 160 145 161 160 146 161 160 145 161 160 146 161 153 140 156 160 145 161 160 145 161 160 145 161 149 137 155 160 146 161 160 146 161 160 145 161 160 146 161 149 140 160 160 146 161 160 145 161 160 145 161 149 137 155 160 146 161 160 145 161 160 146 161 160 146 161 153 140 156 160 145 161 160 146 161 154 143 161 160 146 161 148 137 155 160 145 161 153 140 156 160 145 161
153 140 156 138 129 148 135 125 143 132 125 145 124 119 141 148 137 155 145 138 160 145 135 154 150 138 155 129 122 142 144 134 152 148 139 159 139 132 154 142 131 149 119 115 136 145 135 154 128 125 149 136 128 149 146 134 150 132 124 144 150 140 160 119 115 136 140 130 147 138 131 152 138 131 152 146 134 150 130 120 139 136 128 149 137 128 146 123 117 138 133 126 147 151 140 160 147 137 156 149 138 155 145 135 154 140 130 150 132 123 142 120 118 143 120 121 149 146 135 154 139 128 144 141 133 153 140 130 147 143 132 149 148 139 159 146 134 150 115 112 135 130 121 138 143 134 155 118 114 137 144 135 154 100 101 127 147 134 150 120 120 147 133 125 143 118 114 137 138 127 144 136 128 149 141 131 149 125 118 137 146 134 150 128 121 140 136 128 149 131 126 148 128 125 149 129 121 140 153 140 156 140 132 153 143 134 155 136 131 155 154 140 155 130 122 142 120 118 143 131 126 148 117 114 137 148 138 157 139 128 144 138 129 148 145 135 154 125 123 147 132 124 144 144 135 154 134 127 147 135 128 149 148 136 153 141 133 153 130 120 138 148 137 155 136 128 149 153 140 156 125 123 147 149 138 155 136 131 155 149 137 155 148 139 159 135 128 149 141 131 149 147 138 159 143 132 149 147 137 157 147 138 159 117 114 137 132 128 151 143 134 155 144 135 155 147 134 150 142 131 149 141 131 149 113 114 142 142 134 155 147 134 150 126 121 144 138 132 154 144 135 154 127 121 143 134 125 143 148 137 155 135 128 149 138 132 154 137 129 148 117 111 130 139 129 148 113 112 136 147 137 156 150 138 155 136 128 149 152 141 160 139 135 159 141 133 153 138 129 148 132 124 144 160 146 161 138 132 154 146 134 150 148 139 159 132 129 153 119 117 140 116 115 139 148 137 155 145 135 154 121 113 132 141 130 147 144 132 149 141 131 150 143 135 155 148 137 155 129 125 148 119 119 147 146 134 150 142 131 149 139 129 148 134 127 150 146 134 150 141 131 150 136 128 149 145 135 154 150 138 154 149 137 155 129 122 142 131 121 138
115 112 135 122 118 140 93 99 129 87 96 127 96 98 124 87 103 141 77 80 105 97 100 128 106 110 139 111 112 138 115 118 148 107 107 132 108 109 135 81 86 113 97 100 128 110 113 140 110 113 140 97 97 120 119 119 144 78 89 122 105 108 135 109 109 134 94 105 139 105 113 145 107 108 135 119 117 140 113 116 143 126 122 145 102 103 129 108 105 128 103 109 140 99 110 144 107 103 123 96 100 128 116 113 135 134 130 154 102 102 126 88 100 134 76 85 114 103 104 129 115 114 139 107 109 135 117 113 135 90 94 122 112 117 147 102 102 126 93 97 124 109 112 141 129 124 146 89 93 119 120 115 136 117 112 132 117 115 139 125 124 151 106 110 139 111 110 134 102 101 125 77 85 114 93 93 117 90 90 114 105 107 132 80 90 121 105 110 139 98 98 123 74 84 114 119 120 147 96 102 132 97 104 135 110 113 141 99 108 141 96 100 128 115 117 145 85 92 120 90 97 126 91 95 122 106 108 135 83 91 121 104 110 139 84 91 120 112 113 140 98 102 130 105 108 135 114 115 142 106 108 135 120 117 140 120 120 146 98 104 134 93 102 133 114 120 152 116 116 141 78 89 122 92 105 140 103 107 136 99 105 134 110 111 138 107 108 135 99 110 145 99 101 127 114 112 135 90 88 109 86 96 128 89 90 115 117 119 147 111 116 146 89 98 129 105 104 128 132 128 151 75 89 122 98 102 130 100 108 140 110 112 141 122 121 146 97 100 128 83 91 121 99 108 141 112 114 142 117 114 137 101 106 133 122 119 142 101 103 130 110 109 134 106 108 135 99 99 123 107 114 145 110 112 138 107 112 141 99 107 138 85 92 120 106 105 128 118 116 141 105 110 139 107 111 139 106 106 131 99 105 134 81 88 117 99 101 127 114 120 152 96 104 135 79 86 114 113 117 146 84 91 120 89 93 119 76 89 122 113 114 140 82 88 116 90 97 127 109 112 141 126 120 141 96 106 139 101 105 134 92 91 113 99 108 141 88 104 140 98 107 138 83 88 116 79 90 122 101 112 146 108 114 145 105 107 132 91 95 121
94 102 132 69 82 116 77 89 122 92 105 140 79 90 121 101 111 144 83 87 113 83 91 121 78 89 122 106 112 143 77 93 129 101 111 144 92 101 133 97 106 139 87 96 127 77 85 114 94 105 139 68 78 107 84 95 128 88 96 127 75 89 122 78 85 114 70 83 115 89 97 127 86 100 134 69 78 107 79 90 122 85 95 128 80 86 113 98 107 138 76 85 114 109 113 142 81 92 134 73 90 131 88 97 131 84 94 138 56 71 117 86 98 144 92 105 144 91 101 133 95 106 139 89 100 134 86 96 127 97 109 145 103 111 143 86 92 120 77 85 114 93 102 133 75 89 122 85 96 128 69 73 98 90 97 126 93 102 133 92 94 118 89 97 127 87 96 127 81 86 113 91 97 126 97 103 132 89 100 134 88 97 127 88 97 127 95 99 125 72 84 115 79 90 122 81 90 121 93 98 126 91 94 119 98 100 124 98 103 132 98 103 132 79 90 121 87 96 127 93 98 126 58 70 100 83 95 128 83 87 113 69 83 116 90 95 122 100 99 122 108 109 135 105 103 125 78 89 122 83 91 120 93 98 126 92 105 139 86 96 127 87 92 120 75 84 115 90 97 126 90 97 126 86 88 112 83 95 128 81 86 113 101 107 138 84 95 128 97 103 132 69 83 116 81 90 121 102 108 137 90 97 126 83 91 121 80 94 128 82 90 121 104 109 137 95 102 132 91 97 126 86 96 127 96 103 132 88 100 134 102 105 131 65 71 99 104 112 143 88 97 127 94 109 146 95 109 145 88 93 119 94 102 132 85 96 128 99 107 138 99 107 138 86 86 108 82 93 124 121 118 135 87 85 102 95 93 108 122 109 107 100 101 122 86 92 120 98 103 132 82 95 128 109 113 142 87 96 127 80 98 136 91 97 126 95 99 125 105 109 137 72 79 106 92 101 133 78 85 114 91 97 126 82 91 121 61 70 100 80 86 113 86 96 127 93 102 133 97 99 125 85 92 120 95 102 133 87 92 120 91 94 119 97 103 132 77 85 114 87 100 134 88 96 127 81 94 129 84 91 121 106 115 149 93 102 133 84 95 128
75 80 106 85 95 128 86 96 127 85 92 120 80 90 121 86 96 128 73 79 106 68 77 108 81 90 121 96 106 139 90 93 119 85 95 128 92 98 126 72 92 130 68 78 107 86 100 134 85 92 120 90 97 126 88 100 134 82 87 113 85 92 120 87 100 134 71 83 115 75 89 122 110 111 135 91 94 118 87 96 127 92 98 126 82 88 121 70 86 137 68 82 135 101 131 191 43 69 141 40 67 142 44 69 140 41 68 142 101 131 194 40 67 142 45 70 140 46 67 126 88 97 133 112 139 190 95 95 118 87 100 134 97 103 132 101 104 131 104 108 137 97 103 132 96 103 132 91 97 126 97 103 132 68 82 116 79 86 114 101 108 138 90 101 134 91 105 140 69 83 116 87 92 120 89 97 127 104 109 137 92 102 133 90 101 133 100 104 131 79 86 114 79 94 129 89 89 111 84 91 120 94 109 146 88 93 119 82 95 128 97 103 132 84 91 120 95 102 133 115 116 145 108 110 137 130 124 146 136 132 156 133 131 160 136 132 159 145 140 165 137 133 158 141 138 166 138 133 158 136 132 159 114 116 145 124 120 143 84 91 121 80 94 129 75 89 122 92 101 133 105 105 130 79 94 129 85 96 128 98 107 138 100 107 138 89 97 127 80 90 121 88 100 134 79 90 121 95 102 132 64 77 108 97 103 132 62 76 109 90 101 134 93 102 133 84 91 120 75 93 130 67 72 99 100 100 124 83 95 128 99 107 138 83 95 128 97 106 139 110 114 142 82 87 113 89 97 127 99 104 131 129 121 132 131 118 115 118 115 127 131 117 109 126 117 107 126 117 107 121 116 108 125 117 108 128 118 107 129 118 107 130 118 107 121 111 109 119 114 123 109 104 117 83 91 120 87 100 134 101 108 138 73 88 123 77 89 122 100 104 131 89 100 134 89 97 127 94 105 139 86 99 134 91 101 133 79 90 121 77 89 122 87 100 134 93 105 139 88 93 119 82 95 128 84 95 128 104 105 130 79 86 114 93 98 126 87 100 134 82 95 128 99 104 131 98 103 132 83 91 121 83 91 121 83 99 135 105 109 137
100 107 138 95 102 132 94 102 132 83 87 113 92 101 133 58 64 90 90 97 126 101 101 124 84 87 112 75 84 114 98 103 132 104 112 143 96 102 132 86 96 127 107 106 129 75 84 115 90 101 133 93 102 133 90 93 119 86 99 135 76 89 122 91 94 119 101 111 144 93 105 140 92 98 126 85 95 128 54 73 125 132 170 234 99 131 195 41 66 136 42 68 140 44 69 140 48 71 138 47 70 139 46 70 139 42 66 136 47 70 139 46 70 139 45 69 140 39 61 125 48 71 138 48 72 143 43 68 141 112 137 185 97 103 132 102 111 144 75 88 123 78 89 122 81 94 129 85 95 128 76 85 114 109 113 142 95 99 125 97 99 125 94 98 126 71 79 107 65 77 108 91 105 140 87 96 127 70 78 107 77 85 114 77 89 122 89 100 134 87 96 127 81 86 113 90 101 134 89 93 119 85 96 128 86 96 127 93 102 133 90 98 129 112 113 140 144 138 164 142 135 157 142 139 168 136 136 169 139 138 169 135 137 171 133 136 170 133 135 170 132 135 171 132 135 170 133 135 170 137 137 169 137 137 169 138 137 168 127 120 140 125 123 150 56 65 92 88 96 127 65 77 108 76 84 115 96 102 132 106 112 143 78 90 122 95 102 132 90 93 119 93 102 133 89 97 127 81 94 128 92 101 133 90 101 133 76 85 114 83 87 113 91 94 119 93 105 140 76 89 122 95 95 117 90 97 126 86 96 128 90 97 126 92 102 133 77 89 122 87 96 127 101 100 119 116 112 125 138 121 105 130 118 107 121 116 108 121 116 108 115 114 109 112 113 110 109 112 110 108 112 110 110 112 110 110 112 110 113 113 110 115 114 109 121 116 108 123 116 108 130 118 107 134 120 106 111 104 111 111 113 138 77 85 114 77 89 122 98 103 132 76 89 122 75 89 122 92 98 126 95 99 125 99 110 145 75 80 106 79 90 122 75 80 106 86 92 120 99 107 138 77 80 105 82 86 113 94 98 125 102 108 137 93 94 118 97 106 138 87 100 134 93 98 126 76 85 114 75 84 114 89 97 127 94 98 126 82 91 121
82 95 128 110 114 142 93 98 126 84 91 121 79 85 114 105 109 136 70 83 115 87 92 120 73 88 123 91 97 126 71 79 107 73 84 115 98 107 138 88 97 127 73 84 115 88 97 127 82 91 121 94 98 126 111 114 141 89 93 119 97 106 139 98 107 138 93 102 133 91 97 126 76 82 123 100 131 194 47 70 139 46 70 139 44 69 141 44 65 128 44 69 140 44 69 141 46 70 140 42 68 142 42 65 132 43 66 133 46 70 140 41 67 140 44 69 141 59 83 145 47 70 139 100 131 195 44 69 140 47 71 143 46 67 130 61 79 130 76 90 130 97 103 132 94 102 133 90 97 126 86 99 135 80 86 113 79 86 113 88 100 134 86 96 128 89 101 134 89 100 134 107 113 143 72 83 115 93 102 133 88 96 127 75 88 123 82 95 128 88 93 120 88 100 134 86 96 127 84 99 135 78 90 121 93 102 133 109 113 141 138 136 165 147 140 166 138 137 168 135 136 171 130 135 172 128 134 172 122 128 166 123 132 173 119 131 174 122 132 174 122 132 174 120 128 166 122 132 173 124 133 174 128 134 172 128 129 162 141 138 168 146 140 166 149 141 165 136 133 162 108 109 134 90 97 127 83 95 128 82 91 121 94 102 133 85 88 112 88 100 134 83 91 121 87 100 134 88 93 120 73 84 115 89 97 127 106 113 143 94 98 126 93 102 133 99 107 138 93 98 125 106 116 149 82 95 128 88 96 127 96 99 125 111 117 148 89 100 134 120 113 124 126 112 102 131 119 106 120 115 108 115 114 109 109 112 110 108 112 110 104 111 111 100 110 111 97 109 112 99 110 112 99 109 112 100 110 111 101 110 111 102 110 111 105 111 111 110 112 110 115 114 109 119 115 109 126 117 107 137 121 105 123 116 122 82 85 108 77 85 114 87 92 120 82 91 121 88 93 119 102 105 131 82 91 121 103 105 130 87 96 127 79 90 122 91 101 133 79 86 114 94 99 125 92 98 126 87 96 127 86 96 127 86 96 127 89 97 127 87 92 120 77 85 114 94 98 126 90 101 133 89 104 140 88 92 120 70 83 115
64 77 108 74 84 115 85 92 120 101 111 144 80 90 121 88 93 119 95 99 125 102 111 144 98 107 138 96 103 132 87 92 120 80 94 128 67 77 108 74 84 115 90 93 119 74 84 115 91 97 126 83 95 128 82 91 121 92 105 140 88 96 127 74 84 115 79 95 133 60 78 131 46 69 138 44 67 135 42 68 140 46 70 139 41 67 140 48 71 138 50 72 137 42 68 140 38 60 125 51 69 133 43 67 135 44 69 140 44 69 140 47 70 139 46 69 138 44 67 133 43 66 131 47 70 139 48 72 143 99 130 191 47 70 139 44 68 135 58 69 118 96 103 136 100 107 138 100 110 144 100 107 138 75 84 114 71 83 115 90 101 134 94 102 133 67 77 108 90 101 134 88 96 127 98 107 138 84 91 120 80 90 121 63 76 108 87 96 127 94 106 139 97 99 125 100 111 144 109 113 142 104 109 139 140 137 167 146 141 167 143 139 168 134 136 171 127 133 172 124 133 174 120 131 174 122 132 175 120 123 156 131 132 165 129 132 166 119 115 137 113 117 149 126 130 167 114 121 158 104 113 148 125 134 175 122 132 173 126 133 172 129 134 171 132 131 161 150 141 165 124 119 139 84 95 128 102 108 137 87 96 127 100 111 144 98 107 138 90 101 133 75 89 122 82 95 128 95 99 125 90 97 126 90 104 140 76 85 114 102 108 138 77 85 114 90 97 127 107 113 143 94 95 118 99 107 138 90 101 133 92 98 126 90 90 110 137 123 120 134 120 106 122 116 108 116 114 109 111 113 110 107 112 110 102 110 111 99 109 112 96 109 112 93 108 112 92 108 112 92 108 112 91 108 113 92 108 112 95 108 112 95 109 112 99 110 112 103 111 111 106 111 111 110 112 110 116 114 109 123 116 108 134 120 106 139 122 110 90 92 114 96 102 132 103 108 137 80 86 114 88 96 127 105 109 137 76 85 114 81 86 113 78 89 122 87 100 134 83 91 121 94 102 132 96 99 125 87 100 134 84 95 128 88 100 134 99 107 138 80 94 129 93 98 126 81 90 121 104 112 143 89 97 126 104 115 149 73 84 115
84 91 120 104 108 137 105 106 130 105 105 130 88 100 134 98 110 145 99 104 131 82 91 121 86 96 127 80 94 129 86 100 134 78 89 122 87 96 127 94 102 133 86 92 120 88 104 140 90 104 140 83 95 128 88 93 119 78 94 129 95 99 125 86 93 128 45 67 134 132 169 233 42 64 128 49 69 132 45 69 138 51 72 137 95 122 177 45 69 136 47 70 139 46 69 138 49 71 136 50 71 137 45 67 130 46 69 138 47 68 133 49 71 138 46 68 132 42 64 130 43 68 139 42 68 140 41 62 129 50 71 134 50 75 147 48 67 128 44 65 129 114 142 199 75 90 135 82 91 121 101 104 131 111 114 141 100 107 138 98 107 138 79 85 114 107 109 136 97 103 132 82 91 121 94 98 125 90 101 134 90 97 127 92 98 126 89 97 127 72 83 115 104 109 137 94 106 139 100 106 135 148 141 164 141 138 168 137 137 169 130 135 172 124 132 173 134 133 165 122 125 158 138 139 172 132 132 164 124 124 154 141 136 163 134 129 154 144 141 172 145 142 171 129 127 154 108 112 146 255 246 227 128 127 156 107 109 137 101 111 147 125 133 175 128 134 173 134 136 170 142 138 168 144 139 166 111 109 132 74 84 115 105 112 143 73 88 123 97 103 132 98 103 131 86 96 127 97 99 125 101 104 131 64 77 108 98 107 138 93 105 139 57 69 100 92 101 133 96 103 132 85 96 128 92 98 126 78 89 122 112 108 123 135 118 103 131 119 106 120 115 108 115 114 109 110 112 110 105 111 111 100 110 111 97 109 112 94 108 112 91 108 113 90 107 113 89 107 113 88 107 113 88 107 113 89 107 113 90 107 113 91 108 112 94 108 112 97 109 112 100 110 111 105 111 111 110 113 110 115 114 109 120 115 108 128 118 107 138 122 110 75 83 110 96 109 145 86 92 120 94 102 133 106 113 143 103 108 137 90 101 133 83 91 120 91 101 133 105 112 143 84 99 135 87 92 120 100 104 131 82 91 121 91 97 126 79 90 121 89 97 127 91 101 133 96 109 145 86 92 120 103 111 144 78 90 121 86 96 127
99 107 138 96 99 125 79 86 113 98 103 132 88 96 127 69 83 116 101 111 144 100 107 138 76 89 122 87 96 127 93 102 133 91 97 126 78 90 121 87 92 120 86 96 127 98 107 138 77 89 122 78 90 122 71 79 107 86 92 120 88 99 143 43 66 133 45 66 128 45 69 136 46 68 132 42 68 142 46 70 140 40 64 131 47 70 139 46 69 138 45 67 134 46 69 138 50 72 137 44 65 129 45 66 131 44 68 137 40 65 135 41 68 142 47 71 142 46 68 134 44 64 125 38 62 130 46 68 134 52 73 139 43 66 133 54 75 140 50 71 134 45 72 148 50 71 136 89 98 135 97 106 139 75 84 114 95 102 132 95 102 132 103 108 137 65 77 108 85 96 127 91 97 126 101 114 150 99 100 124 73 84 115 75 89 122 98 103 132 97 103 132 70 83 115 126 125 154 255 255 255 141 138 168 137 137 170 133 136 172 141 140 173 140 139 172 130 131 163 129 126 154 133 128 154 135 134 163 141 136 162 146 141 168 144 141 170 142 136 162 149 143 170 147 138 161 139 131 152 138 131 153 142 140 171 129 131 164 138 135 162 140 136 163 134 137 173 127 133 172 135 136 170 146 140 167 141 134 158 107 105 128 91 95 122 96 106 139 89 100 134 73 84 115 79 90 122 95 106 139 86 92 120 99 104 131 81 94 129 103 108 137 78 85 114 86 103 141 103 112 143 91 97 126 68 78 107 114 115 135 140 122 105 130 118 107 123 116 108 116 114 109 110 112 110 105 111 111 102 110 111 98 109 112 95 109 112 91 108 113 89 107 113 88 107 113 87 107 113 86 107 113 86 107 113 87 107 113 88 107 113 90 107 113 92 108 112 94 108 112 98 109 112 102 110 111 105 111 111 111 113 110 116 114 109 122 116 108 130 118 107 139 121 105 90 100 130 95 99 125 92 98 126 100 107 138 77 80 106 105 109 137 96 103 132 85 92 120 86 100 134 96 99 125 96 103 132 87 96 127 75 89 122 78 89 122 108 113 142 82 95 128 79 90 121 89 97 127 90 101 133 92 101 133 68 82 116 93 102 133
77 89 121 94 105 139 80 90 121 80 94 129 98 103 132 78 85 114 89 97 127 93 102 133 73 84 115 68 78 108 101 108 138 85 95 128 88 93 119 78 89 122 97 106 138 82 91 121 77 89 122 74 84 115 91 97 126 68 81 125 41 68 142 48 70 135 43 64 127 44 67 133 39 63 131 41 65 132 43 66 135 46 68 132 44 65 126 46 69 138 42 66 135 42 64 130 45 70 140 44 68 135 42 66 134 45 69 139 47 72 144 45 67 132 46 66 125 43 64 125 45 67 130 46 66 127 44 68 139 45 64 125 46 67 130 43 66 135 50 75 146 44 66 133 48 72 143 47 70 137 61 74 119 72 84 115 88 97 127 98 103 132 99 104 131 111 114 141 85 99 134 79 86 113 82 86 113 100 114 150 82 95 128 79 90 122 107 106 129 91 97 126 125 120 143 152 142 164 255 255 255 255 255 255 255 249 240 130 132 165 139 135 163 129 123 144 146 138 161 150 144 169 143 137 161 145 137 160 150 140 159 147 142 170 150 140 159 147 142 170 150 140 160 133 133 164 114 116 147 139 135 162 135 129 153 150 144 169 134 128 147 132 132 162 145 141 170 121 124 156 130 135 172 136 137 170 143 139 167 150 142 165 120 119 144 101 108 138 98 103 132 75 89 122 100 107 138 92 98 126 77 85 114 82 98 135 80 94 129 67 72 98 82 95 128 89 101 133 102 105 130 86 96 127 99 92 103 143 123 104 133 119 106 125 117 108 118 115 109 113 113 110 109 112 110 104 111 111 100 110 111 97 109 112 94 108 112 91 108 113 89 107 113 88 107 113 87 107 113 87 107 113 87 107 113 88 107 113 89 107 113 90 107 113 92 108 112 94 108 112 98 109 112 101 110 111 104 111 111 108 112 110 112 113 110 118 115 109 124 117 108 131 119 106 140 122 105 86 93 117 89 101 134 82 91 121 91 101 133 98 106 138 74 80 106 98 103 132 97 106 139 92 105 140 75 84 115 87 100 134 116 119 147 100 107 138 80 94 129 88 100 134 96 109 145 83 87 113 99 103 132 94 102 133 92 105 140 81 86 113
86 92 120 81 94 128 74 80 106 87 96 127 91 97 126 90 101 133 96 99 125 92 98 126 86 103 141 96 103 132 79 90 121 81 90 121 76 93 129 79 90 121 78 86 113 99 103 132 87 92 120 81 91 121 94 102 137 48 69 132 43 66 132 48 70 136 39 60 118 50 71 135 51 70 131 42 66 134 41 65 132 44 67 135 44 67 135 45 65 126 46 69 138 47 70 139 41 65 133 49 71 137 48 70 137 40 62 124 47 70 138 41 68 142 46 68 134 44 66 131 46 66 128 41 67 140 48 70 136 44 64 124 47 70 136 51 73 141 49 73 142 41 65 134 45 66 129 49 71 136 71 78 117 85 92 120 100 111 144 88 93 119 91 101 133 81 90 121 104 108 137 90 97 127 79 90 122 85 99 135 88 100 134 83 99 135 84 95 128 116 120 150 255 249 237 255 255 255 255 255 255 255 255 255 255 255 243 141 136 162 134 132 157 149 139 160 147 142 169 151 140 159 134 125 142 132 128 153 159 147 167 126 117 132 136 125 142 132 128 154 147 138 160 159 147 167 135 133 163 151 140 159 143 133 151 158 147 167 153 144 168 148 139 160 146 138 160 148 143 170 124 120 145 128 130 164 137 137 169 144 140 168 152 142 163 95 97 120 100 104 131 90 97 126 80 90 121 72 83 115 87 96 127 79 90 121 92 105 140 72 84 115 91 105 140 87 92 120 86 103 141 102 103 127 137 118 103 134 120 106 129 118 107 123 116 108 116 114 109 112 113 110 108 112 110 105 111 111 101 110 111 97 109 112 95 109 112 93 108 112 92 108 112 90 107 113 89 107 113 89 107 113 89 107 113 90 107 113 91 108 113 92 108 112 93 108 112 95 109 112 97 109 112 100 110 111 103 111 111 108 112 110 113 113 110 117 114 109 122 116 108 127 118 107 134 120 106 143 123 104 92 92 114 79 90 122 74 84 115 95 106 139 78 85 114 59 70 100 81 94 129 102 108 137 80 90 121 104 108 137 97 99 125 101 108 138 91 97 126 100 104 131 75 89 122 90 101 133 83 91 120 90 97 127 85 96 128 92 101 133
71 79 107 87 92 120 76 89 122 81 90 121 88 100 134 73 84 115 81 90 121 104 112 143 91 97 126 73 88 123 75 84 115 89 100 134 103 111 143 72 83 115 94 98 126 92 101 133 92 94 119 96 106 139 56 73 130 43 67 138 42 64 127 41 65 134 48 70 135 48 70 135 44 67 135 41 63 128 47 68 133 47 66 125 42 64 127 43 66 134 42 66 134 46 70 139 42 65 132 46 68 134 46 64 125 46 69 136 43 67 135 44 67 135 38 57 122 48 68 130 40 65 135 46 69 136 46 69 136 51 73 139 46 67 129 49 73 143 40 60 120 46 65 126 49 71 135 49 66 118 49 71 135 68 81 130 80 86 113 105 109 137 90 97 126 92 101 133 74 84 115 76 85 114 80 94 129 83 87 112 83 91 120 79 90 121 87 90 115 127 120 139 255 255 255 255 255 255 255 255 255 255 254 237 144 137 161 118 118 144 149 143 168 159 147 167 160 147 166 153 141 158 145 141 169 148 139 160 142 136 161 136 134 163 146 134 150 154 141 158 154 141 158 142 136 161 161 148 166 161 148 166 153 141 158 153 141 158 155 145 167 138 131 152 150 143 169 140 132 152 135 129 153 127 121 143 131 132 163 141 138 168 146 140 166 151 141 163 112 117 150 94 98 125 83 91 121 89 97 127 91 97 126 92 94 118 79 85 114 89 93 119 79 90 121 71 88 123 73 88 123 128 110 99 140 122 104 132 119 106 126 117 107 121 116 108 116 114 109 113 113 110 109 112 110 106 111 111 102 110 111 101 110 111 98 109 112 96 109 112 94 108 112 94 108 112 93 108 112 92 108 112 92 108 112 93 108 112 93 108 112 94 108 112 96 109 112 98 109 112 100 110 111 102 110 111 105 111 111 109 112 110 112 113 110 115 114 109 121 116 108 125 117 108 132 119 106 139 121 105 148 124 103 81 86 111 96 103 132 82 95 128 90 101 134 77 89 122 70 78 107 85 96 127 88 104 141 73 84 115 71 79 106 78 97 136 88 104 140 87 96 127 70 83 116 101 108 138 77 89 122 66 77 108 100 107 138 92 98 126
84 95 128 80 90 121 82 95 128 78 85 114 58 64 90 72 88 123 110 114 142 96 102 132 103 111 144 86 96 127 68 78 108 90 108 146 90 101 134 83 95 128 71 79 106 76 89 122 85 92 120 80 90 133 50 71 135 42 65 132 45 67 132 40 65 137 40 64 131 44 68 139 44 65 128 41 59 117 43 67 135 43 67 136 45 65 124 47 70 139 42 63 126 47 68 131 40 65 133 51 70 129 43 63 122 45 69 138 50 70 131 46 65 124 44 65 126 39 61 125 47 69 133 46 68 134 38 55 115 45 67 132 38 60 122 46 69 136 41 63 126 49 70 135 40 62 127 48 70 137 52 76 147 42 63 126 69 83 120 77 89 122 92 105 140 92 98 126 92 98 126 88 97 127 102 108 137 78 89 122 68 78 107 76 89 122 100 100 125 255 255 255 255 255 255 255 255 255 255 255 255 137 134 162 151 140 159 148 139 160 153 141 158 153 141 158 162 148 166 157 146 167 163 148 165 141 132 151 132 123 142 141 132 151 155 142 157 139 135 161 135 129 153 150 139 159 157 146 167 147 134 149 132 132 163 149 139 159 135 129 152 145 134 150 127 117 132 144 133 150 152 144 166 134 129 152 134 133 162 141 139 169 143 139 167 150 142 165 144 136 159 106 110 139 77 80 105 87 100 134 85 92 120 79 86 113 79 86 114 93 98 126 85 92 120 95 99 126 113 105 114 145 123 103 138 121 105 130 119 107 125 117 107 121 116 108 118 115 109 114 114 109 111 113 110 108 112 110 107 112 110 103 111 111 102 110 111 100 110 111 100 110 111 97 109 112 97 109 112 97 109 112 98 109 112 97 109 112 98 109 112 99 110 112 101 110 111 102 110 111 103 111 111 106 111 111 108 112 110 110 112 110 113 113 109 117 114 109 120 115 108 125 117 107 130 118 107 135 120 105 142 122 104 125 110 107 89 93 119 93 102 133 89 101 134 81 90 121 105 112 143 82 86 113 81 90 121 85 92 120 72 84 115 68 78 108 80 86 113 94 105 139 82 87 113 106 116 149 79 94 129 92 98 126 90 104 140 92 98 126
96 103 132 82 95 128 98 107 138 75 84 115 90 104 140 88 96 127 98 107 138 85 92 120 73 79 106 83 91 120 81 98 135 94 102 133 87 96 127 63 76 109 99 110 144 91 101 133 94 109 147 45 66 129 46 69 136 49 67 126 48 68 131 50 69 129 47 69 133 46 69 134 48 71 138 49 69 132 46 68 132 47 69 134 48 71 139 47 68 131 45 67 132 47 68 131 43 66 135 43 66 133 47 69 133 46 69 134 49 66 120 45 63 121 42 60 123 39 60 123 44 67 133 51 70 133 50 71 134 47 69 133 43 67 135 44 66 132 40 64 132 41 64 131 47 67 127 47 68 130 42 69 143 41 65 134 47 66 119 90 104 140 86 88 112 81 90 121 86 92 120 70 83 116 85 92 120 102 111 144 68 81 114 103 103 126 156 144 163 255 255 255 255 255 255 255 255 255 123 115 133 125 120 144 153 141 158 154 145 168 150 139 159 158 147 167 159 147 166 151 140 159 152 140 157 142 132 151 142 132 149 123 115 131 119 120 150 116 116 142 134 132 158 110 109 134 124 119 142 147 138 158 139 127 140 131 127 153 147 134 149 138 126 140 158 147 167 145 137 160 145 133 150 148 138 160 149 143 169 128 126 153 146 141 169 147 141 167 155 143 163 121 122 149 83 95 128 81 91 121 87 96 127 81 86 113 92 94 118 83 91 121 79 90 122 77 89 122 144 122 102 141 122 104 136 120 105 255 217 150 255 217 150 123 116 108 119 115 108 116 114 109 115 114 109 113 113 110 110 112 110 107 112 110 106 111 111 105 111 111 103 110 111 102 110 111 102 110 111 101 110 111 102 110 111 102 110 111 102 110 111 102 110 111 104 111 111 106 111 111 107 112 110 108 112 110 110 112 110 112 113 110 116 114 109 119 115 109 122 116 108 126 117 107 130 118 107 135 120 106 140 122 105 136 117 99 105 104 124 102 101 123 88 97 127 102 108 138 85 96 128 98 107 138 69 78 107 88 96 127 88 104 140 94 102 132 75 84 114 90 93 119 92 98 126 73 84 115 89 97 127 102 111 144 72 74 97 101 101 124
84 91 120 94 98 125 93 98 125 86 100 134 86 96 127 113 115 141 105 112 143 104 112 143 90 97 127 114 118 147 77 89 122 85 99 134 77 85 114 75 84 115 78 85 114 65 77 108 58 70 114 42 64 127 51 71 133 44 67 133 45 68 137 51 72 135 45 67 131 39 56 108 37 59 122 46 70 139 43 65 128 50 69 129 48 70 137 45 66 131 42 67 138 40 62 125 44 66 131 48 68 133 48 68 129 41 63 128 46 68 133 46 66 129 44 65 126 55 79 152 45 63 119 39 59 118 43 66 131 45 67 132 34 51 104 50 69 126 48 67 130 44 67 133 39 60 121 44 66 131 40 60 118 44 67 133 37 57 116 49 62 98 85 92 120 105 112 143 94 102 132 83 91 121 88 97 127 76 89 122 101 107 138 136 129 155 255 246 229 255 255 255 255 255 255 145 137 160 138 130 151 136 129 151 155 141 158 156 145 167 154 144 166 123 123 151 53 61 82 108 113 141 120 120 152 87 93 123 84 98 135 78 84 112 78 91 122 101 113 153 83 91 123 64 74 100 85 99 134 75 84 109 75 89 124 72 82 112 119 117 142 137 136 168 118 112 132 159 147 166 146 138 159 155 145 167 151 139 158 150 140 159 114 110 133 147 141 167 147 139 160 123 114 129 253 228 202 93 102 133 95 109 145 83 87 113 96 103 132 92 98 126 85 92 120 127 117 124 147 124 103 142 122 104 255 218 149 255 255 255 255 255 255 125 117 107 123 116 108 120 115 108 118 115 109 115 114 109 114 114 109 113 113 110 110 113 110 110 113 110 108 112 110 107 112 111 107 112 110 107 112 110 107 112 110 107 112 110 107 112 110 107 112 110 109 112 110 109 112 110 111 113 110 113 113 109 115 114 109 117 114 109 119 115 109 122 116 108 125 117 107 128 118 107 132 119 106 136 120 105 140 122 105 146 124 103 119 109 113 73 84 115 101 108 138 92 101 133 97 103 132 76 84 114 82 91 121 77 81 105 54 62 91 72 83 115 80 86 113 89 97 127 90 97 126 98 107 138 66 77 108 107 113 143 98 110 145 91 108 146
89 97 127 86 92 120 67 77 107 83 87 112 52 62 91 61 70 100 67 77 108 73 79 107 85 99 135 101 107 138 239 218 200 68 78 107 97 103 132 94 105 139 99 113 151 99 113 150 46 67 131 46 65 122 51 71 132 45 65 126 41 61 120 41 62 124 45 65 126 42 64 128 45 68 135 46 66 127 47 67 128 42 63 124 44 62 118 41 65 133 44 66 129 48 68 129 44 60 110 42 64 128 49 69 130 50 69 129 37 56 118 44 68 135 91 75 163 43 64 127 44 64 125 43 64 126 49 71 137 39 57 113 40 60 120 51 75 144 42 63 126 39 61 124 46 69 134 44 63 120 38 61 125 31 50 95 39 62 128 60 73 120 86 96 127 71 87 123 89 97 126 106 109 136 85 95 128 97 110 145 96 97 120 157 164 198 101 106 160 249 230 225 255 251 231 153 141 158 146 134 150 145 141 168 150 139 158 108 98 109 74 69 77 90 100 132 98 98 120 84 98 135 69 82 112 81 91 123 93 101 133 77 84 109 52 60 80 77 90 128 81 92 124 101 110 142 85 99 134 108 116 152 72 83 114 96 112 154 93 101 132 94 102 133 87 100 134 102 110 143 150 139 159 142 132 149 151 140 158 127 117 132 152 144 167 120 121 134 136 128 130 116 108 116 123 127 159 96 103 132 87 96 127 83 91 121 94 102 133 86 92 120 89 97 126 132 118 118 146 124 103 143 123 104 255 255 255 255 255 255 255 255 231 129 118 107 127 118 107 124 117 108 124 117 108 120 115 108 118 115 109 117 114 109 117 114 109 114 114 109 115 114 109 114 113 109 112 113 110 113 113 109 112 113 110 113 113 110 113 113 110 114 113 109 114 114 109 116 114 109 116 114 109 117 115 109 119 115 109 120 115 108 124 116 108 125 117 107 128 118 107 131 119 106 134 120 106 136 120 105 141 122 104 145 123 103 126 110 94 86 88 112 72 88 123 58 69 100 70 74 97 100 107 138 76 89 122 94 105 139 105 112 143 78 90 122 109 110 136 99 110 144 114 121 153 102 108 137 92 101 133 89 97 127 87 96 127 87 92 120
110 120 154 105 109 137 93 102 133 116 119 146 72 83 115 97 103 132 75 85 114 86 96 127 75 84 114 54 62 91 73 84 115 105 106 130 63 71 99 97 103 132 84 95 128 66 79 125 45 66 128 55 78 135 46 68 134 43 64 127 47 66 125 46 67 130 42 63 132 42 66 134 50 72 137 43 64 127 46 65 124 46 68 135 47 71 143 48 67 126 95 123 179 44 66 129 47 68 131 43 67 135 47 66 125 42 64 128 39 60 121 48 71 139 41 65 133 50 70 131 37 60 124 44 64 123 45 62 115 38 58 117 39 60 118 43 65 132 39 59 120 39 56 108 48 70 137 48 70 138 40 60 118 42 66 133 35 55 113 42 65 132 75 89 126 95 102 132 81 90 121 84 87 112 76 89 122 98 107 138 96 99 128 122 120 160 30 49 101 121 114 132 159 147 166 148 142 167 118 117 140 98 99 120 99 108 144 99 109 145 66 80 112 95 107 144 89 94 119 87 87 107 71 81 114 87 94 120 83 93 123 91 96 122 70 74 96 100 108 143 94 101 133 88 100 133 103 110 139 100 108 142 109 117 149 65 71 99 80 92 123 79 85 110 86 94 125 83 92 124 93 106 143 94 96 119 141 135 159 157 146 166 159 147 166 120 118 132 118 120 121 128 123 130 113 114 129 64 76 108 99 110 144 74 88 122 85 96 128 96 99 125 100 111 144 147 124 101 148 124 103 144 123 104 255 255 255 255 255 255 255 255 183 125 115 104 128 118 107 128 118 107 127 118 107 124 117 108 124 116 108 122 116 108 120 115 108 121 116 108 119 115 109 119 115 109 119 115 109 118 115 109 118 115 109 117 115 109 119 115 109 119 115 108 120 115 108 121 116 108 121 116 108 123 116 108 123 116 108 125 117 108 126 117 107 129 118 107 131 119 106 133 119 106 136 120 105 138 121 105 142 122 104 144 123 104 151 125 102 101 100 115 80 94 129 107 116 149 111 117 148 99 107 138 109 116 148 111 120 153 111 117 148 94 102 132 95 102 132 89 93 119 96 103 132 84 95 128 73 84 115 71 79 107 70 78 107 59 70 100
86 96 127 97 106 138 99 104 131 118 122 152 112 120 153 104 118 155 106 112 143 86 96 127 81 94 128 87 92 120 79 90 122 84 91 120 88 97 127 79 81 105 65 72 99 53 69 116 51 70 131 38 58 119 45 63 119 47 64 123 39 59 119 44 65 124 41 64 129 43 68 141 48 69 133 46 67 131 41 64 128 48 68 129 43 63 123 49 71 138 47 68 131 45 65 126 49 70 133 42 61 119 45 66 129 46 70 138 51 72 135 50 68 125 40 62 126 45 62 115 37 62 131 45 62 122 41 61 122 44 66 136 29 44 88 44 67 135 45 63 119 47 69 132 46 67 129 45 63 119 46 67 129 44 63 122 40 58 113 42 63 125 81 88 130 143 140 151 77 89 122 93 94 118 84 91 120 70 75 105 63 79 127 44 61 114 40 63 127 124 119 140 147 134 149 100 99 123 75 83 110 88 100 133 88 94 123 93 106 143 72 75 94 103 110 141 74 83 111 91 95 119 99 108 142 86 100 133 87 99 134 65 72 98 101 112 153 65 73 99 73 76 96 77 90 123 82 92 122 94 102 132 95 107 144 96 108 146 93 96 121 82 92 125 80 91 123 98 103 131 92 100 136 112 117 149 89 100 134 109 109 132 150 143 166 139 130 144 100 112 114 122 112 106 108 105 117 82 93 125 108 116 148 105 109 136 83 95 128 95 102 132 86 90 106 152 126 102 148 124 103 146 124 103 255 255 255 255 255 246 255 222 152 102 105 104 111 116 116 124 117 109 132 119 106 130 118 107 128 118 107 128 118 107 127 117 107 125 117 107 125 117 108 124 117 108 124 117 108 125 117 107 125 117 107 125 117 107 125 117 108 124 117 108 125 117 107 126 117 107 126 117 107 127 117 107 128 118 107 130 118 107 131 119 106 132 119 106 135 120 106 136 120 105 139 121 105 141 122 104 143 123 104 147 124 103 151 125 102 114 116 139 99 104 131 93 105 139 87 96 127 105 115 149 102 108 137 98 103 131 76 84 114 76 89 122 73 84 115 62 71 99 70 78 107 89 90 114 64 76 108 109 110 136 100 107 138 92 101 133
66 72 99 76 80 106 75 89 122 87 92 120 107 113 143 100 107 138 107 113 143 98 110 145 89 93 119 92 101 133 115 118 147 107 113 143 97 107 138 80 90 121 79 90 121 60 70 110 45 67 132 45 64 122 49 69 130 49 68 128 42 63 126 49 68 128 43 65 129 50 68 125 47 66 125 46 67 130 41 62 121 46 64 118 48 68 129 46 69 136 32 52 107 50 71 135 39 56 109 39 60 122 43 64 127 44 65 127 41 62 124 47 67 128 40 59 116 44 66 124 42 64 128 41 61 122 46 67 132 43 65 130 42 61 119 45 64 120 36 53 105 49 66 127 46 66 126 22 35 71 39 55 105 42 62 121 45 62 117 36 58 119 75 82 115 93 102 133 100 107 138 79 86 113 72 83 115 59 71 103 50 57 93 36 52 101 39 58 114 86 85 110 106 119 162 111 113 141 122 129 165 90 100 133 108 107 128 93 100 133 61 63 78 83 92 122 71 82 111 102 114 153 120 124 158 91 89 105 87 99 136 76 89 124 95 101 133 103 115 150 71 82 111 103 110 141 80 86 109 100 104 132 98 103 135 68 73 97 92 100 134 93 101 135 76 83 111 61 71 101 68 74 97 96 108 141 97 103 130 101 108 143 111 117 151 128 119 122 97 99 97 255 255 189 122 109 108 154 146 149 77 89 122 67 77 108 65 77 108 75 80 106 97 97 105 141 119 98 151 125 102 148 125 104 255 227 154 255 255 210 129 118 107 136 124 112 117 110 102 110 108 103 134 121 108 136 120 105 135 120 106 133 120 106 133 119 106 132 119 106 131 119 106 130 118 107 130 119 106 130 118 107 130 118 107 129 118 107 129 118 107 129 118 107 131 119 106 130 118 107 132 119 106 133 119 106 132 119 106 134 120 106 135 120 106 136 120 105 139 121 105 140 122 104 142 122 104 143 123 104 146 124 103 149 125 103 152 126 102 112 104 105 95 106 139 96 99 125 70 83 115 67 77 108 76 80 106 53 62 91 62 71 99 76 85 114 100 100 124 68 78 107 81 86 113 84 95 128 77 85 114 102 111 144 104 112 143 99 113 151
70 73 97 48 61 92 54 63 91 59 70 100 60 70 100 65 72 98 71 78 107 58 69 101 106 112 143 100 110 144 96 108 142 101 114 150 107 113 143 99 113 150 118 119 146 51 73 140 51 70 130 40 60 118 47 68 131 45 62 118 43 66 132 40 59 114 46 66 126 48 68 131 38 58 117 43 61 116 49 70 132 45 67 133 50 69 127 42 60 113 40 63 121 46 62 118 39 59 119 52 72 134 43 65 126 44 63 120 46 68 132 38 59 121 35 54 109 43 57 109 50 72 137 46 67 130 40 60 119 44 63 120 38 56 107 44 67 135 41 60 115 40 55 103 35 52 103 49 57 123 34 51 106 49 72 139 51 69 120 41 64 127 51 64 111 78 87 113 101 111 144 107 116 149 86 96 129 96 106 147 34 51 99 45 62 134 124 156 203 90 98 133 124 130 166 77 84 109 59 71 97 104 109 142 84 93 123 79 84 109 78 85 110 96 108 143 110 116 149 78 78 96 91 95 124 88 99 133 74 84 112 65 72 97 85 86 108 103 105 131 111 118 149 96 103 130 91 101 133 90 101 132 90 95 119 87 93 121 99 104 129 99 102 131 83 92 121 89 99 133 84 93 123 84 93 123 122 122 149 79 84 109 101 113 153 90 90 99 255 222 149 255 255 186 255 222 156 251 211 161 65 72 99 53 62 91 78 85 114 99 107 138 98 93 91 94 88 80 153 126 101 152 127 103 255 226 150 255 255 213 113 102 96 140 122 106 135 120 106 117 110 102 132 121 110 140 122 105 140 122 105 138 121 105 137 121 105 138 121 105 136 120 105 136 120 105 137 121 105 135 120 106 136 120 105 135 120 106 135 120 105 135 120 106 136 120 105 136 120 105 137 121 105 137 121 105 139 121 105 139 121 105 141 122 104 141 122 104 141 122 104 143 123 104 145 124 103 147 124 103 150 125 102 151 125 102 149 124 101 94 85 82 52 62 91 54 62 91 82 86 113 71 75 102 93 96 120 106 117 151 103 112 146 114 122 155 104 112 143 100 112 146 101 111 144 114 121 153 103 111 144 108 116 148 101 108 138 109 117 148
100 107 138 90 97 127 103 108 137 86 96 127 71 83 116 61 76 109 53 62 91 64 76 108 56 69 101 76 85 114 69 78 107 59 64 89 80 86 114 64 71 99 63 76 109 42 62 116 46 64 120 48 66 122 47 67 124 39 59 116 46 65 124 40 60 120 41 59 116 40 62 126 44 64 124 45 64 122 49 70 136 52 72 134 41 63 127 95 120 167 39 58 125 43 62 120 41 60 118 43 64 127 46 69 138 43 66 131 53 73 134 41 58 111 41 58 110 34 58 123 45 65 123 44 63 121 44 66 131 42 63 125 35 50 95 33 42 90 40 60 120 47 71 141 31 47 94 43 65 130 45 66 130 44 66 124 47 69 134 51 76 146 39 60 120 98 118 148 107 122 151 107 116 141 70 83 119 42 56 92 27 43 93 40 60 117 41 59 112 87 94 133 103 110 139 92 96 120 65 65 79 84 92 121 40 44 58 78 84 108 88 99 136 85 97 136 99 99 123 91 95 119 102 114 151 84 92 121 97 97 121 106 118 162 110 112 138 95 102 130 98 108 143 92 101 133 104 109 142 80 91 122 76 77 95 254 233 215 95 102 130 108 116 149 107 111 138 100 104 132 100 104 129 95 102 132 82 92 122 92 101 132 90 100 134 85 83 93 110 100 97 74 77 76 117 101 86 255 228 180 104 112 143 99 110 144 104 112 143 108 113 142 99 95 89 79 79 76 145 125 96 149 124 102 149 125 103 66 78 100 55 61 66 110 98 87 144 124 105 142 123 105 137 123 109 144 123 104 144 123 104 143 123 104 142 122 104 143 123 104 142 122 104 141 122 104 142 122 104 141 122 104 140 122 104 140 122 104 141 122 104 140 122 104 141 122 104 142 122 104 142 122 104 142 122 104 142 123 104 144 123 104 145 123 104 144 123 104 147 124 103 148 124 103 148 125 103 150 125 102 152 126 102 153 126 102 119 108 95 103 98 95 84 99 135 106 115 149 102 107 136 103 106 135 105 119 157 103 112 145 109 120 156 99 113 149 112 120 156 249 228 212 116 119 147 100 107 138 97 103 132 87 92 120 67 77 107 76 85 114
102 114 150 97 103 132 82 95 128 95 99 125 77 85 114 74 84 115 72 79 106 231 208 181 62 76 108 74 84 114 74 84 115 64 77 108 53 62 91 58 69 100 95 99 128 43 62 120 40 58 111 58 81 139 42 64 126 45 65 124 36 53 103 36 55 111 45 63 117 41 59 112 41 61 119 49 68 126 41 60 115 41 61 121 48 67 127 92 118 166 46 65 123 47 67 127 41 60 117 44 66 129 41 59 119 42 62 120 39 56 116 40 61 121 44 66 129 56 75 133 43 62 117 50 72 140 41 60 115 44 67 136 36 55 108 44 63 119 48 76 119 49 68 127 94 119 167 42 61 117 38 53 99 32 48 95 41 59 112 59 81 130 42 61 106 223 230 215 88 118 156 105 124 152 113 120 138 95 112 158 31 48 97 27 45 93 68 78 124 97 108 142 96 104 128 105 113 138 85 87 110 76 90 123 89 100 131 117 119 150 90 100 133 255 236 211 109 113 141 106 111 142 64 73 96 83 92 123 92 102 132 105 110 141 107 116 150 96 100 142 66 65 77 81 85 108 96 102 135 101 105 133 85 87 111 73 75 98 79 84 109 57 61 80 74 82 111 249 225 196 90 100 132 92 97 135 80 85 111 99 109 141 98 104 132 92 93 113 106 89 80 78 70 62 88 74 60 97 90 92 83 99 135 96 106 139 93 112 152 119 120 146 77 78 76 88 85 79 71 73 72 73 81 80 112 97 82 70 56 35 72 80 101 116 97 79 151 126 103 156 131 109 139 118 99 149 125 103 148 125 103 149 125 103 149 125 103 148 125 103 147 124 103 147 124 103 147 124 103 147 124 103 146 124 103 147 124 103 146 124 103 147 124 103 146 124 103 146 124 103 147 124 103 146 124 103 147 124 103 149 125 102 149 125 102 149 125 102 151 125 102 151 126 102 152 126 102 148 122 98 125 109 93 110 103 93 103 93 83 99 97 90 87 96 127 106 105 129 48 58 87 74 87 121 75 86 121 93 106 140 108 116 147 100 106 135 93 108 146 111 117 148 111 118 150 117 123 156 96 99 125 78 85 114 52 62 91 69 83 116
115 121 153 109 120 154 114 121 153 107 116 149 241 225 215 105 115 149 104 115 149 247 227 213 105 115 149 91 105 140 95 101 134 120 110 140 100 97 133 101 96 125 83 80 108 44 64 125 47 65 123 38 59 117 47 66 123 41 57 107 44 67 132 34 52 106 37 57 115 53 74 126 47 63 114 47 65 121 41 61 120 52 70 126 42 61 121 50 71 135 42 63 126 49 69 130 34 55 112 37 57 115 41 61 122 46 68 132 45 61 123 49 69 130 48 68 129 47 68 129 46 67 130 47 68 130 53 73 135 40 62 123 39 60 119 53 74 138 22 37 78 37 53 105 35 49 92 41 55 101 27 43 91 27 45 96 40 59 114 30 50 103 53 73 125 90 119 156 92 119 155 107 125 152 232 232 205 233 230 196 39 58 116 29 48 102 48 61 83 74 91 138 76 91 123 115 127 158 92 103 121 108 111 140 106 106 129 103 104 131 94 92 114 74 83 112 72 82 111 96 107 144 66 72 98 226 218 216 94 97 123 116 116 142 95 106 145 79 91 124 112 117 149 100 104 131 89 89 108 67 81 112 110 117 149 94 96 121 91 101 131 86 88 110 80 91 123 95 102 132 47 59 81 105 113 149 253 231 208 62 63 81 88 94 121 96 89 98 93 96 95 56 48 40 108 96 84 82 85 103 131 126 131 66 72 99 115 105 100 52 62 91 79 79 79 75 77 71 231 189 122 229 189 125 61 68 71 73 63 54 56 54 64 89 72 55 110 99 87 143 124 106 145 120 97 143 121 101 147 121 98 132 113 95 136 114 94 143 122 101 150 125 101 152 126 102 152 126 102 151 126 102 151 126 102 151 126 102 151 126 102 151 125 102 152 126 102 151 126 102 152 126 102 152 126 102 152 126 102 149 124 101 153 126 101 138 115 93 154 127 101 107 94 81 89 81 73 84 85 81 67 68 67 81 76 71 58 61 63 80 87 86 107 110 139 128 125 133 61 67 91 84 99 135 101 110 141 104 120 160 106 113 146 59 70 100 48 54 77 119 118 127 76 78 102 110 111 135 62 76 109 54 63 91 55 63 91 58 64 90
86 96 118 235 218 191 111 114 139 145 147 167 102 111 144 154 151 164 109 117 148 247 226 209 101 106 141 126 120 164 115 117 167 107 114 169 255 255 255 255 255 255 255 255 255 60 75 134 51 69 124 36 59 124 47 65 119 45 65 129 43 64 127 47 65 119 40 54 98 137 172 224 47 67 128 47 67 128 38 54 104 44 63 122 42 61 117 41 59 115 38 56 110 43 58 105 46 67 130 35 55 111 49 66 120 44 63 120 41 61 119 41 60 118 40 61 122 41 59 112 44 61 114 40 59 116 55 71 120 31 48 100 41 60 118 41 60 117 40 59 116 44 63 122 44 60 104 43 63 113 54 79 144 37 55 106 39 58 113 22 37 77 51 69 121 109 125 151 112 126 151 117 127 144 119 125 143 245 221 198 51 51 53 28 41 82 0 0 0 255 236 217 112 121 145 115 126 149 108 111 122 107 110 134 254 229 201 255 236 216 109 108 133 95 87 98 89 99 135 99 103 131 108 111 144 87 94 125 84 97 138 84 87 114 75 84 114 98 103 131 119 120 152 255 237 218 92 101 132 93 101 133 109 120 163 133 134 165 255 237 210 126 131 161 94 98 124 98 107 145 88 99 133 100 99 121 79 89 122 115 123 158 98 106 137 76 83 110 72 69 65 19 19 19 73 56 46 67 74 82 236 214 190 63 76 109 60 65 89 80 86 113 95 95 96 128 117 89 109 101 74 66 68 62 59 63 61 39 46 57 0 0 0 50 46 43 57 57 55 104 97 87 62 68 72 107 99 88 80 79 76 95 87 78 49 53 58 109 103 94 71 73 72 98 79 78 102 88 85 120 106 93 83 87 84 73 70 66 118 108 95 100 91 81 110 98 85 107 93 81 96 91 84 129 110 92 74 78 77 59 61 62 79 79 76 79 79 76 94 93 87 95 90 83 78 82 81 80 86 85 96 93 87 82 80 76 92 92 87 67 69 74 82 88 116 87 92 120 108 116 148 111 120 154 119 122 148 105 119 157 110 119 150 95 101 128 54 66 97 58 66 91 53 62 91 67 72 98 75 80 106 68 72 98 92 98 126 88 92 119
147 211 73 194 255 89 144 208 73 62 110 53 78 103 102 157 212 126 111 117 148 251 226 211 129 120 161 111 115 168 96 111 171 245 217 235 255 255 255 255 255 255 255 255 255 63 74 125 46 68 130 41 61 120 47 67 128 38 54 102 47 68 134 46 63 117 44 64 125 38 57 114 41 54 103 40 59 114 37 55 109 49 68 125 41 60 115 46 68 133 43 65 129 39 61 116 43 61 114 46 66 126 42 60 113 45 67 132 40 56 107 39 59 116 47 67 126 52 70 124 48 68 129 35 53 106 52 73 138 39 61 124 41 57 113 40 60 118 29 47 99 44 66 120 28 38 67 50 69 128 44 61 110 25 37 73 46 65 121 40 56 104 58 78 135 80 86 107 97 102 112 116 113 100 87 94 119 75 74 97 25 35 65 26 40 84 252 230 214 92 96 112 255 255 197 236 228 180 112 121 148 45 45 58 54 67 99 253 230 209 134 130 153 255 245 231 255 247 225 122 130 166 255 241 225 113 118 149 255 241 224 112 118 148 118 129 165 69 81 111 78 90 129 86 91 124 88 81 94 93 89 109 83 90 125 0 0 0 100 101 129 84 91 126 67 69 90 83 98 134 105 115 149 100 108 138 103 117 158 106 116 149 76 88 123 76 89 125 65 69 78 27 52 28 36 41 42 72 81 101 110 118 153 108 119 154 109 119 154 106 112 143 82 82 91 231 193 129 73 65 59 63 72 77 53 60 65 0 0 0 49 38 23 67 60 53 89 85 77 67 76 79 83 80 74 69 75 75 80 83 80 92 92 87 75 70 66 85 84 79 81 91 72 84 58 68 87 29 63 80 81 77 87 83 59 102 98 90 95 70 78 92 51 67 94 74 77 76 78 76 79 79 76 86 87 84 76 74 71 70 69 67 78 82 64 79 83 82 86 86 80 97 91 82 83 80 75 92 83 74 77 75 71 86 81 75 75 78 76 86 85 83 89 93 119 93 102 133 112 118 150 113 121 153 113 121 153 119 125 155 111 121 156 111 120 154 101 112 146 51 59 87 83 85 111 56 63 90 99 102 130 111 120 154 112 120 153 115 121 153
194 255 87 61 106 51 145 210 73 60 105 52 152 228 84 195 255 90 81 103 83 137 124 160 120 118 165 108 114 168 98 112 170 94 111 171 96 111 171 255 255 255 108 114 168 101 106 158 39 56 109 44 66 129 51 71 133 44 64 125 36 49 92 37 55 108 45 65 124 42 60 115 38 55 106 41 60 117 38 53 99 46 69 135 41 59 113 45 64 121 42 59 112 39 51 100 46 64 117 37 55 107 44 61 121 40 58 111 37 50 99 30 44 86 37 58 117 37 50 103 42 58 111 37 55 110 50 68 123 34 53 107 41 59 112 35 52 103 47 69 135 32 51 105 38 55 107 37 55 105 37 53 104 90 115 157 39 57 119 26 46 101 39 55 92 54 64 77 65 78 97 255 255 255 92 107 131 56 69 94 30 43 83 0 0 0 247 155 116 58 69 95 71 59 60 0 0 0 103 103 111 255 230 189 114 122 158 216 206 192 90 92 120 71 74 96 224 216 213 64 65 83 70 81 112 93 100 133 60 69 96 97 104 138 65 79 114 96 102 135 255 239 215 102 111 146 255 234 213 94 100 127 255 237 218 100 109 143 234 227 228 100 108 141 253 231 208 105 110 141 91 106 150 82 96 137 53 59 82 100 99 123 57 67 94 101 110 143 59 67 76 67 64 58 77 80 74 77 91 124 99 109 140 120 122 147 107 113 142 112 120 153 243 224 206 101 96 88 121 109 86 53 56 57 72 78 84 84 83 77 86 79 71 46 56 61 66 66 62 66 66 62 74 72 67 76 83 78 101 103 97 88 88 84 74 74 72 47 54 57 87 90 68 44 93 41 61 73 61 49 54 55 55 61 56 91 92 87 94 55 73 93 33 72 69 31 61 78 82 80 93 93 87 98 94 86 61 65 67 70 82 65 90 94 79 82 77 70 61 60 59 84 87 84 89 88 83 83 83 80 88 88 84 94 93 87 86 81 75 102 96 109 91 92 117 92 92 117 82 87 113 111 115 144 91 94 119 96 98 123 55 69 101 88 90 114 80 86 113 102 108 136 79 90 121 99 105 134 67 77 108 96 109 145 98 107 138 111 120 154
63 108 52 56 99 50 79 142 66 58 96 46 144 206 70 144 206 70 63 107 51 94 117 102 125 119 164 120 118 165 116 117 166 113 116 167 112 116 167 126 140 201 114 113 163 107 107 155 35 50 97 43 64 125 48 66 122 43 62 118 40 56 105 95 121 170 46 63 117 33 48 96 37 54 110 42 61 124 39 56 108 39 58 112 47 63 114 34 49 95 43 64 128 43 63 121 37 54 106 43 61 116 45 63 124 47 64 117 42 61 117 46 69 131 35 50 95 44 62 117 36 55 112 39 57 110 35 52 102 39 56 108 46 65 124 35 52 101 30 46 96 48 65 118 36 59 123 42 59 114 45 67 123 34 50 98 47 64 117 51 70 131 47 54 67 105 110 104 104 111 108 111 121 124 206 202 166 121 95 115 17 29 62 16 30 63 26 33 56 79 82 100 255 229 189 71 71 83 77 83 101 84 92 122 87 85 103 0 0 0 75 77 99 62 69 97 70 80 114 93 100 136 71 76 102 219 209 199 78 83 112 56 68 102 35 45 68 127 167 216 255 234 212 112 116 142 127 133 168 102 115 151 255 239 225 105 115 148 106 117 151 116 119 155 113 120 161 102 109 147 97 100 125 50 58 77 55 68 101 78 89 125 105 113 143 87 94 120 63 67 67 79 78 74 69 75 76 37 42 46 66 77 108 64 71 99 61 70 100 57 64 90 74 78 94 127 113 88 67 65 62 54 58 60 56 55 52 245 198 118 39 40 38 0 0 0 45 41 37 85 84 78 49 59 63 76 77 74 95 92 86 97 92 84 51 56 58 44 46 48 68 70 68 89 97 80 83 83 80 101 99 91 60 62 62 54 56 59 39 36 36 79 32 55 88 85 80 91 89 82 107 102 93 85 84 80 68 74 66 79 99 80 97 95 78 106 100 90 92 86 77 87 85 79 98 99 94 105 104 97 71 68 64 70 69 67 107 104 96 92 90 108 155 143 163 147 139 161 152 139 156 157 144 162 118 113 134 102 107 136 113 111 136 130 122 139 105 108 133 104 102 122 87 84 102 129 124 146 90 95 121 103 108 137 103 111 144 105 115 149
61 100 47 64 108 52 80 139 63 55 96 46 60 103 45 48 90 46 56 92 45 48 86 44 118 116 139 205 250 146 150 190 100 128 120 163 84 84 130 102 121 182 132 152 218 113 103 138 39 57 112 43 60 112 38 55 104 37 57 114 37 54 108 38 54 103 45 66 131 44 62 118 40 59 118 41 57 105 34 46 82 33 48 93 37 54 105 24 37 74 43 61 114 42 60 115 48 68 129 30 47 95 45 63 117 46 68 128 39 53 105 43 65 128 39 55 103 42 59 110 44 74 122 39 59 118 41 59 115 38 58 115 28 42 84 34 51 100 39 56 107 32 47 93 34 52 104 46 65 125 46 68 134 30 49 102 44 60 109 51 66 132 85 66 61 30 36 50 43 53 70 43 52 68 91 107 127 63 74 102 33 53 109 21 31 61 69 81 122 50 48 55 231 218 205 65 65 83 67 78 116 77 90 123 107 112 141 255 235 214 255 239 219 93 98 128 255 255 255 91 103 135 84 92 123 108 121 162 252 227 199 81 97 134 108 112 142 63 72 97 88 100 132 255 238 211 97 104 135 113 123 156 95 102 131 87 99 135 85 93 125 78 90 124 60 62 79 60 69 101 214 202 185 97 98 121 113 120 154 120 126 156 91 101 132 100 101 124 77 77 94 41 45 58 65 67 73 92 100 126 58 64 90 54 63 91 54 62 91 52 62 91 63 71 90 96 93 87 104 105 99 81 76 72 51 53 51 27 27 27 0 0 0 50 53 52 70 56 40 70 62 49 103 94 82 99 99 92 110 108 100 69 73 72 63 62 62 53 52 52 52 54 55 50 52 54 85 86 82 108 106 98 97 98 93 102 97 92 97 84 76 106 104 97 79 71 65 53 55 57 47 53 58 50 51 53 67 67 68 114 102 89 69 80 63 71 80 47 91 86 82 56 68 53 74 67 60 80 79 76 86 84 79 91 89 83 81 84 82 68 74 102 130 130 159 143 138 165 152 142 164 152 142 164 148 138 158 149 138 157 156 144 163 154 143 163 149 138 157 149 138 157 142 134 155 152 143 164 140 134 158 112 120 153 245 226 213 105 118 155
63 103 48 63 100 46 66 109 50 84 142 64 49 87 43 47 86 43 45 82 44 140 202 70 145 206 69 130 231 46 142 189 68 192 241 115 115 103 136 65 67 103 36 48 92 238 199 198 48 68 127 47 69 134 51 71 117 124 156 205 36 55 109 38 55 102 44 58 104 37 53 103 41 57 105 45 65 127 39 55 103 44 61 114 46 67 129 53 73 134 49 70 133 44 63 119 35 53 109 42 58 107 39 57 109 41 56 111 37 55 108 38 58 113 45 64 122 49 68 124 42 60 120 35 50 96 49 71 137 41 60 113 40 57 109 48 68 132 27 44 92 26 41 84 37 53 101 44 59 108 43 64 124 36 53 101 35 54 118 70 63 87 86 60 21 43 45 53 35 41 53 79 84 97 96 105 121 99 98 117 29 44 87 38 52 96 42 58 106 76 84 109 97 98 120 81 80 98 18 21 32 115 119 151 97 103 128 105 116 148 99 109 140 100 112 144 255 255 255 111 121 156 255 237 216 108 118 152 255 255 255 110 121 153 81 85 110 89 100 132 78 88 126 65 79 115 60 72 102 67 81 119 67 76 103 20 22 31 83 95 134 32 42 59 223 213 204 218 210 205 71 73 97 58 62 79 88 100 132 110 119 160 78 90 124 96 96 118 83 76 65 17 19 20 71 82 103 83 89 116 66 77 108 67 73 98 57 67 99 59 70 100 120 118 126 85 94 97 235 196 132 61 65 68 55 61 66 110 95 65 42 42 35 44 41 37 112 98 83 105 102 93 98 92 83 104 103 95 105 101 92 102 95 83 92 92 85 255 217 139 54 57 57 97 92 86 91 97 91 120 103 95 114 109 99 96 98 88 93 91 81 99 94 90 53 54 55 45 50 50 50 54 57 49 52 54 32 35 38 88 89 87 86 81 73 79 78 76 57 57 56 67 65 65 69 68 67 71 75 75 115 107 95 93 98 95 86 85 86 126 129 144 85 88 114 128 130 162 132 130 157 140 137 166 148 141 166 149 141 165 135 129 154 148 141 166 148 141 165 143 138 162 133 129 155 137 134 161 111 114 142 94 102 132 109 120 154 120 123 151
66 109 51 53 92 45 63 105 48 135 190 63 67 107 48 54 88 42 53 92 46 55 90 43 141 202 67 146 205 78 131 172 57 59 75 82 86 93 136 144 161 211 116 104 116 255 255 238 113 102 117 48 67 123 41 57 105 41 60 116 49 68 128 40 59 116 41 62 123 106 141 205 37 57 114 40 58 113 37 55 108 40 54 98 46 66 129 34 47 87 40 57 106 49 70 131 38 58 117 48 67 125 47 64 119 52 73 134 40 57 117 35 52 101 41 58 110 45 64 120 38 55 104 37 52 99 31 46 90 42 62 127 42 60 114 36 53 103 34 52 103 41 56 104 43 60 112 46 64 108 47 66 123 36 48 83 28 44 87 60 58 96 109 76 52 42 46 60 45 53 76 47 56 81 83 83 103 62 66 89 97 103 134 31 44 91 20 32 66 65 72 93 113 110 134 108 115 145 254 229 201 59 71 97 101 107 136 90 97 127 255 237 212 255 237 216 255 255 255 255 239 224 105 114 151 97 110 146 121 130 166 98 103 129 106 122 161 90 102 134 55 70 101 0 0 0 32 41 62 85 93 127 65 72 95 51 58 83 65 73 102 58 66 98 36 42 61 88 103 145 82 92 117 255 249 235 85 98 134 36 42 61 79 89 126 249 223 185 49 53 52 86 85 91 61 68 85 255 235 210 97 110 147 101 111 144 107 119 154 99 113 150 242 222 205 98 106 137 88 90 85 71 78 76 34 36 37 50 50 51 42 39 36 63 66 64 101 92 81 119 111 99 113 103 94 100 100 93 113 110 100 92 96 90 84 87 82 88 83 72 59 63 65 69 66 66 77 78 73 82 85 81 89 88 82 87 87 82 94 95 89 97 92 86 86 87 81 57 65 69 75 83 84 84 85 78 87 84 78 97 96 87 255 224 147 114 105 91 105 99 90 51 54 57 46 51 52 103 97 87 101 103 97 95 89 81 140 134 139 99 112 146 117 120 148 121 126 160 129 133 169 135 135 168 137 137 169 133 135 168 139 137 168 138 137 169 138 137 169 131 134 168 126 127 158 79 83 108 57 69 101 49 59 87 69 76 103 58 68 96
57 89 39 64 104 48 56 94 47 58 95 45 55 96 48 57 92 42 136 195 64 64 102 46 54 88 42 91 110 114 227 192 172 223 188 175 60 64 97 155 137 143 66 66 92 255 233 214 53 61 96 45 62 115 44 57 101 45 63 116 42 59 110 96 122 170 33 47 100 35 54 109 41 62 121 52 73 135 44 65 131 43 61 123 42 63 126 33 47 90 44 62 119 37 56 110 44 63 120 35 54 109 50 70 131 48 67 131 35 53 105 37 54 106 50 71 133 40 56 106 41 59 111 35 51 98 32 47 93 36 51 104 46 64 119 32 46 90 45 59 104 46 65 121 29 44 88 26 44 91 43 58 107 90 113 147 62 49 69 97 65 23 81 65 62 53 60 86 187 180 174 52 62 90 158 152 148 120 116 120 69 81 111 247 223 197 19 28 60 244 216 175 251 227 202 94 104 146 60 70 95 93 106 152 83 98 143 75 83 117 78 84 114 47 57 84 73 88 123 98 104 136 89 96 124 85 98 134 102 108 142 244 216 175 253 231 209 84 100 138 34 44 83 66 79 114 94 96 120 78 86 117 73 85 118 77 91 122 79 86 113 251 228 202 118 125 156 111 115 140 117 129 169 92 107 142 76 83 105 54 67 95 75 73 86 65 67 84 89 81 79 72 62 54 78 82 104 106 116 150 104 111 136 244 226 214 108 119 154 111 120 153 241 223 207 115 120 148 93 93 94 80 77 72 113 99 71 49 47 45 113 98 69 40 39 39 56 53 44 102 94 78 103 96 85 93 95 89 255 219 141 90 91 85 104 101 91 76 73 69 46 48 50 43 48 52 46 50 53 53 55 57 49 50 51 45 48 50 45 48 50 50 53 54 43 47 48 103 100 92 95 92 84 92 92 85 96 95 87 107 105 96 104 100 90 111 103 92 100 98 89 85 83 78 54 58 60 111 104 93 94 94 87 84 80 81 106 115 148 123 123 146 112 121 154 238 204 175 119 126 161 115 129 172 122 131 171 119 126 165 125 133 172 123 132 173 121 131 174 119 128 167 101 107 139 65 77 108 65 72 99 53 60 86 56 63 90 51 60 87
64 106 49 58 96 46 70 113 52 75 112 48 36 70 37 58 95 43 56 92 44 49 80 38 39 68 36 79 97 111 76 88 106 85 92 126 75 72 95 87 88 111 46 53 73 52 59 83 62 72 106 37 45 67 56 65 98 41 49 81 54 71 113 37 52 100 28 43 86 41 61 117 42 60 114 46 69 134 39 56 105 41 62 123 39 54 100 41 60 117 46 64 118 41 60 120 45 65 123 43 60 111 38 57 112 40 63 120 45 65 122 37 53 100 44 59 106 33 49 96 28 46 86 37 56 109 36 51 99 42 61 117 45 63 116 30 46 92 27 40 79 44 63 123 34 52 103 41 62 120 29 45 89 27 42 84 67 46 16 127 114 101 50 57 80 45 53 77 119 118 126 121 119 126 47 56 82 60 70 100 98 107 138 249 225 195 51 59 82 0 0 0 75 73 88 49 59 81 81 86 113 217 206 192 83 92 124 78 88 116 54 71 110 63 77 116 60 63 80 63 63 80 0 0 0 52 62 89 68 79 115 55 73 116 35 41 61 94 102 136 84 93 120 234 226 224 112 120 154 87 99 128 255 237 218 255 233 212 254 234 216 80 92 121 110 120 155 255 252 238 86 94 120 150 177 217 255 235 213 115 109 123 105 107 132 80 70 58 64 65 96 81 83 109 75 82 118 111 118 150 243 225 211 116 122 152 106 111 143 109 119 154 106 116 145 102 113 147 97 107 137 92 89 88 67 64 64 37 44 49 110 88 54 34 34 35 42 42 43 98 90 76 105 106 100 103 102 93 114 104 88 72 59 56 52 52 52 55 54 53 54 49 44 61 58 49 49 50 51 57 60 56 65 67 70 50 52 54 60 50 59 48 53 56 47 48 50 89 84 73 100 101 95 105 98 86 96 93 84 114 106 94 92 96 91 126 111 94 121 108 92 114 106 95 61 65 66 77 82 81 98 98 88 114 120 148 95 107 150 110 120 154 105 118 155 108 112 137 107 119 154 102 115 147 93 117 162 101 118 158 92 111 153 88 113 157 104 121 165 107 119 155 112 120 151 111 120 154 88 100 134 57 66 91 69 73 97 49 56 85
40 68 37 141 197 64 59 97 44 136 192 62 52 93 38 52 91 44 85 131 53 45 85 55 134 188 60 105 99 121 96 91 118 73 76 103 69 73 95 64 72 98 46 53 77 34 41 60 255 235 207 45 57 99 40 54 101 66 77 125 46 53 77 51 58 83 57 65 104 49 67 120 36 52 101 35 53 106 46 65 123 36 52 99 38 60 120 29 48 100 26 33 70 50 70 130 50 75 145 46 64 117 36 50 94 48 69 130 35 49 92 41 59 114 37 53 107 41 59 113 44 60 111 34 51 100 41 56 102 38 54 105 34 50 96 34 50 96 38 55 104 21 30 64 37 53 100 35 52 101 34 54 112 52 42 59 62 44 38 100 85 102 81 79 97 60 69 93 71 83 114 81 89 116 232 211 188 71 81 107 235 212 185 81 92 128 0 0 0 12 21 52 58 60 77 255 234 213 83 86 109 62 70 96 64 76 115 18 21 32 0 0 0 52 62 85 62 74 105 74 90 129 70 77 110 53 69 101 61 73 105 217 206 191 0 0 0 85 100 132 107 116 149 104 117 154 120 126 156 252 229 196 74 85 113 255 235 219 255 255 255 89 102 137 255 255 255 255 255 233 255 255 246 69 77 104 80 85 116 94 93 114 88 94 117 91 92 110 83 97 132 65 79 114 85 96 130 85 92 120 84 93 122 255 238 216 91 99 127 76 89 122 82 95 128 98 107 138 255 236 214 63 71 91 58 61 63 51 52 52 41 42 40 43 46 49 31 35 38 46 52 51 72 79 78 65 71 69 73 70 68 50 52 53 44 46 48 51 52 52 38 40 41 49 52 54 61 64 67 53 53 54 40 44 47 45 51 55 43 45 46 52 54 57 52 51 50 77 72 63 98 97 89 106 96 83 115 104 89 97 98 93 101 102 94 113 105 91 109 99 85 81 80 74 55 55 55 50 49 49 82 85 93 76 87 115 100 104 131 104 112 143 83 95 128 68 87 124 75 83 118 98 106 137 76 79 102 83 89 115 78 85 114 97 109 142 88 94 121 94 96 118 84 91 120 66 77 108 84 90 119 94 98 125 85 92 120 50 61 92
32 59 31 49 83 39 52 88 42 29 55 30 50 83 39 65 102 46 41 75 38 35 64 31 64 76 99 80 82 111 90 88 106 46 56 92 37 45 67 50 63 93 46 55 79 55 68 108 35 41 60 117 116 122 54 63 91 117 115 121 45 50 71 60 70 104 64 70 92 44 55 88 43 60 113 35 53 104 40 59 117 47 68 129 37 57 121 26 42 75 28 42 83 48 64 115 43 63 121 42 61 123 29 48 102 41 61 116 38 53 99 25 43 84 33 47 90 34 46 91 38 52 105 29 44 87 44 62 116 40 60 117 39 57 110 24 38 60 39 58 114 28 40 80 26 40 79 20 28 52 43 60 114 92 98 127 91 92 113 103 91 101 89 97 125 101 105 133 91 99 132 104 113 148 92 100 131 118 116 124 159 152 149 48 60 93 27 40 82 61 63 84 52 58 83 107 109 136 111 114 140 103 107 133 50 59 80 63 80 111 77 84 114 216 206 192 0 0 0 214 202 185 60 76 116 60 77 112 44 52 70 35 41 54 47 57 84 70 89 128 254 234 215 85 104 140 83 94 125 255 255 255 102 115 149 255 255 255 98 108 141 82 95 131 79 80 97 255 255 248 75 78 98 96 93 113 85 85 107 63 64 79 67 75 98 69 70 77 104 105 120 95 104 136 242 220 201 97 111 145 55 67 97 123 122 134 59 70 104 51 61 89 52 59 83 48 56 82 120 118 124 50 58 84 49 50 50 58 62 64 113 100 74 37 37 37 67 63 57 70 66 53 101 90 78 59 62 64 51 49 45 35 38 39 52 50 49 47 48 50 42 43 45 43 46 51 50 52 54 66 61 57 51 49 47 54 54 55 52 54 57 48 47 46 54 55 57 49 55 55 102 98 89 94 90 77 99 97 90 119 109 117 106 103 92 110 104 90 77 81 76 64 58 48 53 54 55 57 61 63 111 120 153 76 81 104 64 72 99 50 59 88 57 63 90 50 59 90 54 63 91 50 61 89 56 63 90 53 61 88 51 62 92 50 59 90 54 63 91 51 62 92 56 63 90 54 62 88 57 63 87 51 60 99 53 62 91 119 117 125
141 197 61 55 85 38 79 123 49 72 125 55 34 62 33 133 186 59 131 183 57 136 183 73 146 184 127 86 90 122 47 52 70 83 91 118 88 92 116 83 92 131 99 106 134 69 76 103 236 213 188 76 86 113 255 255 255 80 89 116 133 133 146 52 59 83 50 58 88 47 58 88 70 71 93 33 47 88 29 43 88 47 66 121 39 55 101 36 54 105 47 66 123 43 58 104 33 46 97 36 52 100 46 66 125 45 61 109 40 58 111 43 62 122 43 61 115 39 57 107 39 58 113 28 44 87 38 55 111 31 42 78 50 70 130 55 77 141 36 53 102 24 35 65 27 40 77 52 66 118 88 93 120 90 110 151 90 103 138 106 111 141 246 224 205 110 114 143 91 102 135 255 255 253 235 215 195 119 117 123 51 59 84 48 54 79 93 100 133 59 64 84 70 77 112 47 59 81 255 239 216 83 87 108 60 71 108 86 90 106 255 234 213 255 231 207 94 105 139 100 102 131 97 104 134 82 92 121 69 78 110 86 94 123 237 220 210 80 97 134 67 81 111 70 76 99 91 107 147 81 89 116 60 79 115 68 80 113 70 72 86 45 48 63 80 90 125 255 253 230 52 58 79 102 104 125 69 74 93 92 99 129 60 64 85 74 75 91 242 219 194 97 109 139 114 118 147 99 111 143 96 101 122 119 116 118 48 55 77 66 71 97 119 116 120 52 62 91 48 56 82 118 116 124 51 58 77 223 168 96 232 174 93 100 94 85 108 89 65 101 95 83 84 81 71 103 94 87 48 54 59 41 42 43 34 32 32 46 46 46 41 42 43 49 49 49 40 43 45 72 69 63 56 58 60 52 50 49 55 52 50 47 45 44 46 47 48 51 53 55 93 96 90 95 96 89 101 102 95 90 85 75 115 106 92 111 100 86 71 61 51 42 48 52 91 88 85 109 116 147 119 121 147 106 117 150 99 112 145 80 84 108 119 116 122 58 62 84 54 62 88 58 64 90 120 118 126 56 62 88 120 118 126 52 59 84 120 118 126 55 63 91 54 62 88 58 70 102 118 107 102 53 60 86 55 63 91 53 62 91
38 63 30 39 63 28 36 62 31 44 71 33 112 227 34 39 65 31 27 54 29 237 218 194 89 97 118 52 59 86 63 80 123 91 101 148 86 90 116 85 93 123 47 63 109 97 104 132 100 105 132 104 113 150 112 117 146 108 116 151 240 219 200 72 79 104 78 88 123 162 154 149 128 125 140 156 152 160 41 54 103 25 39 84 54 73 137 48 70 133 37 53 98 48 68 133 45 65 122 42 57 105 36 53 107 47 63 113 41 61 117 42 62 120 40 57 107 36 54 113 44 63 120 47 64 113 35 50 93 27 41 83 41 62 121 45 62 112 24 38 79 19 32 68 36 53 94 241 223 208 103 110 139 102 107 137 105 112 145 255 242 200 90 103 138 89 100 135 241 219 200 255 255 247 231 207 179 62 66 92 118 116 122 44 56 81 65 72 102 72 83 112 90 101 131 43 45 57 37 50 85 108 114 145 86 91 121 93 98 123 88 94 125 78 89 125 78 85 109 90 90 111 93 108 144 85 94 119 255 236 219 253 231 209 54 61 80 56 57 63 58 69 100 44 60 90 37 41 54 48 61 90 58 71 104 43 44 59 56 59 79 63 64 83 95 104 136 255 239 205 52 59 83 88 89 113 250 215 153 44 55 81 59 65 91 67 71 95 89 95 118 98 111 148 100 110 137 241 223 205 115 118 143 83 88 112 54 59 83 50 58 82 50 58 84 53 58 81 53 59 79 47 54 76 52 56 75 54 61 85 219 161 79 112 99 83 255 219 137 143 228 75 110 95 73 255 212 135 69 73 79 41 42 43 44 42 40 40 38 36 39 38 36 52 54 52 49 46 43 52 54 55 54 56 59 46 47 48 48 48 47 54 54 53 62 52 42 45 46 46 106 89 61 94 86 72 106 100 87 101 89 71 96 85 73 38 40 41 65 60 52 64 70 84 108 114 147 104 109 140 124 123 146 107 119 154 102 117 155 113 114 139 114 120 151 54 60 86 56 66 96 53 61 86 56 63 90 58 64 90 52 59 84 57 63 90 53 62 91 50 61 92 50 60 88 53 62 91 119 118 126 56 62 88 49 61 92 50 61 92
52 80 36 37 60 27 37 58 25 51 78 35 36 77 39 70 107 33 230 212 166 111 116 124 119 114 138 80 81 99 94 98 127 232 210 183 63 73 105 96 102 134 253 215 203 253 231 215 108 116 151 107 107 130 237 216 193 240 220 196 96 102 130 98 104 132 103 109 138 86 95 129 50 57 82 40 47 74 32 43 75 35 51 97 42 57 105 36 51 95 38 57 113 92 117 161 42 58 108 45 66 130 44 61 110 41 60 116 36 50 93 34 49 93 34 51 100 42 60 114 21 38 94 30 41 82 38 59 118 38 55 107 27 38 74 22 35 73 33 50 98 54 63 97 82 93 131 102 106 136 240 221 206 242 224 209 255 255 253 243 222 204 86 97 136 76 85 120 121 141 176 44 55 86 157 151 149 125 121 123 49 60 89 117 115 119 53 62 91 75 78 99 87 94 120 71 84 123 45 49 64 31 40 62 68 70 95 46 55 88 110 119 156 76 80 103 255 233 209 63 70 103 88 95 123 91 102 137 100 99 120 252 231 211 65 75 102 94 103 135 0 0 0 58 67 87 74 75 96 72 78 104 38 42 54 0 0 0 65 67 86 43 44 59 68 69 87 66 65 77 52 59 77 85 88 108 86 92 117 68 73 93 60 74 107 77 86 115 241 222 204 113 122 157 119 124 155 85 102 137 112 115 138 243 223 205 50 61 85 45 47 60 58 68 101 59 67 94 60 68 98 125 120 121 35 41 60 50 58 85 44 52 76 227 171 100 94 88 80 93 76 51 232 191 124 91 76 54 103 95 81 105 92 77 74 58 54 68 57 46 103 55 61 48 46 46 47 45 44 66 63 59 46 43 40 43 43 42 49 49 49 45 43 42 53 50 46 41 40 38 65 63 59 105 91 72 89 77 58 56 57 57 49 49 49 51 46 40 81 87 107 97 101 117 241 220 202 104 113 140 102 116 150 109 118 149 108 116 145 113 121 153 237 204 175 106 109 133 95 103 127 66 80 111 65 70 94 56 69 101 52 57 79 57 63 90 55 63 90 57 63 90 47 57 85 49 57 82 50 60 89 54 62 91 47 58 91 58 63 87
21 37 18 21 35 16 27 41 18 14 26 13 22 25 31 35 38 52 38 43 59 82 81 101 64 66 86 65 66 95 78 90 127 243 222 203 96 103 134 90 95 126 108 107 127 92 95 119 86 94 122 88 89 115 242 221 204 99 98 122 244 223 206 87 89 115 100 109 141 114 114 136 83 95 126 81 97 137 43 56 91 32 43 77 40 55 103 40 58 113 49 72 137 40 60 119 45 63 120 34 52 102 37 55 108 32 49 94 32 45 85 37 55 109 44 62 116 28 41 90 39 59 126 31 41 70 43 61 104 24 36 70 39 55 102 23 34 69 115 112 122 62 71 120 114 109 106 157 151 146 231 209 181 233 212 188 62 66 91 121 119 127 39 49 76 122 122 131 62 81 117 147 143 157 237 214 192 148 147 164 87 96 125 245 226 212 111 110 135 245 223 203 102 112 147 255 255 255 67 74 95 91 96 122 33 44 69 62 73 98 61 72 97 87 90 114 60 63 78 58 62 87 60 71 103 72 77 98 94 96 118 83 86 107 255 232 204 80 89 119 41 49 68 58 62 79 56 62 85 44 49 67 33 40 55 83 87 107 63 72 97 77 72 82 49 59 83 77 85 113 70 74 88 124 120 141 82 85 109 65 64 76 41 48 70 58 70 100 51 63 90 81 86 111 66 76 105 66 71 96 43 51 74 53 62 85 58 64 81 102 114 150 107 111 132 93 104 131 89 94 117 88 98 127 96 101 127 98 97 111 109 112 136 97 96 107 111 98 84 52 50 46 255 191 103 114 93 69 230 187 116 122 103 78 81 76 66 255 218 134 78 49 38 38 39 39 45 43 42 41 40 41 43 39 35 47 44 42 47 47 48 45 46 48 45 44 44 40 40 41 81 70 59 78 70 61 49 46 43 52 51 48 49 46 43 51 53 63 63 71 92 125 118 118 69 81 112 76 78 99 60 66 91 62 73 102 132 125 132 56 63 88 71 81 110 63 70 94 158 152 154 78 85 111 63 70 94 91 99 129 100 106 133 101 108 136 98 111 141 96 108 142 102 111 144 85 92 119 95 102 132 93 102 133 150 147 162 119 123 152
33 39 52 22 31 34 40 40 53 34 40 43 38 46 68 114 111 108 37 47 64 29 31 42 104 96 110 70 70 96 106 111 127 76 80 106 105 110 141 241 220 200 85 94 122 90 97 134 244 222 204 242 219 200 241 220 199 98 113 160 102 115 161 96 113 141 99 115 142 97 106 139 125 125 136 74 83 114 41 50 75 31 45 90 41 57 106 41 58 111 33 50 111 30 48 96 42 59 111 34 51 100 39 55 103 31 44 83 27 42 88 37 52 106 42 58 107 38 58 120 34 50 97 14 27 71 18 28 59 32 44 81 15 21 42 44 49 71 21 24 37 26 30 43 35 38 55 50 62 87 24 32 55 39 43 62 38 44 67 41 46 69 40 49 73 55 59 81 90 106 141 236 212 185 239 219 203 87 93 120 237 201 167 102 112 148 86 99 134 244 224 208 242 219 195 255 255 230 81 92 121 64 73 102 81 86 117 46 47 61 69 73 98 50 55 82 255 232 202 64 69 96 101 101 124 68 72 100 52 48 55 89 93 120 47 47 56 82 89 117 44 50 67 65 74 100 0 0 0 46 45 58 81 81 100 0 0 0 72 75 97 53 52 65 82 85 102 102 105 131 100 105 132 45 44 52 74 86 114 68 64 72 36 41 61 69 72 91 44 55 83 44 51 71 44 50 72 40 49 68 49 56 79 52 54 72 47 55 79 66 73 95 137 135 145 100 102 123 109 107 122 103 107 130 237 213 185 97 90 97 97 101 120 244 203 156 221 180 132 255 255 204 245 215 172 224 180 107 79 58 32 91 81 68 236 188 114 96 81 61 103 92 77 93 84 71 107 90 77 78 65 50 255 230 152 94 85 59 100 81 61 81 66 52 101 89 69 99 88 72 58 51 42 36 34 31 66 56 42 44 48 61 53 56 74 55 60 83 42 49 69 56 63 87 50 56 79 54 60 84 54 58 77 53 61 88 49 56 80 52 57 78 48 58 85 48 55 78 54 58 80 46 55 83 53 62 88 52 60 85 60 66 84 99 105 132 101 112 144 116 122 152 114 115 135 97 111 149 114 119 147 108 119 154 110 120 154 106 115 144
43 51 72 41 52 70 55 70 97 44 53 72 69 95 72 70 80 105 236 216 199 53 61 95 38 51 83 65 69 88 80 83 103 67 74 104 111 116 150 239 216 190 243 223 201 236 213 188 99 103 133 255 255 251 242 222 203 85 89 116 107 112 142 245 222 199 81 87 116 61 59 79 71 75 95 69 75 101 75 80 111 23 31 53 30 48 105 21 35 85 36 48 83 16 23 42 27 56 77 32 45 82 16 24 49 33 46 87 28 41 80 29 45 96 21 32 64 30 41 75 39 56 114 6 11 26 9 12 24 22 24 34 35 39 57 25 30 46 21 24 38 27 32 47 47 54 79 26 30 45 41 44 63 36 40 60 41 46 66 58 67 97 50 53 75 73 79 103 84 96 131 67 76 106 100 107 138 89 96 123 105 109 140 110 117 149 99 112 130 240 220 201 81 92 128 99 106 141 105 111 143 78 87 115 63 73 102 28 31 43 0 0 0 65 67 87 0 0 0 17 21 32 55 53 62 75 71 81 47 47 59 53 51 61 54 54 67 81 82 104 68 66 78 63 65 82 55 52 60 58 53 59 66 65 83 82 89 121 85 81 93 255 210 154 76 83 106 82 87 109 52 56 65 85 86 99 60 73 107 43 51 74 52 63 91 45 51 70 218 209 201 57 65 93 53 59 83 49 57 84 119 114 114 112 98 80 114 111 109 42 52 75 111 104 110 110 113 137 114 119 148 245 222 195 89 78 76 97 92 100 84 83 95 101 105 130 241 214 179 89 86 96 82 78 71 219 178 121 67 55 31 255 210 124 91 75 55 96 74 46 91 79 64 92 79 55 82 63 41 97 78 54 100 81 55 93 80 62 103 84 65 92 77 59 120 91 50 73 57 35 82 72 61 56 54 56 50 51 65 47 52 73 54 56 71 46 50 68 44 46 59 49 51 70 47 53 74 55 60 83 49 54 72 53 57 75 51 59 84 52 59 81 49 58 79 60 62 81 53 62 91 58 64 90 53 60 83 51 57 81 51 61 89 51 59 84 62 76 109 102 110 141 100 115 151 109 117 145 114 121 153 119 123 151 112 120 153 107 115 147
52 60 88 157 151 148 45 54 75 158 152 150 236 215 194 114 117 144 81 98 135 35 46 66 49 63 119 49 63 110 238 215 196 105 104 130 134 132 140 92 104 146 241 220 194 149 149 166 247 227 205 241 220 201 94 111 138 62 66 90 91 103 122 40 46 66 63 79 70 124 125 124 64 75 105 143 133 151 115 127 155 83 104 146 70 65 90 56 51 57 34 39 62 17 26 53 29 38 67 18 29 62 32 43 82 12 21 50 14 25 74 3 6 19 0 0 0 4 6 12 8 13 28 0 0 0 36 39 54 20 22 31 19 27 40 11 15 31 45 48 68 56 60 82 33 31 47 14 22 46 37 42 62 38 48 84 39 44 67 36 44 70 70 80 112 68 74 98 80 89 117 106 114 148 104 108 135 97 106 144 105 113 145 97 101 126 87 104 146 92 100 127 88 97 129 240 220 202 118 118 142 100 109 145 89 96 133 67 67 83 35 41 61 21 22 31 24 24 30 38 43 60 36 43 61 0 0 0 84 82 97 22 23 31 0 0 0 38 42 54 59 55 63 0 0 0 43 48 62 85 81 94 0 0 0 91 87 99 120 113 121 80 86 109 114 113 138 79 83 110 77 83 108 250 224 195 42 48 68 41 45 62 56 66 97 46 51 71 47 59 89 59 71 103 42 46 59 44 48 66 47 52 71 43 47 63 55 63 91 46 48 64 80 80 90 96 100 122 107 100 100 116 116 137 98 89 88 99 102 117 233 191 125 88 89 104 237 215 189 239 214 182 95 86 91 242 215 182 76 71 79 237 210 173 53 54 77 79 59 39 65 48 33 21 29 7 56 51 45 87 62 51 63 51 37 43 38 33 69 62 46 92 74 60 77 64 47 70 62 76 39 38 45 41 38 41 57 55 63 42 44 57 41 45 62 57 58 73 49 52 71 55 58 78 49 50 62 44 50 67 51 56 76 52 59 84 47 56 81 55 61 85 48 54 79 51 58 81 54 60 83 49 59 88 52 58 77 52 60 86 49 58 84 50 60 86 54 60 84 53 62 88 72 76 101 113 116 144 106 116 145 103 118 155 101 113 148 109 118 149
118 117 124 118 116 122 86 91 116 94 105 140 104 115 147 107 119 155 83 100 137 87 91 120 43 56 93 27 38 73 124 122 136 241 221 206 133 132 145 76 82 107 64 69 94 122 120 128 128 126 134 69 74 99 232 207 179 100 101 114 238 220 183 43 74 40 60 83 67 66 75 60 155 143 163 153 143 164 74 78 104 95 95 118 35 41 79 22 24 34 22 26 44 9 13 24 31 33 47 24 28 44 19 23 35 5 8 17 23 25 38 4 6 12 0 0 0 22 23 30 10 14 26 29 32 47 21 23 31 39 48 75 23 25 38 29 33 51 47 56 85 52 68 110 38 39 53 42 47 67 34 41 61 28 36 58 48 53 76 52 63 95 85 93 124 102 108 139 108 110 136 86 91 111 98 111 146 106 116 150 96 111 148 98 103 132 116 120 146 102 107 135 107 112 145 106 122 163 102 106 135 110 113 141 82 87 116 94 104 140 59 55 62 42 48 68 27 30 43 19 22 32 48 49 65 0 0 0 18 21 32 48 49 64 0 0 0 61 65 81 110 109 129 43 45 57 71 66 75 58 60 76 37 41 54 105 107 130 72 75 92 66 64 77 61 63 82 48 51 66 45 53 78 57 58 66 52 57 77 60 65 91 48 56 81 46 59 90 60 70 100 39 47 69 46 48 63 247 191 115 74 74 94 45 48 71 42 52 78 73 80 106 36 38 52 145 145 159 255 236 214 233 197 148 239 200 155 101 107 137 106 94 97 105 102 119 255 233 196 95 88 90 86 85 101 101 94 98 98 89 90 89 84 93 67 66 77 50 48 44 86 68 65 73 67 66 44 36 28 105 98 110 99 82 71 86 80 88 89 69 48 62 46 54 96 81 72 101 81 68 83 76 72 41 39 37 54 53 60 36 35 41 52 52 62 45 48 59 57 62 84 55 60 82 41 50 74 53 58 80 48 51 65 54 58 78 55 60 83 54 60 83 51 59 84 45 53 74 55 58 77 51 55 74 54 61 85 54 62 91 50 59 88 53 57 78 49 54 74 57 62 84 52 61 88 56 61 82 84 89 115 100 109 141 98 116 156 115 119 147
77 87 120 104 111 141 101 114 148 97 105 135 101 111 148 103 113 145 110 120 154 70 83 115 99 97 122 62 72 117 53 69 124 56 65 89 94 98 125 99 106 135 105 108 135 89 97 127 70 82 115 37 39 61 75 77 83 83 93 121 71 100 65 166 225 86 76 107 87 119 127 129 139 133 156 135 134 163 60 65 104 41 44 64 29 32 45 25 26 36 23 28 33 26 30 45 3 5 13 24 25 38 22 23 33 46 49 71 36 40 59 33 34 48 46 49 69 39 39 51 43 47 65 6 12 29 30 32 46 35 41 62 44 50 71 28 40 77 57 63 89 49 54 76 24 29 44 38 44 66 27 31 44 69 74 102 42 51 79 95 113 158 100 105 144 104 112 142 85 90 115 99 106 136 101 114 151 102 109 134 84 93 123 127 143 180 107 109 136 85 91 117 106 108 131 117 123 154 99 112 146 244 224 208 255 255 250 81 86 109 94 96 121 91 91 113 33 43 61 74 76 100 54 60 85 46 48 65 20 22 31 18 21 32 23 23 30 85 86 104 48 47 56 66 65 76 68 76 99 72 74 84 86 81 92 87 97 111 111 108 127 59 62 83 64 69 95 39 39 51 65 80 119 255 231 182 246 210 148 53 57 77 48 49 64 43 46 62 61 68 97 46 55 83 42 45 61 40 50 75 113 102 93 52 52 62 54 61 84 51 60 87 46 48 60 58 56 66 91 106 142 91 103 138 100 103 125 114 108 114 100 103 122 87 95 122 106 105 121 246 222 192 103 99 110 109 101 113 255 239 128 106 102 110 83 84 96 102 101 116 87 77 72 255 187 116 115 112 129 109 102 104 98 91 97 70 78 76 95 83 81 102 90 87 60 61 65 87 77 72 86 89 100 84 88 98 63 68 86 51 53 69 44 47 62 43 45 57 33 35 43 49 54 72 50 55 74 54 60 83 53 59 83 46 56 83 48 58 88 47 52 71 46 53 74 49 58 84 44 53 78 54 56 70 50 61 89 53 61 89 46 53 75 52 60 86 52 61 89 54 61 86 54 61 84 54 63 91 49 58 84 50 59 87 85 96 127 105 114 141
111 106 127 71 83 118 254 232 206 119 119 128 75 87 103 90 96 123 65 74 104 44 52 79 32 51 110 37 50 93 43 65 126 69 74 113 103 103 140 151 139 156 152 142 162 149 138 157 252 223 234 255 215 216 97 95 133 127 119 149 80 106 88 166 231 75 67 104 46 134 131 158 144 139 167 83 89 118 63 73 106 70 75 96 67 69 99 68 70 92 70 76 100 36 45 75 53 68 96 47 53 83 56 70 107 79 88 120 92 87 101 81 86 112 84 86 109 78 78 98 96 98 124 46 53 75 61 65 87 51 63 95 82 85 109 43 55 85 73 75 98 92 93 114 99 102 128 94 97 123 79 90 124 84 89 116 61 74 116 76 85 112 30 41 67 62 67 88 71 83 112 76 82 110 86 90 119 82 87 113 78 90 123 75 87 119 89 92 112 84 92 123 71 82 119 85 93 125 77 83 111 89 88 107 67 77 109 45 51 71 46 56 82 63 75 110 48 54 76 68 76 104 47 58 86 35 42 63 51 51 65 63 63 81 39 47 70 71 68 76 103 95 106 90 94 116 89 90 110 94 99 124 76 73 86 97 103 129 88 96 124 101 106 136 97 102 130 124 116 116 87 94 120 76 81 102 96 102 129 75 76 92 90 94 111 91 95 121 103 109 142 94 99 127 89 99 131 95 104 131 87 97 123 99 103 124 105 111 142 78 82 104 72 85 116 81 90 116 92 99 126 72 76 100 71 79 108 67 74 90 83 87 111 77 80 98 80 90 101 82 81 90 55 59 79 85 83 94 85 92 111 54 61 81 63 64 75 65 67 76 98 98 112 90 86 91 49 53 67 42 45 48 62 58 58 71 77 100 76 69 71 85 82 88 81 78 87 51 52 66 82 81 90 101 94 102 70 70 84 66 66 82 75 83 108 57 63 80 90 97 118 74 77 95 90 93 113 89 89 100 76 89 120 102 107 123 83 92 119 92 102 132 94 97 116 92 101 133 101 109 139 89 99 128 83 94 126 92 103 129 103 107 132 77 82 105 91 105 140 109 110 134 94 104 137 99 108 140 85 96 127 84 90 117 98 109 142 89 98 128
82 82 106 49 57 83 43 51 77 47 52 76 63 71 101 39 50 81 43 53 81 43 53 82 30 41 73 66 79 124 55 63 106 30 42 82 47 53 84 68 77 129 145 139 164 150 142 165 138 129 156 131 125 159 135 133 167 148 141 165 126 126 142 125 132 144 133 136 152 140 138 168 120 123 155 103 109 138 100 105 139 94 95 117 97 99 132 112 130 161 73 74 93 101 107 139 81 84 108 109 118 151 84 89 120 90 93 116 92 93 122 77 91 129 92 96 124 95 102 133 71 80 109 73 82 113 108 115 148 94 100 131 103 110 144 86 105 143 93 103 135 98 106 139 87 96 125 116 118 147 110 113 141 106 109 137 41 48 73 37 45 67 50 61 97 53 57 79 41 50 77 63 69 98 45 54 88 43 51 75 49 55 78 47 53 77 49 54 79 55 69 106 47 60 92 55 60 82 30 31 42 28 31 43 34 37 52 69 80 116 54 66 99 81 91 134 61 66 91 0 0 0 54 65 95 46 49 66 40 48 72 43 56 88 32 41 63 76 86 113 72 85 113 94 88 98 122 129 162 255 234 206 255 245 221 97 109 141 116 123 153 110 108 123 104 109 136 97 108 138 109 118 148 255 238 211 112 114 136 92 105 135 109 120 156 255 237 211 118 123 152 92 104 133 109 115 144 106 114 143 108 117 149 106 117 151 98 110 142 102 113 142 86 93 116 100 113 148 83 100 136 78 88 118 57 66 96 64 74 106 63 64 83 44 50 72 55 59 81 38 45 67 49 50 57 75 80 108 50 59 87 47 49 63 46 51 70 39 47 68 50 56 78 51 56 75 39 43 57 44 47 60 60 65 86 45 50 69 48 52 70 32 38 54 41 49 73 48 53 74 49 53 71 44 50 69 53 59 83 47 52 74 66 65 78 102 108 134 106 111 135 110 106 113 109 111 129 104 106 127 103 108 130 113 114 133 100 107 134 102 105 124 83 99 116 109 117 145 101 106 138 112 114 135 102 116 151 108 113 133 117 112 125 114 120 148 100 110 138 110 116 145 113 118 144 109 109 127 119 123 140 92 99 122 105 102 137 112 119 149
54 61 88 58 64 85 48 58 83 158 152 150 43 51 79 117 115 121 47 56 85 56 64 93 120 118 127 39 50 84 53 60 93 42 61 127 131 160 202 36 53 103 77 83 127 133 127 150 140 134 158 143 138 165 144 139 167 142 139 167 134 132 160 140 138 168 133 135 170 118 123 157 85 97 123 99 110 149 108 114 147 87 97 130 85 97 131 98 101 126 106 116 148 87 94 127 81 91 130 92 102 139 109 117 150 91 98 128 82 90 121 98 111 155 85 96 128 98 107 139 93 100 131 106 116 153 87 98 136 93 100 132 91 103 139 101 108 140 75 89 125 101 113 150 106 115 148 94 100 131 90 106 147 79 88 109 41 49 73 43 50 72 61 73 110 37 41 62 52 60 86 34 44 67 63 72 106 65 76 112 49 53 76 46 55 83 31 34 52 64 73 104 43 47 65 43 53 79 58 67 99 68 73 102 50 60 89 59 66 92 33 36 51 53 54 73 58 58 69 35 37 51 35 45 70 59 62 83 41 56 88 222 212 200 61 69 99 65 79 117 105 114 146 99 98 124 103 104 127 255 242 217 105 115 148 126 130 161 98 102 125 101 115 151 93 104 126 107 112 140 95 108 143 114 118 145 102 115 151 111 110 132 89 100 129 106 120 158 113 124 160 116 120 147 116 119 147 103 114 146 95 102 125 87 102 136 99 106 131 114 116 141 98 110 146 121 121 146 92 104 136 93 100 137 59 73 109 49 62 94 55 63 91 56 61 81 40 46 66 43 49 69 104 103 101 45 53 76 71 68 77 49 54 73 56 67 98 44 51 73 44 50 69 46 53 76 56 61 81 54 56 72 48 48 59 43 50 70 54 56 72 49 57 83 54 56 71 41 48 69 52 56 75 50 57 80 53 59 80 42 50 71 47 52 76 72 80 103 108 106 117 112 119 148 110 108 121 112 113 136 114 112 125 122 119 136 105 115 145 91 100 122 111 117 145 109 114 140 100 110 139 107 117 150 119 121 147 114 114 135 107 117 149 112 115 140 109 110 130 113 114 141 111 114 135 112 121 154 115 121 148 105 99 137 112 105 147 107 92 143
118 116 122 120 117 123 54 59 83 47 55 82 52 59 86 50 58 87 48 56 82 51 57 82 55 61 86 118 116 126 42 61 117 55 67 121 51 63 110 32 53 111 52 62 102 173 214 255 72 74 100 139 137 166 139 137 168 135 136 170 130 134 171 121 125 159 112 124 167 97 105 139 86 97 132 95 97 120 115 122 155 116 119 147 99 106 142 88 97 127 99 107 139 91 101 138 112 114 142 110 116 147 99 108 145 87 103 139 102 113 147 83 99 144 111 117 148 89 98 131 91 102 136 100 114 152 94 109 146 99 112 149 87 94 127 110 119 153 85 94 122 92 104 139 87 105 144 100 109 141 88 102 140 62 74 112 50 57 82 57 65 94 50 62 94 65 69 95 41 48 72 58 61 78 44 50 72 34 44 67 46 56 85 39 42 65 58 65 92 37 42 62 52 61 91 54 68 107 33 36 50 46 54 79 24 29 44 46 57 87 37 37 56 48 59 89 67 72 101 53 66 99 40 50 75 19 22 32 49 57 84 58 58 75 61 72 107 65 78 104 107 110 134 109 116 147 103 104 126 90 99 129 94 105 138 104 107 131 103 112 144 94 102 125 86 98 129 112 118 148 113 114 136 90 91 115 102 107 134 115 113 130 255 242 219 104 111 141 239 201 160 106 120 157 111 117 143 95 101 132 100 107 135 115 119 147 102 111 138 105 112 144 109 116 144 116 119 145 96 105 135 102 115 149 85 89 114 53 55 71 55 66 96 41 48 69 46 51 70 50 58 84 46 52 74 48 55 79 50 58 83 55 60 83 53 62 92 57 64 88 44 52 74 48 57 83 50 57 82 52 59 84 40 50 75 50 61 92 45 54 79 47 55 80 56 62 88 53 59 83 68 70 86 49 54 72 51 55 73 52 57 77 53 58 81 53 56 80 55 62 88 96 106 138 108 114 141 105 112 141 111 113 133 101 113 146 99 106 134 95 110 145 111 118 146 101 101 118 114 121 153 118 116 133 115 120 148 101 107 134 115 120 148 98 113 150 114 115 134 100 112 150 115 117 144 105 81 126 122 70 135 91 38 121 88 39 123 101 43 136
46 59 90 53 59 83 48 54 77 120 117 123 47 54 80 52 60 89 50 57 82 55 64 98 117 114 118 55 61 86 53 61 93 117 113 114 41 51 80 39 53 98 47 65 120 31 45 87 42 61 117 255 255 255 255 255 255 120 129 169 112 128 174 106 124 169 96 109 150 96 111 149 103 113 148 103 111 141 104 115 149 95 107 140 92 104 140 97 109 143 91 107 143 92 106 141 96 108 148 100 108 139 100 107 142 105 115 152 93 98 127 109 117 150 107 117 152 98 109 144 95 109 146 113 119 151 105 111 143 102 111 144 108 116 148 109 114 143 109 116 147 102 112 148 117 120 148 107 113 143 52 60 87 41 49 75 66 72 100 67 76 109 49 63 98 42 52 79 44 48 68 42 49 73 37 45 68 42 49 72 43 55 84 57 68 101 56 65 95 73 82 121 55 64 92 41 50 75 51 59 87 43 51 76 59 67 97 41 46 66 39 45 66 50 60 89 53 58 81 50 62 94 46 52 75 51 57 82 41 46 66 49 54 76 45 54 80 64 72 97 104 111 140 255 243 222 108 110 135 98 98 115 117 121 149 92 98 123 115 117 143 105 114 147 99 109 145 98 106 135 104 115 148 91 94 113 101 106 131 106 114 145 255 243 225 87 96 115 255 240 219 107 117 151 109 115 143 98 117 158 255 246 224 116 121 150 111 120 152 113 121 152 93 104 130 101 113 144 104 115 149 255 241 223 89 101 129 73 80 107 43 48 66 53 60 84 44 48 64 50 55 76 53 62 88 60 69 97 44 52 74 51 56 75 47 56 83 47 58 88 44 53 71 33 43 64 46 55 80 54 62 88 54 62 88 52 55 68 54 62 86 57 62 85 51 60 86 66 72 97 51 58 81 44 52 78 50 58 84 53 58 78 44 53 78 50 60 89 59 69 100 52 55 71 91 94 118 119 121 147 103 109 136 102 110 139 93 100 125 104 117 150 92 105 132 104 108 132 96 112 135 108 114 139 102 114 149 105 107 125 101 113 147 102 115 150 103 113 141 106 114 146 108 105 140 97 74 134 230 81 182 101 39 121 105 43 131 102 40 123
50 58 84 50 57 82 120 118 126 54 61 88 124 124 136 52 60 89 52 60 86 61 72 106 49 59 87 49 59 89 50 61 92 50 61 92 49 57 83 59 73 115 49 57 88 37 54 101 46 64 116 50 64 99 71 92 134 88 113 159 98 116 156 103 118 155 92 110 149 95 111 149 100 110 142 111 114 142 108 115 146 99 112 148 106 111 141 83 93 127 103 115 152 99 111 149 85 95 122 107 110 140 116 115 141 99 105 140 100 106 141 102 107 136 101 111 144 100 114 153 112 118 149 101 109 140 106 120 158 102 111 147 89 101 138 92 103 137 102 115 151 95 103 133 100 108 139 97 105 143 44 50 72 49 59 87 41 47 75 59 67 96 37 48 73 49 57 85 44 49 71 44 52 78 62 68 95 42 46 65 59 71 105 53 63 93 54 61 88 46 53 77 42 51 77 64 74 109 41 52 78 37 46 70 39 45 66 43 50 72 53 61 89 58 62 85 35 41 60 50 56 81 45 50 71 62 73 106 221 211 198 50 60 89 58 67 96 77 88 120 255 241 220 115 123 156 108 117 151 255 224 185 255 243 220 94 103 138 100 112 145 106 116 150 92 96 118 116 119 144 105 116 150 102 116 152 100 117 160 118 123 154 105 111 144 106 118 152 106 117 152 99 111 146 104 115 147 114 119 148 106 110 134 255 243 224 255 238 213 99 113 150 96 111 149 105 113 141 255 243 223 96 104 133 110 118 149 103 107 133 48 56 83 51 58 81 46 56 83 61 71 104 53 60 83 54 58 80 52 60 86 64 70 98 53 60 84 53 59 83 52 60 86 49 56 79 54 67 99 40 45 69 52 62 91 47 57 85 48 60 90 48 57 83 53 60 84 51 57 81 47 54 76 60 70 102 52 60 83 48 55 76 47 58 88 51 58 81 52 57 77 46 52 70 47 58 88 46 54 76 105 109 130 117 122 152 101 113 149 109 117 149 111 120 154 115 120 147 112 120 153 101 103 131 113 113 133 110 114 138 98 112 148 110 109 125 105 113 153 103 79 125 104 42 130 109 43 128 103 42 131 230 80 178 104 41 126 101 42 132
48 56 82 39 51 79 66 71 98 50 57 82 57 63 90 47 58 88 52 62 91 51 60 87 120 117 123 51 59 87 55 61 86 45 53 77 50 61 92 45 57 88 43 55 83 49 59 88 44 52 78 233 224 217 105 115 149 97 109 140 98 112 148 96 112 150 103 114 147 95 106 140 99 114 152 93 104 140 90 104 144 96 108 140 113 122 156 93 105 142 107 113 145 115 121 153 108 119 157 91 105 145 119 114 139 100 105 134 84 99 134 113 117 146 109 118 152 101 105 137 93 106 140 109 116 149 97 106 141 113 122 157 102 110 143 109 117 150 86 93 121 89 107 147 81 93 125 50 57 82 49 54 76 69 76 106 67 71 97 44 57 88 42 52 78 57 64 91 55 62 89 51 58 83 40 47 69 68 71 93 42 52 79 57 66 95 52 62 92 57 66 97 67 78 115 60 67 96 47 54 79 49 56 82 44 53 81 54 63 92 50 59 87 56 61 85 50 57 82 53 66 100 58 65 93 70 75 104 45 53 77 50 58 84 45 49 68 94 98 124 100 111 141 117 121 149 97 116 162 115 119 150 112 114 141 102 116 152 107 117 153 255 242 224 97 95 109 109 123 161 108 112 139 89 108 151 115 121 152 102 115 150 102 110 140 109 115 144 100 109 141 93 107 142 100 114 151 104 115 150 101 110 141 106 116 153 113 119 150 255 244 227 108 118 149 114 120 149 105 115 140 255 243 223 255 240 217 99 108 138 68 82 114 43 52 79 43 51 74 47 54 76 53 60 82 54 58 77 51 57 83 47 54 76 49 58 85 49 56 80 44 54 81 50 58 84 49 55 82 52 58 85 50 59 87 41 51 75 51 61 92 49 58 81 50 59 84 52 60 87 60 70 101 53 58 81 49 58 84 50 57 82 50 55 76 61 67 86 49 56 80 49 58 84 50 58 81 53 61 87 54 59 83 99 109 142 105 120 148 112 113 136 110 114 141 100 111 143 109 119 154 103 114 148 101 113 148 110 120 154 109 114 141 111 111 150 104 93 144 109 42 125 109 39 113 104 41 124 93 40 120 109 44 132 111 42 127 99 42 131
54 60 86 126 124 135 48 57 85 51 60 87 42 52 79 55 61 86 48 56 82 51 57 81 50 56 81 41 49 72 50 57 82 48 55 80 46 50 71 45 50 71 68 76 106 55 65 94 236 214 194 103 104 136 99 113 153 111 121 154 121 125 154 107 115 146 103 118 155 115 122 153 126 125 150 107 115 146 105 114 147 96 104 134 110 120 154 113 121 155 116 122 152 101 112 148 117 117 144 90 108 147 114 121 153 103 110 139 115 118 146 108 120 156 107 117 152 103 118 155 89 100 137 108 116 148 107 115 146 116 122 154 99 113 150 108 115 146 104 115 150 109 119 154 52 62 90 56 63 92 46 56 86 36 48 74 49 61 92 56 70 105 46 55 85 56 68 101 62 70 100 40 53 79 51 60 89 46 59 97 55 66 96 47 58 88 46 58 88 48 54 77 49 56 79 49 59 87 57 66 97 46 54 80 46 56 83 54 58 80 35 44 67 43 49 68 36 45 67 38 50 71 76 84 118 47 57 85 50 57 82 51 59 87 57 69 102 82 92 122 110 117 149 109 119 146 95 102 130 109 119 154 107 119 155 112 122 157 100 109 140 89 97 122 108 117 152 116 122 154 101 111 137 100 110 143 104 115 148 105 113 144 101 111 145 114 120 148 104 114 147 109 119 151 106 117 151 87 100 133 115 122 154 103 111 137 106 115 144 107 116 149 109 114 143 106 119 154 109 117 148 255 244 226 96 113 152 255 243 226 105 111 143 51 61 92 50 59 82 49 57 82 55 61 86 64 69 95 46 56 83 57 65 90 116 106 99 47 55 80 46 58 88 53 61 89 52 57 78 50 61 92 55 59 85 48 59 87 52 62 91 54 60 86 45 53 79 45 52 74 51 58 82 47 58 88 54 61 85 53 60 83 56 60 80 59 63 87 49 59 87 49 59 87 49 61 92 43 55 84 51 59 84 62 68 93 92 105 140 118 113 144 116 119 143 113 117 145 110 116 145 107 115 146 109 118 149 255 243 226 110 120 154 105 92 137 87 37 114 85 37 112 105 42 129 112 44 129 103 41 126 94 36 113 102 41 124 90 36 111
60 70 103 51 60 87 51 62 92 120 118 126 45 53 77 49 57 83 118 114 117 49 59 95 56 65 92 52 60 87 54 63 98 47 51 70 44 52 78 49 57 82 50 59 95 80 83 106 114 118 146 98 104 139 242 223 210 111 120 154 245 227 213 102 115 152 102 109 138 110 115 150 117 122 152 113 122 155 108 119 147 108 119 155 104 114 147 102 114 152 244 224 214 103 116 151 108 112 141 95 111 149 115 122 154 112 120 153 90 101 137 94 106 143 90 107 147 106 113 145 105 115 149 255 233 209 105 112 144 102 112 149 102 111 142 112 120 153 106 119 155 83 96 131 51 57 81 50 56 85 54 62 91 51 57 81 49 59 87 57 66 95 53 62 91 48 59 88 50 59 87 55 67 97 52 62 91 48 58 88 64 66 90 57 64 91 55 61 91 51 60 89 39 49 76 55 65 97 43 52 78 48 54 77 47 58 88 45 55 83 56 64 91 56 60 83 51 60 89 51 59 87 47 56 85 52 62 92 63 72 103 49 61 92 64 68 88 83 88 114 109 111 134 112 121 155 103 115 152 112 119 151 108 121 159 84 93 123 255 245 220 112 117 145 91 107 143 111 121 155 100 113 149 106 113 141 107 112 136 237 202 170 100 114 151 112 117 146 98 105 131 77 93 127 104 112 142 106 109 130 116 120 148 90 106 138 106 114 144 255 244 221 102 117 156 113 117 145 102 116 151 107 116 148 101 111 143 109 120 152 97 104 130 105 108 134 58 63 87 252 226 194 57 64 90 51 60 87 56 62 88 48 61 92 71 73 93 44 53 78 48 59 87 63 71 92 54 63 91 57 63 87 49 58 84 48 56 83 43 50 72 47 56 83 52 58 81 54 63 91 57 61 82 55 62 88 47 57 82 52 62 91 51 60 87 222 212 203 52 62 91 43 55 84 54 59 83 62 71 101 48 58 88 49 58 84 48 58 87 72 81 110 98 110 142 116 120 148 101 110 148 99 107 134 107 112 136 97 106 134 100 108 139 255 98 196 93 39 118 98 39 113 100 40 127 90 39 119 90 37 119 115 43 121 94 36 113 110 44 131
82 99 137 102 111 144 89 102 139 85 84 113 94 111 153 97 113 151 102 103 128 82 93 125 85 93 121 94 100 127 93 101 135 99 104 133 106 118 151 86 97 128 60 68 92 39 46 68 65 75 107 58 68 103 234 212 189 71 79 106 126 126 138 73 79 105 55 69 101 78 84 112 55 61 86 54 63 91 61 68 96 65 68 91 64 67 91 54 62 91 51 61 92 55 67 97 48 61 92 76 85 119 78 84 110 61 71 99 46 53 83 74 83 111 60 70 98 86 93 122 48 59 87 76 84 118 66 81 116 70 83 116 63 73 103 69 76 104 85 94 124 90 104 142 102 111 142 81 93 125 97 108 143 114 123 157 99 102 130 93 102 139 95 107 142 98 108 133 119 125 156 108 114 144 113 121 152 106 113 145 96 114 146 91 99 127 100 108 140 81 99 136 96 105 143 91 104 140 103 116 152 112 118 147 90 107 146 86 91 119 85 93 121 102 109 137 100 111 145 97 107 141 88 97 124 92 105 140 91 106 142 95 112 151 101 108 138 84 98 138 90 95 124 57 66 94 51 61 89 65 77 109 55 65 89 75 82 111 48 58 88 66 73 100 64 76 108 72 79 109 70 80 114 63 67 91 52 64 93 58 68 101 73 81 92 46 66 86 75 96 113 62 86 90 58 80 91 88 97 130 66 71 98 70 82 113 66 75 101 47 56 82 58 72 102 56 69 101 53 64 93 59 70 97 55 67 97 66 80 114 71 79 105 62 71 100 231 224 223 108 120 154 112 120 153 96 106 138 113 120 148 119 118 142 96 105 128 90 101 130 95 111 150 107 110 137 105 118 147 108 116 145 98 107 138 93 102 133 94 102 139 98 105 136 97 110 145 114 121 153 95 105 136 104 113 145 94 106 134 110 103 133 94 102 128 98 103 130 95 103 133 94 103 133 105 113 145 109 113 139 96 107 137 255 236 214 105 112 140 103 113 145 99 110 145 58 73 102 75 85 118 44 55 83 84 92 120 59 70 100 74 51 95 114 43 122 88 35 108 92 36 100 92 39 123 107 41 126 97 38 113 85 34 106 107 42 125 99 40 119
116 122 152 102 110 138 114 122 155 117 122 152 107 115 146 103 114 147 97 107 142 96 111 149 109 119 154 116 122 152 92 106 140 108 117 150 90 100 131 56 68 99 43 55 84 44 55 83 46 56 89 53 60 86 56 63 90 51 58 84 45 51 81 58 62 84 53 59 86 52 62 91 53 61 88 41 52 81 51 60 89 49 59 90 53 62 91 59 68 92 48 57 85 47 59 90 46 53 78 47 57 85 51 60 85 50 59 87 46 58 88 56 63 90 48 59 90 50 60 89 48 61 92 51 58 84 51 62 92 41 49 75 51 59 87 46 51 72 92 101 133 102 117 152 100 109 141 100 104 129 115 120 152 113 123 157 108 113 140 105 110 135 118 120 150 101 117 156 92 109 141 104 119 157 107 117 152 115 121 153 120 123 150 112 122 157 104 115 149 98 114 151 101 113 142 110 120 156 99 113 149 107 119 155 99 105 136 100 115 153 102 114 149 103 118 157 99 113 150 102 111 142 96 110 146 113 120 152 104 112 148 111 121 155 118 122 151 72 84 116 59 68 98 47 56 82 50 57 80 52 63 93 50 65 101 56 65 96 50 57 82 56 62 85 57 68 100 52 62 91 51 59 87 62 71 104 46 56 83 38 65 67 46 89 76 50 80 79 44 99 77 47 101 78 44 100 79 37 95 78 54 83 83 51 82 82 48 56 82 47 55 79 50 59 87 49 58 84 50 66 102 58 65 91 45 58 88 50 59 87 66 77 111 51 59 87 58 73 103 105 108 134 103 108 142 108 118 149 106 118 155 108 116 147 105 113 151 102 118 148 109 116 148 99 117 158 110 119 151 108 118 143 107 116 149 119 122 152 104 118 155 93 106 140 103 115 149 103 111 146 103 107 136 106 119 155 99 109 141 105 114 146 114 111 146 109 113 138 108 118 151 104 112 141 102 113 147 117 122 152 113 118 147 98 112 148 255 243 223 99 115 151 103 118 155 110 120 154 76 87 121 51 59 84 55 61 85 69 59 100 255 97 212 86 37 115 101 38 111 98 42 125 109 41 116 96 40 124 96 40 117 110 40 114 104 41 126 101 41 125
108 119 154 117 121 150 109 118 155 244 226 214 240 221 204 99 110 150 90 105 141 110 120 154 98 108 139 90 105 141 109 120 154 77 81 109 58 72 116 43 52 78 52 60 87 51 64 105 65 72 102 52 60 86 51 59 87 47 58 88 51 62 92 48 61 92 51 60 87 54 63 91 47 58 88 48 57 85 49 57 85 50 59 87 50 60 90 47 56 82 46 52 76 50 61 91 47 58 88 46 54 80 54 61 86 49 59 87 49 59 87 47 58 88 51 59 87 41 51 78 44 53 81 46 56 83 43 53 80 48 57 84 63 71 96 74 82 111 102 114 149 99 105 133 93 107 141 97 106 139 106 113 144 106 118 155 114 122 155 112 117 146 108 119 154 117 122 152 103 113 147 119 121 145 109 118 148 111 123 159 110 117 149 109 120 156 91 107 143 101 113 148 111 121 155 103 118 157 114 121 152 107 117 153 111 121 156 111 118 151 98 112 148 100 110 145 107 117 150 105 116 153 114 121 153 106 114 146 109 116 149 108 119 154 103 110 139 70 81 112 54 62 88 46 56 83 53 62 91 56 62 88 55 67 99 51 59 82 48 56 82 56 63 92 54 60 86 51 60 87 51 69 89 56 81 103 48 75 82 41 111 78 95 213 107 38 109 78 42 112 78 43 113 77 45 113 75 45 110 74 41 111 77 49 102 81 48 105 81 47 74 84 51 58 83 49 56 79 52 62 91 49 54 77 66 77 112 49 61 92 51 59 87 60 71 104 57 68 99 80 86 112 112 119 149 99 108 139 102 109 131 100 113 150 103 114 147 102 114 150 106 113 151 98 112 148 107 119 155 101 117 156 98 111 144 118 121 146 106 117 150 102 117 155 98 116 156 106 113 146 101 118 158 108 119 154 104 114 148 110 120 154 110 118 150 114 113 130 102 116 151 108 116 147 97 108 142 109 117 145 110 118 148 105 118 155 108 119 152 107 119 155 102 113 147 255 244 225 115 120 148 78 92 131 53 62 91 65 57 95 85 40 114 89 38 115 93 34 106 98 39 121 89 35 109 104 40 120 100 39 115 105 40 117 112 43 128 105 40 117
119 123 153 100 113 148 110 120 154 105 114 147 115 121 153 244 226 214 115 121 153 99 116 156 108 119 154 105 115 149 59 70 100 52 60 86 55 63 90 46 53 77 45 56 86 45 55 83 44 52 78 48 58 88 49 59 88 55 63 90 48 59 88 47 56 83 47 56 83 54 60 86 52 60 86 45 56 85 120 118 126 56 63 90 53 62 91 48 59 88 53 60 87 50 59 87 48 61 92 54 62 91 56 63 90 48 59 87 51 62 92 51 62 92 51 56 81 54 62 91 51 59 87 51 60 89 59 70 104 51 62 92 66 82 116 106 119 155 103 115 151 108 113 142 107 119 155 120 124 153 97 110 148 103 114 151 107 115 144 110 121 156 94 107 141 106 118 155 109 115 146 91 109 142 89 101 138 109 117 149 107 116 149 96 115 150 85 105 143 103 108 142 89 94 125 97 112 148 114 121 153 99 112 148 105 115 149 111 117 146 100 113 148 109 116 148 90 101 132 108 118 152 101 110 143 118 118 142 100 113 148 99 113 147 105 113 150 87 95 125 48 60 90 42 52 78 56 60 87 59 64 87 53 60 86 60 69 99 53 60 86 58 68 101 54 62 91 44 57 88 40 88 74 40 98 79 95 212 107 95 211 106 43 113 77 46 115 76 43 113 77 44 114 77 41 111 77 42 102 73 41 105 75 42 112 76 43 105 72 43 93 79 54 62 91 47 53 73 53 62 91 50 59 87 53 60 86 48 59 87 55 61 86 54 65 97 60 69 100 60 70 100 113 118 147 102 113 147 112 119 149 111 118 146 108 118 152 106 115 146 99 111 143 102 113 147 108 121 157 102 114 148 105 115 144 255 242 226 105 114 147 105 118 155 109 119 154 118 121 147 111 117 144 104 118 155 100 115 157 103 112 147 107 119 155 105 118 152 255 241 221 103 109 143 107 115 147 94 110 144 100 115 157 98 116 156 103 116 150 111 119 149 106 113 147 101 117 156 109 119 154 117 120 148 99 100 132 56 66 97 104 38 113 114 43 125 90 35 104 84 34 96 81 35 106 81 34 104 99 36 109 89 38 118 89 35 106 107 42 127
99 108 139 91 106 141 112 114 140 245 226 213 106 118 155 108 115 146 101 113 147 105 118 155 98 113 151 69 81 112 53 63 98 48 59 87 45 54 80 52 61 89 50 61 92 54 62 91 58 64 89 45 54 83 57 67 99 50 60 89 52 60 86 53 62 91 57 64 90 50 59 87 60 68 98 52 60 86 49 59 87 58 64 90 54 60 86 52 60 86 47 55 82 54 62 91 50 57 84 54 62 86 51 62 91 49 57 85 52 62 91 48 58 88 53 59 86 45 54 81 52 61 89 49 57 82 50 59 87 45 55 83 101 107 138 118 123 154 100 114 152 95 106 144 110 111 144 104 115 151 95 113 151 109 119 154 101 110 144 111 120 154 107 119 156 105 112 144 104 118 155 102 115 149 102 114 150 107 117 152 96 113 153 111 119 152 104 112 143 101 114 152 103 118 155 112 120 153 99 113 149 111 122 157 107 120 156 105 118 155 107 116 148 107 116 149 116 122 152 100 111 146 95 112 151 121 125 155 99 115 147 104 113 143 105 114 146 73 87 119 51 62 92 54 60 86 52 61 89 52 64 103 51 61 92 56 61 82 52 61 88 60 69 99 54 71 96 43 78 79 45 104 80 43 110 74 44 113 77 48 113 72 40 98 68 37 108 78 44 113 77 42 102 74 40 106 76 46 112 73 42 108 72 41 108 75 42 104 72 45 106 74 45 97 71 41 87 78 46 55 83 62 71 103 60 69 99 54 63 91 59 70 101 53 65 96 43 55 84 55 63 91 61 68 95 102 112 151 106 119 156 110 121 156 103 116 151 87 108 143 111 119 150 103 112 152 111 118 148 109 117 145 111 119 152 101 115 148 110 120 154 112 120 153 113 116 148 103 112 152 108 120 149 104 118 155 101 113 147 104 112 138 103 114 149 107 111 145 101 112 147 101 101 137 115 121 153 104 118 155 104 118 155 101 108 142 112 120 153 99 113 149 118 122 152 111 119 151 104 113 152 104 118 155 114 116 149 106 106 141 90 50 107 93 39 120 94 37 109 86 34 100 82 33 101 84 34 106 108 40 110 100 39 117 97 41 119 103 41 124
90 105 141 111 120 154 91 106 143 241 222 210 114 121 153 106 115 146 106 119 157 104 110 139 64 71 105 48 58 88 48 61 92 59 69 102 46 53 77 46 55 83 44 57 88 54 63 91 44 55 83 50 59 87 50 54 76 50 59 87 50 59 87 50 59 87 54 62 91 57 68 92 53 62 91 50 61 92 53 62 91 51 55 79 45 55 83 50 59 87 49 57 85 53 62 91 48 57 85 51 61 92 50 61 92 50 61 92 52 62 91 51 58 84 50 61 92 51 60 89 52 60 86 53 62 91 51 59 87 62 75 110 106 116 151 90 103 139 102 114 151 103 116 151 110 121 156 107 116 146 108 119 154 100 114 154 99 113 151 110 120 154 114 118 148 102 114 150 101 110 141 112 121 155 113 121 155 111 117 147 107 117 152 245 227 215 105 116 151 99 110 140 110 117 151 99 108 147 102 113 147 105 115 148 108 120 156 108 114 142 113 122 160 113 121 153 98 112 148 104 116 151 99 120 154 106 111 138 107 118 147 111 120 154 100 114 150 98 107 136 42 53 81 45 55 83 57 64 90 53 61 89 47 60 93 46 59 86 45 56 86 52 62 91 50 74 85 44 96 73 44 108 74 39 104 72 45 114 77 53 99 79 53 104 81 48 102 83 72 91 101 63 99 86 70 93 93 56 97 89 76 84 106 69 87 99 42 103 72 38 102 69 42 108 76 42 107 76 52 87 82 49 59 86 50 59 87 50 59 87 53 59 86 47 58 88 59 68 98 53 62 91 45 54 80 101 103 133 104 112 142 99 116 156 108 119 154 109 120 156 100 117 156 112 116 143 107 117 150 114 120 148 100 108 143 108 114 147 116 117 149 103 113 152 108 120 156 104 118 150 110 114 148 106 118 155 108 115 147 98 114 151 117 119 145 255 255 255 105 104 137 97 116 157 116 118 144 109 115 146 114 114 149 116 119 146 102 112 152 97 108 142 111 107 130 111 116 145 109 120 154 104 118 155 117 122 152 105 108 146 124 45 118 93 37 114 86 33 106 115 43 123 67 28 91 87 36 112 98 39 116 88 34 94 90 36 112 101 38 111
110 120 154 110 120 154 109 119 154 98 115 157 105 118 151 110 116 145 95 101 131 52 62 91 52 62 91 58 64 90 55 63 91 52 60 87 52 62 91 49 61 92 45 58 96 58 64 90 51 56 79 47 56 82 50 59 87 56 63 90 53 62 91 50 60 89 47 53 77 52 60 86 57 63 90 51 62 92 51 59 87 52 60 86 51 60 87 54 60 86 121 118 124 52 60 86 50 60 89 55 63 90 54 61 88 55 63 90 48 61 92 49 58 87 51 62 92 44 55 79 50 59 87 53 57 84 48 58 87 100 114 150 112 118 146 95 111 143 98 110 147 96 117 160 106 116 148 103 115 151 105 118 155 101 113 147 102 115 153 115 121 150 114 123 157 100 114 152 116 122 151 115 122 154 106 118 155 109 115 147 113 118 150 109 119 154 113 121 155 99 110 145 111 121 155 108 119 154 100 114 152 113 120 150 121 124 153 91 111 151 101 115 152 110 121 157 91 103 133 101 109 139 243 227 210 105 117 150 98 112 148 105 114 153 108 121 157 70 78 107 49 57 84 47 60 93 52 62 91 51 61 89 54 60 83 55 63 86 48 58 90 49 59 83 41 96 69 38 101 73 60 108 83 39 100 67 63 101 89 74 83 107 89 69 115 82 52 113 100 74 112 83 78 111 90 64 113 97 62 118 85 71 116 224 88 171 95 70 114 54 97 88 78 96 99 53 101 82 75 84 95 60 66 105 43 55 84 57 62 86 53 60 86 54 61 87 53 62 91 52 62 91 63 71 101 63 69 97 101 118 158 111 115 152 107 117 150 123 115 150 99 108 139 104 118 155 108 117 150 96 107 140 109 119 154 93 111 149 111 121 155 106 118 155 99 116 149 131 201 156 103 116 151 99 112 150 103 118 155 102 113 148 104 114 148 105 115 147 255 244 225 97 105 141 103 94 119 115 117 148 107 119 154 103 112 152 109 113 149 101 111 142 111 119 154 114 121 153 118 122 149 108 119 154 106 114 146 102 102 142 85 61 109 89 35 110 95 34 95 91 35 102 75 30 99 96 37 94 91 36 107 98 38 111 74 33 93 90 34 99
102 113 147 102 117 151 96 112 150 110 120 154 89 102 135 84 95 128 54 63 91 50 57 82 49 61 92 54 63 91 47 58 88 121 119 125 61 69 100 45 51 76 47 55 85 121 119 126 118 115 121 120 118 126 51 59 87 55 63 91 48 61 92 67 73 102 51 59 87 117 115 121 52 62 91 47 60 93 53 62 91 53 62 91 51 60 87 53 62 91 50 59 88 52 62 91 54 63 91 54 59 80 47 58 88 51 62 92 50 59 87 55 63 90 44 56 86 52 60 86 48 61 92 63 72 104 83 95 128 103 118 157 106 118 158 116 122 152 100 114 152 109 120 154 103 114 147 93 112 153 112 120 153 105 118 155 108 114 141 95 107 140 102 117 156 106 118 155 109 117 150 116 119 147 105 117 153 109 118 150 102 113 147 97 106 139 107 115 146 110 120 154 106 118 155 117 122 144 106 119 156 96 112 150 103 118 155 107 119 155 101 117 156 104 114 147 104 118 148 106 119 156 110 120 154 103 114 147 104 113 152 91 106 141 102 118 157 95 100 126 57 65 94 57 65 87 44 55 83 62 71 104 45 56 83 118 116 121 44 65 82 47 91 79 31 86 62 101 202 104 71 96 95 72 79 89 72 78 106 96 73 113 90 41 123 107 40 126 229 76 177 95 39 128 224 75 176 103 39 123 101 40 127 104 56 121 103 40 127 108 40 125 99 64 116 94 63 118 68 69 94 66 71 92 52 53 88 47 56 82 51 61 92 48 61 92 56 63 90 48 59 87 53 57 78 57 61 88 84 90 117 255 244 226 103 114 137 108 120 156 103 112 152 100 115 152 114 121 153 112 119 149 107 119 155 117 123 153 106 115 148 114 119 149 112 116 149 111 119 146 98 107 145 94 107 141 109 110 152 221 242 229 106 115 146 110 121 156 106 119 155 101 112 151 104 110 138 111 117 146 108 119 154 99 116 156 105 118 155 105 117 150 106 117 149 98 107 145 103 113 147 105 110 139 109 111 146 96 111 155 97 55 113 83 33 100 92 37 115 90 35 104 86 29 90 84 31 98 221 76 163 97 38 114 95 38 115 102 38 112
101 114 152 108 120 156 114 117 144 255 219 168 67 72 98 53 62 91 53 60 86 53 62 91 58 65 94 51 62 92 50 59 88 58 64 90 48 61 92 50 59 88 56 63 90 52 60 86 52 60 86 49 59 87 118 116 124 53 60 87 56 63 90 50 61 92 52 60 86 48 59 87 49 56 84 57 67 102 64 69 96 51 59 87 59 64 89 48 54 76 61 70 100 49 56 82 50 60 89 56 63 90 54 63 91 52 62 91 51 60 89 54 61 88 46 58 88 48 59 90 49 59 90 79 90 121 102 120 149 111 116 145 107 119 154 106 116 150 114 122 155 108 116 148 106 117 151 121 123 151 111 120 153 96 112 150 114 122 155 107 119 156 111 121 155 105 118 155 105 118 155 102 114 149 99 114 153 98 112 141 105 119 156 102 113 147 111 121 155 107 116 145 110 115 140 109 118 149 112 121 156 245 224 206 104 118 155 107 119 154 117 123 154 95 111 141 105 117 158 108 114 151 99 114 154 98 112 148 98 115 152 114 121 153 109 119 157 61 83 98 46 55 83 54 63 91 47 56 82 51 60 87 52 60 86 53 62 91 55 62 88 50 101 77 72 95 93 103 63 117 97 60 126 107 40 126 88 55 117 94 39 128 97 39 128 110 41 125 103 40 127 105 40 126 99 39 127 100 39 127 93 39 129 102 39 121 104 40 126 110 41 125 101 40 127 105 52 121 88 73 110 97 57 115 75 51 104 50 61 92 58 51 93 45 54 80 53 57 83 53 62 91 50 59 89 45 57 84 48 56 82 83 93 123 108 119 154 107 120 156 109 119 150 111 118 150 102 113 147 102 114 148 104 115 150 108 116 151 114 121 153 105 118 155 97 112 148 116 122 152 106 118 155 92 94 135 106 117 149 103 118 155 109 119 154 108 111 145 105 113 151 104 109 139 102 109 138 105 118 155 114 121 153 110 120 146 109 119 154 105 118 155 105 117 155 99 115 151 104 109 142 255 243 222 105 118 155 92 94 134 82 62 107 222 76 162 83 31 99 95 36 112 86 33 100 104 41 121 97 35 103 80 30 89 96 36 107 82 27 90
102 113 147 116 122 152 89 107 147 61 76 109 50 59 87 49 60 90 57 64 90 52 59 87 53 57 84 57 63 90 52 62 91 55 66 104 48 59 87 49 61 92 55 63 91 51 59 87 51 60 89 50 57 82 51 62 92 55 63 91 54 61 86 48 56 83 54 62 91 50 58 90 57 62 88 61 65 89 54 61 88 54 63 91 56 63 90 53 62 91 55 63 90 50 61 92 49 59 87 48 57 86 53 62 91 54 62 91 51 59 87 54 62 91 46 53 83 67 73 101 61 65 89 209 111 170 113 119 149 105 118 155 113 121 153 108 120 156 100 116 159 109 119 154 104 118 155 98 116 156 103 115 151 113 121 155 109 118 148 112 121 155 111 120 154 100 117 157 106 116 145 93 103 135 113 121 153 113 118 146 109 118 146 116 123 154 96 112 152 116 121 152 111 122 158 99 109 148 111 120 154 101 117 156 114 120 157 110 120 154 106 115 148 108 119 154 106 115 152 102 118 149 113 121 153 109 120 155 116 119 146 113 120 150 97 113 149 95 102 133 48 57 85 50 57 82 54 61 86 48 59 86 45 58 88 53 61 88 68 49 84 51 88 74 86 78 103 86 63 113 224 75 176 99 39 128 102 40 127 101 40 127 95 39 128 105 40 126 100 39 127 109 40 125 104 40 126 102 40 127 101 40 127 108 40 126 102 40 127 101 39 122 99 39 127 104 40 126 92 37 125 95 42 116 87 47 118 88 51 104 70 54 96 55 60 88 51 60 87 46 58 89 54 63 91 48 59 88 48 61 92 61 68 93 85 101 136 100 117 156 91 110 150 114 121 153 96 111 149 115 117 143 108 114 151 107 114 151 108 115 148 111 120 153 111 120 153 107 114 151 104 118 155 113 121 153 110 116 151 95 110 144 89 100 133 115 116 148 99 111 144 102 117 156 110 115 150 109 119 154 109 112 139 120 122 149 101 118 157 116 122 152 90 101 133 100 112 151 111 120 154 98 112 148 110 120 154 110 115 149 103 90 146 255 108 198 89 31 94 93 36 110 97 36 103 87 34 101 91 36 103 104 39 114 87 34 100 86 35 115
101 114 150 93 102 133 71 79 107 49 59 83 51 62 92 53 62 91 54 62 91 125 122 131 48 58 87 56 63 90 57 64 90 51 59 87 54 63 91 53 62 91 48 58 88 55 61 85 55 63 91 51 60 89 53 62 91 49 56 82 55 63 90 120 118 126 56 63 90 50 60 89 119 118 126 51 62 92 51 59 87 50 61 92 54 62 91 51 59 87 54 61 88 55 63 91 51 59 87 52 62 91 50 60 89 54 63 91 54 63 91 49 59 87 55 63 91 56 63 90 69 83 116 114 122 155 106 116 151 102 117 156 111 121 155 116 123 154 108 119 154 102 117 156 107 123 152 107 119 155 104 118 155 112 120 153 110 120 154 104 114 146 109 120 154 109 119 154 109 118 150 108 120 156 242 225 216 109 119 151 95 113 144 100 112 148 105 117 150 109 119 154 107 120 156 110 120 156 246 225 210 109 119 149 103 118 155 106 118 155 94 107 140 103 112 145 105 118 155 108 120 147 104 112 145 105 117 150 103 117 152 255 241 218 108 120 156 121 114 121 45 56 81 53 59 83 47 59 81 54 60 86 50 60 90 62 59 96 75 56 97 90 48 109 93 38 123 229 75 173 103 40 127 225 75 173 106 40 126 103 39 121 106 39 120 101 38 122 103 39 121 97 39 126 104 40 126 101 40 127 102 40 127 105 40 126 105 40 126 117 41 123 106 40 126 97 39 128 102 40 127 106 40 126 97 39 126 100 42 122 83 50 113 79 57 102 57 59 96 51 58 84 52 60 86 51 60 82 53 60 86 57 63 90 68 73 107 104 115 149 105 118 155 123 125 154 98 105 135 105 118 155 108 119 153 103 118 148 110 118 150 103 108 143 100 115 151 97 107 139 104 112 146 106 115 147 105 114 147 104 113 152 88 103 136 106 114 150 102 113 147 102 108 143 106 109 143 107 113 151 102 113 148 96 105 138 104 105 129 102 106 139 109 106 140 103 108 147 100 116 149 102 103 134 103 111 156 90 96 131 108 103 143 94 72 122 81 33 99 87 33 98 69 27 81 70 27 87 254 87 179 89 34 100 94 34 97 82 35 92
55 65 92 63 71 99 120 118 126 53 60 86 57 63 90 52 62 91 51 62 92 50 61 92 51 62 92 53 62 91 50 61 92 50 59 87 54 63 91 66 73 102 120 118 126 53 62 91 53 60 86 55 61 88 120 118 126 50 59 82 57 64 90 57 61 88 54 60 86 51 58 84 52 59 86 47 59 91 51 58 82 66 73 102 50 61 92 55 61 88 120 118 126 50 56 85 53 62 91 52 62 91 62 70 99 48 56 86 46 57 88 54 62 91 122 119 125 62 71 99 92 110 149 115 121 152 113 121 153 119 122 152 89 108 145 244 226 214 105 117 158 102 115 143 108 120 156 109 119 154 100 117 156 111 121 156 104 118 155 109 116 148 96 108 140 108 116 150 110 116 145 88 109 150 122 122 147 109 120 156 95 115 150 118 121 148 105 118 148 107 119 154 113 120 149 102 113 147 99 105 132 126 200 153 112 121 155 109 116 148 122 124 153 105 114 146 109 119 147 102 112 145 109 120 156 116 122 154 114 121 153 113 121 155 101 117 150 83 90 117 54 63 91 54 58 84 53 62 91 51 59 87 52 59 95 77 58 102 84 44 121 90 56 109 113 41 124 106 40 123 105 40 123 116 41 124 116 41 124 110 41 125 92 37 122 101 40 127 108 40 125 99 39 127 104 40 126 92 37 122 109 41 125 98 38 121 105 40 126 109 40 120 93 38 123 96 39 126 91 37 124 93 39 129 107 40 124 98 39 128 106 45 115 74 52 99 80 53 104 46 59 89 47 56 83 46 54 81 50 59 87 50 59 87 68 78 108 105 110 145 95 107 138 114 121 153 113 121 153 118 119 141 101 113 147 110 120 154 106 115 146 100 113 148 114 122 154 98 112 146 103 113 152 101 117 156 97 111 152 97 107 144 95 106 144 109 115 152 113 121 153 105 114 148 103 117 155 109 116 145 107 119 154 92 110 150 115 121 153 116 117 148 107 97 130 93 106 142 102 108 143 101 108 143 102 114 150 106 108 144 102 107 147 97 91 119 86 62 115 82 31 91 72 29 82 78 31 96 101 37 104 96 35 105 98 37 103 87 34 104
55 63 91 49 61 92 50 59 88 51 62 92 54 63 91 56 63 90 54 63 91 52 60 89 52 62 91 120 118 126 53 62 91 53 62 91 45 56 85 56 62 88 57 69 101 49 59 87 50 61 92 47 56 81 52 60 87 56 63 90 52 62 91 58 64 90 48 56 85 50 61 92 54 62 91 49 59 89 55 63 90 48 56 82 55 63 91 50 60 89 60 65 89 47 56 85 48 59 90 43 53 84 64 71 100 51 62 92 53 60 86 119 118 127 59 73 106 98 103 131 105 118 155 105 118 155 109 119 154 112 120 153 90 106 145 115 121 153 103 118 155 243 226 209 106 118 155 99 112 148 114 121 153 106 116 151 107 114 150 110 120 154 107 119 155 119 124 153 96 109 144 107 118 150 93 106 140 110 120 154 113 121 153 114 121 153 112 121 155 95 108 145 106 119 156 115 121 152 100 114 150 105 118 155 113 109 146 103 121 149 109 119 154 97 116 158 104 115 147 116 122 152 103 118 155 115 122 147 105 116 150 107 120 149 104 118 155 97 99 125 48 61 92 46 56 83 55 63 91 56 57 92 81 53 103 104 40 126 99 43 117 103 40 125 213 70 161 107 39 119 105 40 125 94 37 118 107 40 126 108 40 126 89 38 129 113 41 123 103 40 127 105 40 126 100 38 120 104 40 126 101 39 125 116 41 123 113 41 124 99 39 127 110 41 125 92 36 118 96 37 117 113 41 124 106 40 123 107 40 126 101 40 127 87 47 118 80 55 102 76 57 102 63 60 95 55 61 86 51 62 92 49 59 88 50 59 83 64 74 107 102 114 150 96 112 148 107 118 152 96 107 141 110 113 140 106 114 139 105 117 151 99 113 148 105 113 151 94 110 142 107 119 154 101 114 149 98 105 146 95 111 149 112 120 153 101 113 148 108 119 147 91 109 142 109 110 143 105 116 149 111 120 154 128 110 143 104 114 151 108 105 139 116 115 152 95 96 136 100 113 148 104 109 143 106 118 155 101 103 137 101 105 135 84 93 124 117 92 142 70 27 74 56 23 77 57 24 78 78 31 97 84 33 91 94 36 106 57 24 80
75 89 122 73 87 119 95 102 132 72 87 122 234 211 184 95 101 130 101 111 144 86 98 136 73 84 115 87 96 127 87 96 127 55 64 90 78 90 122 78 92 126 84 87 110 86 100 134 79 92 126 143 144 162 78 92 126 110 114 142 97 101 127 78 84 112 85 99 135 237 215 192 60 70 100 93 101 131 83 95 128 82 93 125 73 80 117 72 90 124 85 98 119 97 97 123 95 102 132 131 133 149 86 96 128 89 100 134 129 129 140 78 85 114 91 96 123 91 97 126 75 84 115 136 135 148 78 87 116 74 77 103 74 83 113 65 74 104 93 102 133 77 91 123 84 87 113 88 100 134 99 107 138 80 92 122 76 89 122 134 137 154 90 101 133 75 83 111 86 96 127 83 95 128 95 102 132 68 81 115 81 90 121 89 97 129 88 91 116 74 81 107 69 78 105 94 102 133 90 102 125 97 102 123 74 92 130 78 90 121 141 141 157 72 79 107 97 111 123 107 112 141 92 104 135 86 91 116 85 98 132 85 91 117 91 95 122 76 88 119 88 99 131 85 99 135 77 71 112 87 74 124 95 60 113 94 43 124 105 40 125 101 39 122 111 41 125 228 75 172 101 37 116 100 39 127 103 39 121 106 40 126 104 38 115 108 40 125 111 41 125 96 37 115 105 40 126 101 40 127 111 41 125 91 37 120 95 39 128 111 40 118 109 41 125 108 40 126 99 39 126 105 40 126 102 39 120 101 39 126 90 34 106 108 40 124 106 46 118 100 62 111 91 50 113 73 88 113 67 82 106 79 86 111 75 87 119 66 80 111 105 115 149 255 236 211 79 91 113 97 97 121 83 86 120 90 92 115 60 71 102 92 100 132 90 91 119 71 82 114 108 116 147 92 104 137 86 90 123 78 85 123 68 77 105 66 75 104 104 101 134 86 94 126 100 107 136 75 88 123 77 81 110 71 81 114 69 81 112 74 77 113 94 97 118 82 62 98 84 86 107 78 83 116 98 94 127 71 80 106 67 70 94 70 52 78 74 65 89 79 53 92 61 23 73 65 26 81 70 30 87 62 24 83 84 34 104 71 29 91
109 119 154 108 119 154 103 118 155 247 228 213 247 228 215 101 113 147 114 121 153 112 120 153 98 108 140 107 118 150 108 119 154 106 119 155 242 223 211 112 120 153 100 117 156 107 116 149 241 223 210 113 121 153 104 118 155 109 119 154 104 118 155 103 113 150 98 113 150 246 227 214 112 120 150 109 120 154 106 114 146 107 116 150 102 117 156 111 115 150 244 225 210 244 226 214 97 112 149 103 113 147 102 114 149 97 102 142 113 121 154 107 113 142 58 70 100 46 54 81 57 64 90 53 60 86 43 55 86 52 58 92 52 62 91 49 59 90 52 60 88 56 63 90 50 61 92 46 58 88 52 62 91 48 59 88 51 60 89 53 60 86 56 63 90 45 57 88 52 60 86 55 63 91 48 56 82 51 62 92 47 54 80 48 60 92 45 58 88 44 55 83 50 59 87 49 59 87 51 60 87 49 61 92 53 62 91 54 62 88 48 56 85 63 71 102 53 62 91 46 58 88 48 59 90 53 61 88 53 62 91 51 59 84 50 59 87 77 90 114 114 121 153 103 113 142 106 119 155 96 88 122 107 55 121 105 38 116 224 74 174 106 40 126 107 40 126 105 39 119 95 37 117 107 40 124 129 46 128 105 39 121 104 40 125 106 40 126 106 40 126 102 39 121 96 39 125 105 40 126 102 38 116 101 40 127 109 41 125 104 40 125 103 40 127 111 41 123 103 39 122 106 39 119 97 38 121 98 38 121 108 39 119 109 39 121 109 39 119 102 53 125 105 77 135 115 116 150 99 115 144 93 116 152 112 116 148 108 117 143 84 85 116 53 57 80 58 64 90 65 71 99 52 62 91 46 56 83 48 59 88 51 59 87 58 60 85 52 59 84 51 60 87 48 56 86 50 56 85 52 62 91 53 60 86 49 57 83 51 59 87 53 62 91 49 56 85 53 57 86 49 54 82 51 59 87 52 57 84 53 60 89 50 57 85 50 55 76 44 50 73 49 54 82 51 51 77 48 55 81 47 47 76 46 50 75 54 58 81 63 50 79 41 34 59 67 25 78 54 23 75 94 33 97 55 22 59 71 32 88
122 124 151 99 113 153 91 111 151 104 115 152 109 116 149 103 118 155 118 122 152 106 119 155 105 116 145 107 119 155 100 105 135 111 120 154 123 124 151 99 113 153 110 120 154 97 114 146 255 255 250 109 119 154 104 114 147 103 117 155 110 120 154 112 120 153 98 116 156 100 113 148 103 109 148 107 113 151 113 121 153 110 120 154 113 121 153 114 121 153 102 115 152 118 123 154 105 114 147 112 121 155 100 117 156 246 227 213 103 110 142 105 107 141 54 63 91 117 114 118 53 62 91 55 63 91 55 63 91 46 59 91 57 64 90 54 62 91 54 63 91 48 58 88 52 59 89 53 62 91 51 59 89 51 62 92 59 64 89 48 56 82 55 63 90 51 62 92 48 58 88 53 62 88 52 62 91 54 63 91 55 63 91 60 71 101 44 55 80 50 60 90 48 58 85 60 71 103 54 63 91 47 56 85 45 52 81 41 55 87 47 56 82 53 62 87 51 62 92 47 58 88 54 61 88 50 59 87 52 58 82 55 63 91 50 61 92 79 84 109 104 116 143 94 107 136 103 102 147 225 97 178 102 54 114 100 37 113 89 33 105 96 39 125 102 40 125 95 37 117 115 41 122 101 39 122 110 40 124 95 37 116 106 40 124 109 41 125 104 39 121 114 40 119 89 37 122 100 38 119 110 40 123 96 37 117 106 40 120 103 37 114 106 40 126 118 42 123 103 40 127 103 40 127 112 41 125 103 40 127 102 39 125 92 37 121 94 36 116 96 39 120 98 37 117 100 84 126 98 102 140 105 109 142 99 107 143 105 118 155 113 121 153 66 77 108 48 61 92 64 70 99 55 63 90 47 59 88 67 72 94 49 59 90 118 117 119 51 57 81 52 62 87 49 58 84 43 54 79 50 59 87 46 55 83 49 58 77 50 59 88 47 58 88 50 56 85 45 52 81 51 59 90 49 61 88 55 58 84 51 67 79 46 55 87 45 56 84 45 52 76 57 62 85 47 52 76 45 43 70 44 47 70 33 36 56 35 32 48 40 40 61 35 32 52 59 28 67 44 28 52 91 34 99 88 33 98 98 37 101
